;FLAVOR:Marlin
;TIME:7013
;Filament used: 5.81631m
;Layer height: 0.28
;MINX:72.2
;MINY:72.2
;MINZ:0.28
;MAXX:147.789
;MAXY:147.789
;MAXZ:24.92
;Generated with Cura_SteamEngine 4.8.0
M140 S60
M105
M190 S60
M104 S200
M105
M109 S200
M82 ;absolute extrusion mode
; Ender 3 Custom Start G-code
G92 E0 ; Reset Extruder
G28 ; Home all axes
G1 Z2.0 F3000 ; Move Z Axis up little to prevent scratching of Heat Bed
G1 X0.1 Y20 Z0.3 F5000.0 ; Move to start position
G1 X0.1 Y200.0 Z0.3 F1500.0 E15 ; Draw the first line
G1 X0.4 Y200.0 Z0.3 F5000.0 ; Move to side a little
G1 X0.4 Y20 Z0.3 F1500.0 E30 ; Draw the second line
G92 E0 ; Reset Extruder
G1 Z2.0 F3000 ; Move Z Axis up little to prevent scratching of Heat Bed
G1 X5 Y20 Z0.3 F5000.0 ; Move over to prevent blob squish
G92 E0
G92 E0
G1 F1500 E-6.5
;LAYER_COUNT:89
;LAYER:0
M107
G0 F6000 X88.959 Y75.163 Z0.28
;TYPE:SKIRT
G1 F1500 E0
G1 F1200 X89.703 Y74.374 E0.0505
G1 X89.819 Y74.267 E0.05785
G1 X90.426 Y73.761 E0.09464
G1 X91.081 Y73.32 E0.13141
G1 X91.777 Y72.947 E0.16818
G1 X92.507 Y72.646 E0.20495
G1 X93.264 Y72.421 E0.24172
G1 X94.04 Y72.273 E0.27851
G1 X95.108 Y72.2 E0.32835
G1 X139.878 Y72.2 E2.41303
G1 X140.667 Y72.24 E2.44982
G1 X141.447 Y72.359 E2.48656
G1 X142.212 Y72.557 E2.52335
G1 X142.952 Y72.831 E2.5601
G1 X143.661 Y73.179 E2.59687
G1 X144.332 Y73.597 E2.63369
G1 X144.956 Y74.08 E2.67043
G1 X145.508 Y74.601 E2.70577
G1 X145.625 Y74.723 E2.71364
G1 X146.142 Y75.32 E2.75042
G1 X146.596 Y75.966 E2.78718
G1 X146.982 Y76.655 E2.82396
G1 X147.297 Y77.379 E2.86072
G1 X147.537 Y78.131 E2.89748
G1 X147.699 Y78.904 E2.93426
G1 X147.783 Y79.689 E2.97102
G1 X147.789 Y80.428 E3.00543
G1 X147.609 Y85.01 E3.21895
G1 X147.561 Y85.622 E3.24754
G1 X147.005 Y90.314 E3.46754
G1 X146.909 Y90.916 E3.49593
G1 X145.991 Y95.537 E3.71531
G1 X145.847 Y96.138 E3.74408
G1 X144.57 Y100.658 E3.96279
G1 X144.382 Y101.237 E3.99114
G1 X142.751 Y105.658 E4.21056
G1 X142.517 Y106.224 E4.23908
G1 X140.543 Y110.506 E4.45864
G1 X140.264 Y111.053 E4.48723
G1 X137.956 Y115.172 E4.70708
G1 X137.637 Y115.691 E4.73545
G1 X135.029 Y119.596 E4.95411
G1 X134.668 Y120.094 E4.98275
G1 X131.748 Y123.797 E5.20233
G1 X131.349 Y124.263 E5.2309
G1 X128.149 Y127.723 E5.45035
G1 X127.718 Y128.154 E5.47874
G1 X124.256 Y131.355 E5.69829
G1 X123.79 Y131.753 E5.72682
G1 X120.09 Y134.67 E5.94622
G1 X119.593 Y135.031 E5.97482
G1 X115.684 Y137.642 E6.19371
G1 X115.164 Y137.961 E6.22211
G1 X111.047 Y140.267 E6.44184
G1 X110.5 Y140.546 E6.47044
G1 X106.221 Y142.518 E6.68982
G1 X105.655 Y142.752 E6.71834
G1 X101.228 Y144.385 E6.93806
G1 X100.645 Y144.574 E6.9666
G1 X96.125 Y145.848 E7.18527
G1 X95.53 Y145.991 E7.21376
G1 X90.909 Y146.91 E7.43315
G1 X90.305 Y147.006 E7.46163
G1 X85.618 Y147.561 E7.6814
G1 X85.007 Y147.609 E7.70994
G1 X80.428 Y147.789 E7.92332
G1 X79.639 Y147.78 E7.96006
G1 X78.854 Y147.691 E7.99685
G1 X78.082 Y147.524 E8.03363
G1 X77.332 Y147.279 E8.07037
G1 X76.609 Y146.959 E8.10718
G1 X75.923 Y146.568 E8.14395
G1 X75.28 Y146.11 E8.18071
G1 X74.723 Y145.625 E8.2151
G1 X74.601 Y145.508 E8.22297
G1 X74.06 Y144.933 E8.25973
G1 X73.579 Y144.306 E8.29653
G1 X73.164 Y143.634 E8.33331
G1 X72.819 Y142.924 E8.37006
G1 X72.548 Y142.182 E8.40685
G1 X72.353 Y141.417 E8.44361
G1 X72.237 Y140.636 E8.48037
G1 X72.2 Y139.878 E8.51571
G1 X72.2 Y95.108 E10.60039
G1 X72.24 Y94.319 E10.63718
G1 X72.359 Y93.539 E10.67392
G1 X72.557 Y92.774 E10.71071
G1 X72.831 Y92.034 E10.74746
G1 X73.179 Y91.325 E10.78423
G1 X73.597 Y90.654 E10.82104
G1 X74.267 Y89.819 E10.87089
G1 X74.374 Y89.703 E10.87824
G1 X74.938 Y89.151 E10.91499
G1 X75.555 Y88.658 E10.95176
G1 X76.219 Y88.23 E10.98855
G1 X76.922 Y87.872 E11.02528
G1 X77.658 Y87.586 E11.06205
G1 X78.42 Y87.377 E11.09884
G1 X79.493 Y87.216 E11.14937
G1 X81.127 Y87.087 E11.22569
G1 X82.214 Y86.826 E11.27774
G1 X83.258 Y86.394 E11.33035
G1 X84.223 Y85.801 E11.38309
G1 X85.076 Y85.073 E11.43531
G1 X85.802 Y84.222 E11.4874
G1 X86.396 Y83.254 E11.54028
G1 X86.825 Y82.217 E11.59254
G1 X87.087 Y81.123 E11.64492
G1 X87.216 Y79.493 E11.72106
G1 X87.318 Y78.71 E11.75783
G1 X87.499 Y77.941 E11.79461
G1 X87.756 Y77.194 E11.8314
G1 X88.088 Y76.478 E11.86815
G1 X88.49 Y75.798 E11.90493
G1 X88.959 Y75.163 E11.94169
G0 F6000 X89.345 Y75.324
G1 F1200 X89.975 Y74.668 E11.98404
G1 X90.091 Y74.561 E11.99139
G1 X90.682 Y74.069 E12.0272
G1 X91.322 Y73.642 E12.06302
G1 X92.002 Y73.283 E12.09883
G1 X92.716 Y72.997 E12.13464
G1 X93.456 Y72.787 E12.17046
G1 X94.214 Y72.654 E12.20629
G1 X95.108 Y72.6 E12.248
G1 X139.878 Y72.6 E14.33268
G1 X140.646 Y72.64 E14.36849
G1 X141.406 Y72.759 E14.40431
G1 X142.149 Y72.957 E14.44011
G1 X142.868 Y73.231 E14.47594
G1 X143.554 Y73.578 E14.51174
G1 X144.201 Y73.994 E14.54755
G1 X144.801 Y74.475 E14.58336
G1 X145.219 Y74.878 E14.6104
G1 X145.336 Y75 E14.61827
G1 X145.839 Y75.582 E14.65409
G1 X146.278 Y76.213 E14.68988
G1 X146.65 Y76.886 E14.72569
G1 X146.95 Y77.595 E14.76154
G1 X147.175 Y78.33 E14.79733
G1 X147.322 Y79.085 E14.83314
G1 X147.39 Y79.851 E14.86895
G1 X147.389 Y80.412 E14.89508
G1 X147.209 Y84.994 E15.1086
G1 X147.164 Y85.575 E15.13573
G1 X146.608 Y90.267 E15.35574
G1 X146.517 Y90.838 E15.38266
G1 X145.599 Y95.459 E15.60204
G1 X145.462 Y96.029 E15.62934
G1 X144.185 Y100.549 E15.84805
G1 X144.007 Y101.098 E15.87492
G1 X142.376 Y105.519 E16.09434
G1 X142.153 Y106.056 E16.12142
G1 X140.179 Y110.338 E16.34097
G1 X139.915 Y110.857 E16.36809
G1 X137.607 Y114.976 E16.58794
G1 X137.305 Y115.469 E16.61486
G1 X134.697 Y119.374 E16.83352
G1 X134.354 Y119.846 E16.86069
G1 X131.434 Y123.549 E17.08028
G1 X131.056 Y123.991 E17.10736
G1 X127.856 Y127.451 E17.32681
G1 X127.447 Y127.86 E17.35374
G1 X123.985 Y131.061 E17.5733
G1 X123.542 Y131.439 E17.60041
G1 X119.842 Y134.356 E17.8198
G1 X119.371 Y134.699 E17.84694
G1 X115.462 Y137.31 E18.06582
G1 X114.968 Y137.612 E18.09279
G1 X110.851 Y139.918 E18.31251
G1 X110.332 Y140.183 E18.33965
G1 X106.053 Y142.155 E18.55904
G1 X105.517 Y142.377 E18.58605
G1 X101.09 Y144.01 E18.80577
G1 X100.537 Y144.189 E18.83283
G1 X96.017 Y145.463 E19.0515
G1 X95.452 Y145.599 E19.07857
G1 X90.831 Y146.518 E19.29795
G1 X90.258 Y146.609 E19.32497
G1 X85.571 Y147.164 E19.54474
G1 X84.992 Y147.209 E19.57178
G1 X80.413 Y147.389 E19.78516
G1 X79.644 Y147.38 E19.82097
G1 X78.88 Y147.29 E19.85679
G1 X78.129 Y147.122 E19.89263
G1 X77.4 Y146.876 E19.92845
G1 X76.701 Y146.557 E19.96423
G1 X76.038 Y146.166 E20.00007
G1 X75.42 Y145.709 E20.03586
G1 X75 Y145.336 E20.06202
G1 X74.878 Y145.219 E20.06989
G1 X74.351 Y144.658 E20.10573
G1 X73.886 Y144.046 E20.14152
G1 X73.486 Y143.389 E20.17734
G1 X73.157 Y142.694 E20.21314
G1 X72.901 Y141.968 E20.24899
G1 X72.723 Y141.22 E20.28479
G1 X72.623 Y140.458 E20.32058
G1 X72.6 Y139.878 E20.3476
G1 X72.6 Y95.108 E22.43228
G1 X72.64 Y94.34 E22.46809
G1 X72.759 Y93.58 E22.50391
G1 X72.957 Y92.837 E22.53972
G1 X73.231 Y92.118 E22.57555
G1 X73.578 Y91.432 E22.61134
G1 X73.994 Y90.785 E22.64716
G1 X74.561 Y90.091 E22.68889
G1 X74.668 Y89.975 E22.69624
G1 X75.218 Y89.437 E22.73206
G1 X75.821 Y88.96 E22.76787
G1 X76.47 Y88.547 E22.80369
G1 X77.159 Y88.205 E22.8395
G1 X77.879 Y87.935 E22.87531
G1 X78.624 Y87.742 E22.91114
G1 X79.524 Y87.615 E22.95347
G1 X81.188 Y87.484 E23.03119
G1 X82.34 Y87.207 E23.08636
G1 X83.441 Y86.752 E23.14183
G1 X84.457 Y86.128 E23.19735
G1 X85.357 Y85.359 E23.25248
G1 X86.129 Y84.455 E23.30783
G1 X86.755 Y83.434 E23.3636
G1 X87.207 Y82.342 E23.41863
G1 X87.484 Y81.186 E23.47398
G1 X87.615 Y79.524 E23.55161
G1 X87.715 Y78.762 E23.5874
G1 X87.894 Y78.014 E23.62321
G1 X88.15 Y77.288 E23.65906
G1 X88.479 Y76.593 E23.69486
G1 X88.879 Y75.936 E23.73068
G1 X89.345 Y75.324 E23.7665
G0 F6000 X89.731 Y75.49
G1 F1200 X90.246 Y74.962 E23.80084
G1 X90.362 Y74.855 E23.80819
G1 X90.938 Y74.378 E23.84301
G1 X91.562 Y73.965 E23.87786
G1 X92.226 Y73.621 E23.91268
G1 X92.923 Y73.35 E23.9475
G1 X93.646 Y73.154 E23.98238
G1 X94.384 Y73.038 E24.01717
G1 X95.108 Y73 E24.05093
G1 X139.878 Y73 E26.1356
G1 X140.625 Y73.04 E26.17044
G1 X141.363 Y73.159 E26.20525
G1 X142.085 Y73.357 E26.24011
G1 X142.781 Y73.63 E26.27492
G1 X143.444 Y73.977 E26.30976
G1 X144.067 Y74.392 E26.34462
G1 X144.641 Y74.871 E26.37943
G1 X144.93 Y75.155 E26.3983
G1 X145.047 Y75.277 E26.40617
G1 X145.535 Y75.844 E26.441
G1 X145.96 Y76.459 E26.47581
G1 X146.317 Y77.117 E26.51067
G1 X146.602 Y77.809 E26.54552
G1 X146.811 Y78.527 E26.58034
G1 X146.942 Y79.263 E26.61515
G1 X146.994 Y80.01 E26.65002
G1 X146.99 Y80.397 E26.66804
G1 X146.81 Y84.979 E26.88156
G1 X146.766 Y85.528 E26.90721
G1 X146.21 Y90.22 E27.12721
G1 X146.125 Y90.76 E27.15267
G1 X145.207 Y95.381 E27.37205
G1 X145.077 Y95.92 E27.39786
G1 X143.8 Y100.44 E27.61657
G1 X143.631 Y100.96 E27.64203
G1 X142 Y105.381 E27.86146
G1 X141.79 Y105.889 E27.88705
G1 X139.816 Y110.171 E28.10661
G1 X139.566 Y110.662 E28.13226
G1 X137.258 Y114.781 E28.35212
G1 X136.972 Y115.247 E28.37758
G1 X134.364 Y119.152 E28.59623
G1 X134.04 Y119.598 E28.6219
G1 X131.12 Y123.301 E28.84149
G1 X130.762 Y123.72 E28.86715
G1 X127.562 Y127.18 E29.08661
G1 X127.175 Y127.567 E29.11209
G1 X123.713 Y130.768 E29.33164
G1 X123.295 Y131.125 E29.35724
G1 X119.595 Y134.042 E29.57663
G1 X119.149 Y134.366 E29.6023
G1 X115.24 Y136.977 E29.82119
G1 X114.773 Y137.263 E29.84669
G1 X110.656 Y139.569 E30.06642
G1 X110.165 Y139.819 E30.09207
G1 X105.886 Y141.791 E30.31146
G1 X105.379 Y142.001 E30.33701
G1 X100.952 Y143.634 E30.55673
G1 X100.428 Y143.804 E30.58238
G1 X95.908 Y145.078 E30.80105
G1 X95.374 Y145.207 E30.82663
G1 X90.753 Y146.126 E31.04602
G1 X90.211 Y146.211 E31.07157
G1 X85.524 Y146.766 E31.29134
G1 X84.976 Y146.81 E31.31694
G1 X80.397 Y146.99 E31.53032
G1 X79.649 Y146.979 E31.56515
G1 X78.906 Y146.889 E31.6
G1 X78.178 Y146.72 E31.6348
G1 X77.471 Y146.474 E31.66966
G1 X76.795 Y146.154 E31.70449
G1 X76.157 Y145.764 E31.73931
G1 X75.564 Y145.307 E31.77417
G1 X75.277 Y145.047 E31.7922
G1 X75.155 Y144.93 E31.80007
G1 X74.643 Y144.384 E31.83492
G1 X74.193 Y143.787 E31.86974
G1 X73.809 Y143.145 E31.90457
G1 X73.496 Y142.466 E31.93938
G1 X73.257 Y141.757 E31.97422
G1 X73.095 Y141.026 E32.00909
G1 X73.012 Y140.283 E32.0439
G1 X73 Y139.878 E32.06277
G1 X73 Y95.108 E34.14745
G1 X73.04 Y94.361 E34.18228
G1 X73.159 Y93.623 E34.21709
G1 X73.357 Y92.901 E34.25195
G1 X73.63 Y92.205 E34.28676
G1 X73.977 Y91.542 E34.3216
G1 X74.392 Y90.919 E34.35646
G1 X74.855 Y90.362 E34.39019
G1 X74.962 Y90.246 E34.39754
G1 X75.498 Y89.724 E34.43237
G1 X76.086 Y89.262 E34.4672
G1 X76.72 Y88.866 E34.502
G1 X77.394 Y88.539 E34.53689
G1 X78.098 Y88.287 E34.5717
G1 X78.825 Y88.11 E34.60654
G1 X79.556 Y88.014 E34.64088
G1 X81.249 Y87.88 E34.71995
G1 X82.461 Y87.59 E34.77798
G1 X83.626 Y87.107 E34.83671
G1 X84.694 Y86.452 E34.89505
G1 X85.641 Y85.643 E34.95304
G1 X86.453 Y84.691 E35.01131
G1 X87.111 Y83.619 E35.06988
G1 X87.589 Y82.463 E35.12812
G1 X87.881 Y81.246 E35.1864
G1 X88.014 Y79.556 E35.26534
G1 X88.112 Y78.814 E35.30019
G1 X88.29 Y78.088 E35.335
G1 X88.543 Y77.384 E35.36983
G1 X88.871 Y76.711 E35.40469
G1 X89.268 Y76.077 E35.43952
G1 X89.731 Y75.49 E35.47434
G0 F6000 X90.116 Y75.659
G1 F1200 X90.517 Y75.256 E35.50081
G1 X90.633 Y75.149 E35.50816
G1 X91.193 Y74.686 E35.54199
G1 X91.801 Y74.288 E35.57583
G1 X92.449 Y73.96 E35.60965
G1 X93.128 Y73.704 E35.64344
G1 X93.832 Y73.524 E35.67727
G1 X94.552 Y73.423 E35.71113
G1 X95.108 Y73.4 E35.73704
G1 X139.878 Y73.4 E37.82172
G1 X140.603 Y73.44 E37.85553
G1 X141.32 Y73.559 E37.88937
G1 X142.019 Y73.757 E37.9232
G1 X142.692 Y74.03 E37.95702
G1 X143.331 Y74.375 E37.99083
G1 X143.928 Y74.789 E38.02466
G1 X144.641 Y75.432 E38.06937
G1 X144.758 Y75.554 E38.07724
G1 X145.232 Y76.105 E38.11108
G1 X145.641 Y76.705 E38.1449
G1 X145.983 Y77.346 E38.17873
G1 X146.252 Y78.021 E38.21256
G1 X146.445 Y78.721 E38.24637
G1 X146.559 Y79.438 E38.28018
G1 X146.59 Y80.381 E38.32411
G1 X146.41 Y84.963 E38.53763
G1 X146.369 Y85.481 E38.56183
G1 X145.813 Y90.173 E38.78184
G1 X145.732 Y90.682 E38.80584
G1 X144.814 Y95.303 E39.02521
G1 X144.692 Y95.811 E39.04954
G1 X143.415 Y100.331 E39.26825
G1 X143.256 Y100.821 E39.29224
G1 X141.625 Y105.242 E39.51166
G1 X141.427 Y105.721 E39.53579
G1 X139.453 Y110.003 E39.75535
G1 X139.217 Y110.466 E39.77955
G1 X136.909 Y114.585 E39.9994
G1 X136.64 Y115.025 E40.02342
G1 X134.032 Y118.93 E40.24207
G1 X133.726 Y119.351 E40.26631
G1 X130.806 Y123.054 E40.48589
G1 X130.468 Y123.448 E40.51007
G1 X127.268 Y126.908 E40.72952
G1 X126.904 Y127.273 E40.75352
G1 X123.442 Y130.474 E40.97308
G1 X123.047 Y130.811 E40.99725
G1 X119.347 Y133.728 E41.21664
G1 X118.927 Y134.033 E41.24081
G1 X115.018 Y136.644 E41.4597
G1 X114.577 Y136.914 E41.48378
G1 X110.46 Y139.22 E41.70351
G1 X109.997 Y139.456 E41.72771
G1 X105.718 Y141.428 E41.9471
G1 X105.24 Y141.626 E41.97119
G1 X100.813 Y143.259 E42.19091
G1 X100.32 Y143.419 E42.21504
G1 X95.8 Y144.693 E42.43371
G1 X95.296 Y144.814 E42.45785
G1 X90.675 Y145.733 E42.67723
G1 X90.164 Y145.814 E42.70132
G1 X85.477 Y146.369 E42.9211
G1 X84.96 Y146.41 E42.94524
G1 X80.381 Y146.59 E43.15863
G1 X79.655 Y146.578 E43.19244
G1 X78.934 Y146.487 E43.22628
G1 X78.228 Y146.317 E43.26009
G1 X77.545 Y146.071 E43.29389
G1 X76.893 Y145.751 E43.32771
G1 X76.28 Y145.361 E43.36154
G1 X75.554 Y144.758 E43.40549
G1 X75.432 Y144.641 E43.41336
G1 X74.936 Y144.111 E43.44716
G1 X74.501 Y143.529 E43.48099
G1 X74.134 Y142.902 E43.51482
G1 X73.837 Y142.239 E43.54865
G1 X73.615 Y141.548 E43.58245
G1 X73.47 Y140.836 E43.61628
G1 X73.4 Y139.878 E43.66101
G1 X73.4 Y95.108 E45.74569
G1 X73.44 Y94.383 E45.7795
G1 X73.559 Y93.666 E45.81334
G1 X73.757 Y92.967 E45.84717
G1 X74.03 Y92.294 E45.88099
G1 X74.375 Y91.655 E45.9148
G1 X74.789 Y91.058 E45.94863
G1 X75.149 Y90.633 E45.97457
G1 X75.256 Y90.517 E45.98192
G1 X75.777 Y90.011 E46.01573
G1 X76.35 Y89.565 E46.04954
G1 X76.969 Y89.185 E46.08337
G1 X77.627 Y88.876 E46.11722
G1 X78.314 Y88.64 E46.15104
G1 X79.022 Y88.482 E46.18482
G1 X79.587 Y88.412 E46.21133
G1 X81.318 Y88.275 E46.29218
G1 X82.586 Y87.971 E46.3529
G1 X83.801 Y87.468 E46.41413
G1 X84.934 Y86.772 E46.47605
G1 X85.928 Y85.923 E46.53692
G1 X86.775 Y84.931 E46.59766
G1 X87.469 Y83.799 E46.65948
G1 X87.97 Y82.589 E46.72047
G1 X88.276 Y81.314 E46.78152
G1 X88.412 Y79.587 E46.86219
G1 X88.509 Y78.867 E46.89602
G1 X88.685 Y78.163 E46.92981
G1 X88.937 Y77.481 E46.96366
G1 X89.262 Y76.832 E46.99746
G1 X89.657 Y76.222 E47.0313
G1 X90.116 Y75.659 E47.06512
G0 F6000 X90.045 Y76.37
G1 F1200 X90.5 Y75.834 E47.09786
G1 X90.788 Y75.55 E47.11669
G1 X90.904 Y75.443 E47.12404
G1 X91.448 Y74.996 E47.15683
G1 X92.039 Y74.613 E47.18962
G1 X92.669 Y74.3 E47.22238
G1 X93.331 Y74.06 E47.25517
G1 X94.016 Y73.897 E47.28795
G1 X94.715 Y73.812 E47.32074
G1 X95.108 Y73.8 E47.33905
G1 X139.878 Y73.8 E49.42373
G1 X140.581 Y73.84 E49.45652
G1 X141.275 Y73.959 E49.4893
G1 X141.95 Y74.157 E49.52206
G1 X142.599 Y74.429 E49.55482
G1 X143.213 Y74.774 E49.58762
G1 X143.784 Y75.185 E49.62038
G1 X144.353 Y75.709 E49.6564
G1 X144.47 Y75.831 E49.66427
G1 X144.927 Y76.366 E49.69703
G1 X145.321 Y76.949 E49.7298
G1 X145.647 Y77.573 E49.76258
G1 X145.899 Y78.23 E49.79535
G1 X146.076 Y78.912 E49.82815
G1 X146.174 Y79.609 E49.86093
G1 X146.19 Y80.365 E49.89614
G1 X146.01 Y84.947 E50.10966
G1 X145.972 Y85.434 E50.13241
G1 X145.416 Y90.126 E50.35241
G1 X145.34 Y90.604 E50.37495
G1 X144.422 Y95.225 E50.59433
G1 X144.307 Y95.703 E50.61722
G1 X143.03 Y100.223 E50.83593
G1 X142.881 Y100.683 E50.85845
G1 X141.25 Y105.104 E51.07787
G1 X141.064 Y105.554 E51.10054
G1 X139.09 Y109.836 E51.3201
G1 X138.868 Y110.271 E51.34284
G1 X136.56 Y114.39 E51.56269
G1 X136.307 Y114.802 E51.58521
G1 X133.699 Y118.707 E51.80386
G1 X133.411 Y119.103 E51.82666
G1 X130.491 Y122.806 E52.04625
G1 X130.175 Y123.177 E52.06894
G1 X126.975 Y126.637 E52.28839
G1 X126.632 Y126.979 E52.31095
G1 X123.17 Y130.18 E52.5305
G1 X122.8 Y130.497 E52.55319
G1 X119.1 Y133.414 E52.77258
G1 X118.705 Y133.701 E52.79532
G1 X114.796 Y136.312 E53.0142
G1 X114.382 Y136.565 E53.0368
G1 X110.265 Y138.871 E53.25653
G1 X109.83 Y139.093 E53.27927
G1 X105.551 Y141.065 E53.49865
G1 X105.102 Y141.251 E53.52129
