;FLAVOR:Marlin
;TIME:17946
;Filament used: 16.0402m
;Layer height: 0.28
;MINX:42.2
;MINY:42.2
;MINZ:0.28
;MAXX:177.795
;MAXY:177.796
;MAXZ:24.92
;Generated with Cura_SteamEngine 4.8.0
M140 S60
M105
M190 S60
M104 S200
M105
M109 S200
M82 ;absolute extrusion mode
; Ender 3 Custom Start G-code
G92 E0 ; Reset Extruder
G28 ; Home all axes
G1 Z2.0 F3000 ; Move Z Axis up little to prevent scratching of Heat Bed
G1 X0.1 Y20 Z0.3 F5000.0 ; Move to start position
G1 X0.1 Y200.0 Z0.3 F1500.0 E15 ; Draw the first line
G1 X0.4 Y200.0 Z0.3 F5000.0 ; Move to side a little
G1 X0.4 Y20 Z0.3 F1500.0 E30 ; Draw the second line
G92 E0 ; Reset Extruder
G1 Z2.0 F3000 ; Move Z Axis up little to prevent scratching of Heat Bed
G1 X5 Y20 Z0.3 F5000.0 ; Move over to prevent blob squish
G92 E0
G92 E0
G1 F1500 E-6.5
;LAYER_COUNT:89
;LAYER:0
M107
G0 F6000 X153.606 Y60.8 Z0.28
;TYPE:SKIRT
G1 F1500 E0
G1 F1200 X153.465 Y62.683 E0.08793
G1 X153.444 Y62.924 E0.09919
G1 X153.414 Y63.206 E0.1124
G1 X152.876 Y67.549 E0.31617
G1 X152.819 Y67.942 E0.33466
G1 X152.791 Y68.117 E0.34291
G1 X152.042 Y72.431 E0.5468
G1 X151.966 Y72.823 E0.56539
G1 X151.93 Y72.994 E0.57353
G1 X150.971 Y77.267 E0.77744
G1 X150.892 Y77.591 E0.79297
G1 X150.842 Y77.783 E0.80221
G1 X149.673 Y82 E1.00598
G1 X149.563 Y82.372 E1.02404
G1 X149.493 Y82.595 E1.03492
G1 X148.119 Y86.753 E1.23884
G1 X148.02 Y87.038 E1.25288
G1 X147.942 Y87.25 E1.2634
G1 X146.364 Y91.339 E1.46749
G1 X146.216 Y91.704 E1.48583
G1 X146.127 Y91.914 E1.49645
G1 X144.303 Y96.023 E1.70579
G1 X144.243 Y96.153 E1.71245
G1 X144.126 Y96.395 E1.72497
G1 X142.069 Y100.475 E1.93773
G1 X141.889 Y100.811 E1.95548
G1 X139.658 Y104.744 E2.16603
G1 X139.409 Y105.157 E2.18849
G1 X136.98 Y108.987 E2.39967
G1 X136.746 Y109.335 E2.4192
G1 X134.225 Y112.913 E2.623
G1 X134.075 Y113.119 E2.63487
G1 X133.88 Y113.375 E2.64985
G1 X131.098 Y116.938 E2.86035
G1 X130.852 Y117.237 E2.87838
G1 X127.901 Y120.652 E3.08854
G1 X127.576 Y121.009 E3.11102
G1 X124.558 Y124.18 E3.31486
G1 X124.383 Y124.359 E3.32651
G1 X124.146 Y124.591 E3.34196
G1 X120.891 Y127.685 E3.55107
G1 X120.746 Y127.819 E3.56026
G1 X120.544 Y128 E3.57289
G1 X117.123 Y130.946 E3.78312
G1 X116.827 Y131.187 E3.80089
G1 X113.247 Y133.979 E4.01229
G1 X112.872 Y134.255 E4.03397
G1 X109.292 Y136.774 E4.2378
G1 X108.992 Y136.978 E4.2547
G1 X108.807 Y137.098 E4.26496
G1 X104.984 Y139.516 E4.4756
G1 X104.653 Y139.715 E4.49358
G1 X100.847 Y141.866 E4.69715
G1 X100.516 Y142.046 E4.71469
G1 X100.304 Y142.157 E4.72584
G1 X96.392 Y144.126 E4.92977
G1 X96.052 Y144.29 E4.94734
G1 X95.864 Y144.376 E4.95697
G1 X91.866 Y146.146 E5.16056
G1 X91.505 Y146.298 E5.1788
G1 X91.337 Y146.365 E5.18722
G1 X87.143 Y147.981 E5.39651
G1 X87.002 Y148.033 E5.40351
G1 X86.749 Y148.122 E5.416
G1 X82.597 Y149.493 E5.6196
G1 X82.262 Y149.597 E5.63593
G1 X82.041 Y149.662 E5.64666
G1 X77.638 Y150.879 E5.85937
G1 X77.267 Y150.972 E5.87718
G1 X72.856 Y151.96 E6.08766
G1 X72.422 Y152.045 E6.10825
G1 X67.924 Y152.822 E6.3208
G1 X67.549 Y152.878 E6.33846
G1 X63.115 Y153.423 E6.54648
G1 X62.918 Y153.445 E6.55571
G1 X62.625 Y153.472 E6.56941
G1 X60.8 Y153.606 E6.65462
G1 X60.8 Y160.662 E6.98317
G1 X63.25 Y160.487 E7.09755
G1 X68.373 Y159.874 E7.3378
G1 X73.425 Y159.025 E7.57634
G1 X78.45 Y157.932 E7.81579
G1 X83.427 Y156.598 E8.05572
G1 X87.995 Y155.137 E8.27904
G1 X88.019 Y155.131 E8.28019
G1 X88.396 Y154.962 E8.29943
G1 X90.683 Y154.111 E8.41306
G1 X90.848 Y154.038 E8.42146
G1 X91.26 Y153.871 E8.44216
G1 X91.874 Y153.642 E8.47267
G1 X92.196 Y153.509 E8.4889
G1 X92.609 Y153.322 E8.51001
G1 X93.058 Y153.136 E8.53264
G1 X93.134 Y153.107 E8.53643
G1 X95.738 Y151.992 E8.66833
G1 X95.946 Y151.891 E8.67909
G1 X96.27 Y151.743 E8.69568
G1 X96.638 Y151.585 E8.71433
G1 X101.22 Y149.357 E8.95157
G1 X104.915 Y147.34 E9.14759
G1 X107.047 Y146.124 E9.26188
G1 X108.843 Y145.028 E9.35985
G1 X109.03 Y144.9 E9.3704
G1 X109.394 Y144.666 E9.39055
G1 X109.845 Y144.393 E9.4151
G1 X111.45 Y143.37 E9.50372
G1 X113.09 Y142.238 E9.59652
G1 X115.524 Y140.592 E9.73334
G1 X115.91 Y140.267 E9.75683
G1 X118.049 Y138.669 E9.88116
G1 X120.083 Y137.082 E10.00129
G1 X121.771 Y135.711 E10.10255
G1 X122.533 Y135.102 E10.14797
G1 X122.585 Y135.041 E10.1517
G1 X123.16 Y134.492 E10.18872
G1 X124.422 Y133.403 E10.26634
G1 X126.271 Y131.691 E10.38367
G1 X126.504 Y131.484 E10.39819
G1 X126.683 Y131.331 E10.40915
G1 X127.845 Y130.223 E10.48391
G1 X130.918 Y127.118 E10.68733
G1 X131.382 Y126.631 E10.71865
G1 X134.693 Y122.966 E10.94864
G1 X134.766 Y122.881 E10.95386
G1 X137.797 Y119.204 E11.17575
G1 X138.05 Y118.879 E11.19492
G1 X140.792 Y115.215 E11.40802
G1 X141.389 Y114.359 E11.45662
G1 X141.534 Y114.132 E11.46916
G1 X141.752 Y113.805 E11.48746
G1 X142.008 Y113.448 E11.50791
G1 X142.082 Y113.351 E11.5136
G1 X143.401 Y111.397 E11.62337
G1 X145.136 Y108.654 E11.7745
G1 X146.228 Y106.863 E11.87218
G1 X146.419 Y106.552 E11.88917
G1 X146.624 Y106.19 E11.90854
G1 X146.771 Y105.943 E11.92193
G1 X146.859 Y105.8 E11.92975
G1 X149.34 Y101.245 E12.17127
G1 X151.746 Y96.299 E12.42738
G1 X153.15 Y93.02 E12.59347
G1 X153.276 Y92.694 E12.60974
G1 X153.53 Y92.109 E12.63944
G1 X153.645 Y91.867 E12.65192
G1 X153.79 Y91.479 E12.6712
G1 X153.936 Y91.116 E12.68942
G1 X154.015 Y90.933 E12.6987
G1 X154.957 Y88.411 E12.82406
G1 X155.141 Y87.986 E12.84563
G1 X156.609 Y83.389 E13.07033
G1 X157.939 Y78.415 E13.31008
G1 X159.027 Y73.411 E13.54853
G1 X159.879 Y68.329 E13.78847
G1 X160.489 Y63.224 E14.02787
G1 X160.661 Y60.799 E14.14108
G1 X153.606 Y60.8 E14.46959
G0 F6000 X153.234 Y60.4
G1 F1200 X153.066 Y62.648 E14.57456
G1 X153.045 Y62.889 E14.58582
G1 X153.017 Y63.157 E14.59837
G1 X152.479 Y67.5 E14.80214
G1 X152.424 Y67.883 E14.82016
G1 X152.397 Y68.049 E14.82799
G1 X151.648 Y72.363 E15.03187
G1 X151.574 Y72.745 E15.04999
G1 X150.58 Y77.179 E15.26158
G1 X150.504 Y77.494 E15.27667
G1 X150.456 Y77.676 E15.28543
G1 X149.249 Y82.026 E15.49564
G1 X149.113 Y82.47 E15.51726
G1 X147.691 Y86.769 E15.72811
G1 X147.569 Y87.106 E15.7448
G1 X145.991 Y91.195 E15.94889
G1 X145.846 Y91.553 E15.96687
G1 X145.761 Y91.752 E15.97695
G1 X143.94 Y95.855 E16.18597
G1 X143.88 Y95.985 E16.19264
G1 X143.769 Y96.215 E16.20453
G1 X141.712 Y100.295 E16.41729
G1 X141.541 Y100.614 E16.43414
G1 X139.314 Y104.541 E16.64436
G1 X139.071 Y104.943 E16.66623
G1 X136.647 Y108.766 E16.87702
G1 X136.419 Y109.104 E16.896
G1 X133.898 Y112.682 E17.09981
G1 X133.638 Y113.033 E17.12015
G1 X133.565 Y113.129 E17.12576
G1 X130.783 Y116.692 E17.33625
G1 X130.55 Y116.976 E17.35336
G1 X127.687 Y120.29 E17.55728
G1 X127.442 Y120.565 E17.57443
G1 X127.286 Y120.734 E17.58514
G1 X124.268 Y123.905 E17.78898
G1 X123.964 Y124.21 E17.80904
G1 X120.697 Y127.319 E18.01904
G1 X120.474 Y127.526 E18.0332
G1 X120.283 Y127.697 E18.04514
G1 X116.971 Y130.551 E18.24872
G1 X116.755 Y130.731 E18.26181
G1 X116.581 Y130.872 E18.27224
G1 X113.13 Y133.565 E18.47607
G1 X112.813 Y133.803 E18.49453
G1 X112.641 Y133.928 E18.50443
G1 X108.934 Y136.535 E18.71546
G1 X108.594 Y136.76 E18.73444
G1 X104.771 Y139.178 E18.94507
G1 X104.456 Y139.366 E18.96215
G1 X100.537 Y141.58 E19.17175
G1 X100.124 Y141.8 E19.19354
G1 X96.212 Y143.769 E19.39747
G1 X95.88 Y143.929 E19.41463
G1 X95.702 Y144.011 E19.42375
G1 X91.704 Y145.781 E19.62735
G1 X91.352 Y145.928 E19.64511
G1 X91.193 Y145.991 E19.65307
G1 X87.005 Y147.606 E19.86208
G1 X86.864 Y147.658 E19.86908
G1 X86.623 Y147.742 E19.88096
G1 X82.471 Y149.113 E20.08456
G1 X82.145 Y149.215 E20.10047
G1 X81.934 Y149.277 E20.11071
G1 X77.531 Y150.494 E20.32342
G1 X77.18 Y150.582 E20.34027
G1 X72.909 Y151.54 E20.54409
G1 X72.581 Y151.608 E20.55969
G1 X72.354 Y151.651 E20.57044
G1 X67.856 Y152.428 E20.78299
G1 X67.5 Y152.481 E20.79975
G1 X63.07 Y153.025 E21.00758
G1 X62.873 Y153.047 E21.01681
G1 X62.595 Y153.073 E21.02981
G1 X60.4 Y153.235 E21.1323
G1 X60.4 Y161.091 E21.49811
G1 X63.286 Y160.885 E21.63283
G1 X68.421 Y160.271 E21.87364
G1 X73.514 Y159.415 E22.11412
G1 X78.537 Y158.322 E22.35349
G1 X83.546 Y156.98 E22.59495
G1 X88.08 Y155.53 E22.81661
G1 X88.535 Y155.337 E22.83962
G1 X90.847 Y154.476 E22.9545
G1 X91.009 Y154.405 E22.96274
G1 X91.399 Y154.246 E22.98235
G1 X92.016 Y154.016 E23.01301
G1 X92.355 Y153.875 E23.0301
G1 X92.774 Y153.686 E23.05151
G1 X93.199 Y153.51 E23.07293
G1 X93.301 Y153.471 E23.07801
G1 X95.9 Y152.358 E23.20966
G1 X96.121 Y152.251 E23.2211
G1 X96.428 Y152.11 E23.23683
G1 X96.819 Y151.942 E23.25664
G1 X101.391 Y149.719 E23.49337
G1 X105.105 Y147.691 E23.69041
G1 X107.287 Y146.447 E23.80736
G1 X109.047 Y145.373 E23.90337
G1 X109.256 Y145.23 E23.91516
G1 X109.601 Y145.008 E23.93427
G1 X110.055 Y144.733 E23.95898
G1 X111.671 Y143.703 E24.04821
G1 X113.314 Y142.569 E24.14117
G1 X115.767 Y140.91 E24.27906
G1 X116.15 Y140.588 E24.30236
G1 X118.279 Y138.997 E24.42612
G1 X120.324 Y137.401 E24.54691
G1 X122.021 Y136.024 E24.64867
G1 X122.815 Y135.39 E24.69599
G1 X122.89 Y135.302 E24.70137
G1 X123.421 Y134.795 E24.73556
G1 X124.701 Y133.69 E24.8143
G1 X126.543 Y131.985 E24.93117
G1 X126.764 Y131.788 E24.94496
G1 X126.946 Y131.633 E24.95609
G1 X128.14 Y130.494 E25.03293
G1 X131.182 Y127.419 E25.23434
G1 X131.703 Y126.873 E25.26948
G1 X134.975 Y123.252 E25.49673
G1 X135.052 Y123.163 E25.50221
G1 X138.109 Y119.454 E25.72601
G1 X138.352 Y119.142 E25.74443
G1 X141.127 Y115.433 E25.96012
G1 X141.73 Y114.57 E26.00915
G1 X141.979 Y114.183 E26.03057
G1 X142.083 Y114.029 E26.03923
G1 X142.326 Y113.69 E26.05865
G1 X142.416 Y113.571 E26.0656
G1 X143.718 Y111.644 E26.17389
G1 X145.518 Y108.798 E26.33069
G1 X146.57 Y107.072 E26.42481
G1 X146.768 Y106.746 E26.44257
G1 X146.972 Y106.387 E26.4618
G1 X147.111 Y106.153 E26.47447
G1 X147.205 Y106.001 E26.48279
G1 X149.702 Y101.415 E26.72594
G1 X152.047 Y96.593 E26.97562
G1 X152.112 Y96.463 E26.98238
G1 X153.518 Y93.177 E27.14881
G1 X153.649 Y92.838 E27.16573
G1 X153.89 Y92.283 E27.19391
G1 X154.017 Y92.013 E27.2078
G1 X154.164 Y91.619 E27.22738
G1 X154.303 Y91.275 E27.24466
G1 X154.391 Y91.071 E27.25501
G1 X155.332 Y88.551 E27.38026
G1 X155.514 Y88.132 E27.40153
G1 X156.989 Y83.513 E27.62731
G1 X158.331 Y78.497 E27.86909
G1 X159.421 Y73.48 E28.10816
G1 X160.273 Y68.4 E28.34801
G1 X160.887 Y63.257 E28.58919
G1 X161.091 Y60.399 E28.72261
G1 X153.234 Y60.4 E29.08846
G0 F6000 X152.863 Y60
G1 F1200 X152.668 Y62.614 E29.21052
G1 X152.647 Y62.855 E29.22178
G1 X152.62 Y63.108 E29.23363
G1 X152.082 Y67.451 E29.4374
G1 X152.028 Y67.823 E29.45491
G1 X152.003 Y67.98 E29.46231
G1 X151.254 Y72.294 E29.66619
G1 X151.182 Y72.666 E29.68384
G1 X150.19 Y77.092 E29.89504
G1 X150.116 Y77.397 E29.90966
G1 X150.071 Y77.569 E29.91793
G1 X148.866 Y81.912 E30.1278
G1 X148.734 Y82.344 E30.14884
G1 X147.36 Y86.502 E30.35275
G1 X147.266 Y86.772 E30.36606
G1 X147.196 Y86.962 E30.37549
G1 X145.618 Y91.051 E30.57958
G1 X145.476 Y91.401 E30.59716
G1 X145.396 Y91.59 E30.60672
G1 X143.577 Y95.687 E30.81545
G1 X143.412 Y96.035 E30.83338
G1 X141.355 Y100.115 E31.04615
G1 X141.193 Y100.416 E31.06206
G1 X138.969 Y104.337 E31.27197
G1 X138.734 Y104.729 E31.29325
G1 X136.391 Y108.426 E31.49706
G1 X136.205 Y108.708 E31.51279
G1 X136.092 Y108.874 E31.52214
G1 X133.571 Y112.452 E31.72594
G1 X133.319 Y112.792 E31.74565
G1 X130.467 Y116.446 E31.96149
G1 X130.247 Y116.714 E31.97763
G1 X127.304 Y120.119 E32.1872
G1 X126.997 Y120.458 E32.2085
G1 X123.979 Y123.629 E32.41234
G1 X123.683 Y123.925 E32.43183
G1 X120.348 Y127.098 E32.64618
G1 X120.022 Y127.394 E32.66668
G1 X116.71 Y130.248 E32.87026
G1 X116.5 Y130.423 E32.88299
G1 X116.334 Y130.557 E32.89292
G1 X112.768 Y133.338 E33.10349
G1 X112.411 Y133.601 E33.12414
G1 X108.831 Y136.12 E33.32797
G1 X108.545 Y136.314 E33.34406
G1 X108.38 Y136.422 E33.35325
G1 X104.557 Y138.84 E33.56388
G1 X104.259 Y139.018 E33.58004
G1 X100.347 Y141.228 E33.78926
G1 X99.944 Y141.443 E33.81053
G1 X96.032 Y143.412 E34.01446
G1 X95.709 Y143.567 E34.03114
G1 X95.54 Y143.645 E34.03981
G1 X91.542 Y145.415 E34.2434
G1 X91.2 Y145.558 E34.26066
G1 X91.05 Y145.618 E34.26819
G1 X86.866 Y147.231 E34.47699
G1 X86.498 Y147.362 E34.49518
G1 X82.215 Y148.775 E34.70518
G1 X81.828 Y148.891 E34.724
G1 X77.425 Y150.108 E34.93671
G1 X77.092 Y150.191 E34.95269
G1 X72.696 Y151.176 E35.16246
G1 X72.286 Y151.257 E35.18192
G1 X67.788 Y152.034 E35.39447
G1 X67.451 Y152.084 E35.41033
G1 X63.026 Y152.628 E35.61793
G1 X62.829 Y152.65 E35.62716
G1 X62.566 Y152.674 E35.63945
G1 X60 Y152.863 E35.75926
G1 X60 Y161.521 E36.16241
G1 X63.318 Y161.284 E36.31731
G1 X68.493 Y160.665 E36.56
G1 X73.582 Y159.81 E36.80028
G1 X78.644 Y158.709 E37.0415
G1 X83.645 Y157.368 E37.28259
G1 X88.239 Y155.899 E37.50718
G1 X88.315 Y155.879 E37.51084
G1 X88.675 Y155.712 E37.52932
G1 X90.99 Y154.85 E37.64435
G1 X91.17 Y154.771 E37.6535
G1 X91.539 Y154.621 E37.67205
G1 X92.161 Y154.389 E37.70296
G1 X92.525 Y154.238 E37.72131
G1 X92.939 Y154.051 E37.74246
G1 X93.341 Y153.884 E37.76273
G1 X93.431 Y153.85 E37.76721
G1 X96.088 Y152.712 E37.9018
G1 X96.296 Y152.611 E37.91257
G1 X96.586 Y152.478 E37.92743
G1 X96.973 Y152.312 E37.94703
G1 X101.579 Y150.072 E38.18553
G1 X105.35 Y148.013 E38.38559
G1 X107.449 Y146.816 E38.4981
G1 X109.273 Y145.703 E38.5976
G1 X109.482 Y145.56 E38.60939
G1 X109.808 Y145.35 E38.62745
G1 X110.297 Y145.054 E38.65406
G1 X111.872 Y144.05 E38.74104
G1 X113.538 Y142.901 E38.83527
G1 X115.997 Y141.238 E38.9735
G1 X116.389 Y140.908 E38.99736
G1 X118.532 Y139.307 E39.12192
G1 X120.566 Y137.719 E39.24208
G1 X122.271 Y136.336 E39.34431
G1 X123.095 Y135.678 E39.39341
G1 X123.194 Y135.562 E39.40051
G1 X123.683 Y135.098 E39.4319
G1 X124.937 Y134.016 E39.50902
G1 X126.814 Y132.278 E39.62813
G1 X127.023 Y132.093 E39.64113
G1 X127.217 Y131.927 E39.65302
G1 X128.418 Y130.782 E39.73029
G1 X131.448 Y127.72 E39.93087
G1 X131.987 Y127.154 E39.96727
G1 X135.292 Y123.496 E40.19682
G1 X135.36 Y123.418 E40.20164
G1 X138.419 Y119.708 E40.42555
G1 X138.68 Y119.371 E40.44539
G1 X141.452 Y115.667 E40.66082
G1 X142.059 Y114.798 E40.71018
G1 X142.209 Y114.562 E40.7232
G1 X142.415 Y114.252 E40.74053
G1 X142.644 Y113.932 E40.75885
G1 X142.751 Y113.792 E40.76706
G1 X144.045 Y111.875 E40.87475
G1 X145.837 Y109.041 E41.03089
G1 X146.912 Y107.28 E41.12696
G1 X147.11 Y106.956 E41.14464
G1 X147.32 Y106.585 E41.16449
G1 X147.451 Y106.363 E41.17649
G1 X147.555 Y106.194 E41.18573
G1 X150.06 Y101.594 E41.42963
G1 X152.48 Y96.62 E41.6872
G1 X153.882 Y93.345 E41.85308
G1 X154.022 Y92.982 E41.8712
G1 X154.25 Y92.457 E41.89785
G1 X154.39 Y92.159 E41.91318
G1 X154.539 Y91.76 E41.93301
G1 X154.67 Y91.434 E41.94937
G1 X154.755 Y91.238 E41.95932
G1 X155.706 Y88.691 E42.08591
G1 X155.891 Y88.265 E42.10754
G1 X157.379 Y83.606 E42.33528
G1 X158.717 Y78.603 E42.57643
G1 X159.813 Y73.561 E42.81669
G1 X160.67 Y68.451 E43.05795
G1 X161.286 Y63.289 E43.30002
G1 X161.52 Y59.999 E43.45361
G1 X152.863 Y60 E43.85671
G0 F6000 X152.491 Y59.6
G1 F1200 X152.269 Y62.579 E43.99581
G1 X152.223 Y63.058 E44.01822
G1 X151.685 Y67.401 E44.22199
G1 X151.633 Y67.764 E44.23907
G1 X151.609 Y67.912 E44.24605
G1 X150.86 Y72.226 E44.44993
G1 X150.79 Y72.587 E44.46705
G1 X149.8 Y77.004 E44.67783
G1 X149.728 Y77.3 E44.69202
G1 X149.685 Y77.462 E44.69982
G1 X148.482 Y81.797 E44.90931
G1 X148.354 Y82.219 E44.92984
G1 X146.937 Y86.503 E45.13995
G1 X146.822 Y86.818 E45.15556
G1 X145.196 Y91.03 E45.3658
G1 X145.03 Y91.428 E45.38588
G1 X143.214 Y95.52 E45.59434
G1 X143.054 Y95.855 E45.61163
G1 X140.997 Y99.935 E45.82439
G1 X140.845 Y100.219 E45.83939
G1 X138.625 Y104.133 E46.04892
G1 X138.396 Y104.515 E46.06965
G1 X136.053 Y108.212 E46.27346
G1 X135.872 Y108.487 E46.28879
G1 X135.765 Y108.643 E46.2976
G1 X133.244 Y112.221 E46.50141
G1 X133 Y112.551 E46.52052
G1 X130.152 Y116.2 E46.73606
G1 X129.944 Y116.453 E46.75131
G1 X127.006 Y119.852 E46.96051
G1 X126.707 Y120.182 E46.98125
G1 X123.689 Y123.353 E47.18509
G1 X123.403 Y123.64 E47.20395
G1 X120.146 Y126.739 E47.4133
G1 X119.931 Y126.938 E47.42694
G1 X119.76 Y127.091 E47.43762
G1 X116.356 Y130.023 E47.64682
G1 X116.088 Y130.241 E47.6629
G1 X112.528 Y133.018 E47.87314
G1 X112.181 Y133.274 E47.89322
G1 X108.601 Y135.793 E48.09705
