;FLAVOR:Marlin
;TIME:485
;Filament used: 0.0840032m
;Layer height: 0.12
;MINX:98.2
;MINY:99.7
;MINZ:0.12
;MAXX:121.8
;MAXY:120.3
;MAXZ:5.4
;Generated with Cura_SteamEngine 4.8.0
M140 S60
M105
M190 S60
M104 S200
M105
M109 S200
M82 ;absolute extrusion mode
; Ender 3 Custom Start G-code
G92 E0 ; Reset Extruder
G28 ; Home all axes
G1 Z2.0 F3000 ; Move Z Axis up little to prevent scratching of Heat Bed
G1 X0.1 Y20 Z0.3 F5000.0 ; Move to start position
G1 X0.1 Y200.0 Z0.3 F1500.0 E15 ; Draw the first line
G1 X0.4 Y200.0 Z0.3 F5000.0 ; Move to side a little
G1 X0.4 Y20 Z0.3 F1500.0 E30 ; Draw the second line
G92 E0 ; Reset Extruder
G1 Z2.0 F3000 ; Move Z Axis up little to prevent scratching of Heat Bed
G1 X5 Y20 Z0.3 F5000.0 ; Move over to prevent blob squish
G92 E0
G92 E0
G1 F1500 E-6.5
;LAYER_COUNT:45
;LAYER:0
M107
G0 F6000 X100.602 Y101.985 Z0.12
;TYPE:SKIRT
G1 F1500 E0
G1 F1200 X101.188 Y101.455 E0.01577
G1 X101.824 Y100.988 E0.03151
G1 X102.504 Y100.587 E0.04727
G1 X103.222 Y100.257 E0.06304
G1 X103.969 Y100.002 E0.07879
G1 X104.738 Y99.823 E0.09455
G1 X105.522 Y99.723 E0.11032
G1 X106.117 Y99.7 E0.1222
G1 X113.883 Y99.7 E0.27718
G1 X114.672 Y99.74 E0.29295
G1 X115.452 Y99.859 E0.30869
G1 X116.217 Y100.057 E0.32446
G1 X116.957 Y100.331 E0.34021
G1 X117.666 Y100.679 E0.35597
G1 X118.337 Y101.097 E0.37175
G1 X118.961 Y101.58 E0.38749
G1 X119.398 Y101.985 E0.39938
G1 X119.515 Y102.102 E0.40268
G1 X120.045 Y102.688 E0.41845
G1 X120.512 Y103.324 E0.4342
G1 X120.913 Y104.004 E0.44995
G1 X121.243 Y104.722 E0.46572
G1 X121.498 Y105.469 E0.48147
G1 X121.677 Y106.238 E0.49723
G1 X121.777 Y107.022 E0.513
G1 X121.8 Y107.617 E0.52489
G1 X121.8 Y112.383 E0.62
G1 X121.76 Y113.172 E0.63576
G1 X121.641 Y113.952 E0.65151
G1 X121.443 Y114.717 E0.66728
G1 X121.169 Y115.457 E0.68302
G1 X120.821 Y116.166 E0.69879
G1 X120.403 Y116.837 E0.71456
G1 X119.92 Y117.461 E0.73031
G1 X119.515 Y117.898 E0.7422
G1 X119.398 Y118.015 E0.7455
G1 X118.812 Y118.545 E0.76127
G1 X118.176 Y119.012 E0.77701
G1 X117.496 Y119.413 E0.79277
G1 X116.778 Y119.743 E0.80854
G1 X116.031 Y119.998 E0.82429
G1 X115.262 Y120.177 E0.84005
G1 X114.478 Y120.277 E0.85582
G1 X113.883 Y120.3 E0.8677
G1 X106.117 Y120.3 E1.02268
G1 X105.328 Y120.26 E1.03845
G1 X104.548 Y120.141 E1.05419
G1 X103.783 Y119.943 E1.06996
G1 X103.043 Y119.669 E1.08571
G1 X102.334 Y119.321 E1.10147
G1 X101.663 Y118.903 E1.11725
G1 X101.039 Y118.42 E1.13299
G1 X100.602 Y118.015 E1.14488
G1 X100.485 Y117.898 E1.14819
G1 X99.955 Y117.312 E1.16395
G1 X99.488 Y116.676 E1.1797
G1 X99.087 Y115.996 E1.19545
G1 X98.757 Y115.278 E1.21122
G1 X98.502 Y114.531 E1.22697
G1 X98.323 Y113.762 E1.24273
G1 X98.223 Y112.978 E1.2585
G1 X98.2 Y112.383 E1.27039
G1 X98.2 Y107.617 E1.3655
G1 X98.24 Y106.828 E1.38126
G1 X98.359 Y106.048 E1.39701
G1 X98.557 Y105.283 E1.41278
G1 X98.831 Y104.543 E1.42853
G1 X99.179 Y103.834 E1.44429
G1 X99.597 Y103.163 E1.46006
G1 X100.08 Y102.539 E1.47581
G1 X100.485 Y102.102 E1.4877
G1 X100.602 Y101.985 E1.491
G0 F6000 X100.884 Y102.267
G1 F1200 X101.456 Y101.753 E1.50635
G1 X102.078 Y101.3 E1.5217
G1 X102.743 Y100.914 E1.53705
G1 X103.445 Y100.599 E1.5524
G1 X104.176 Y100.359 E1.56776
G1 X104.927 Y100.196 E1.58309
G1 X105.692 Y100.112 E1.59845
G1 X106.117 Y100.1 E1.60694
G1 X113.883 Y100.1 E1.76192
G1 X114.651 Y100.14 E1.77726
G1 X115.411 Y100.259 E1.79261
G1 X116.154 Y100.457 E1.80796
G1 X116.873 Y100.731 E1.82331
G1 X117.559 Y101.078 E1.83866
G1 X118.206 Y101.494 E1.85401
G1 X118.806 Y101.975 E1.86935
G1 X119.116 Y102.267 E1.87785
G1 X119.233 Y102.384 E1.88115
G1 X119.747 Y102.956 E1.8965
G1 X120.2 Y103.578 E1.91185
G1 X120.586 Y104.243 E1.9272
G1 X120.901 Y104.945 E1.94255
G1 X121.141 Y105.676 E1.95791
G1 X121.304 Y106.427 E1.97324
G1 X121.388 Y107.192 E1.9886
G1 X121.4 Y107.617 E1.99709
G1 X121.4 Y112.383 E2.0922
G1 X121.36 Y113.151 E2.10754
G1 X121.241 Y113.911 E2.1229
G1 X121.043 Y114.654 E2.13824
G1 X120.769 Y115.373 E2.1536
G1 X120.422 Y116.059 E2.16894
G1 X120.006 Y116.706 E2.18429
G1 X119.525 Y117.306 E2.19963
G1 X119.233 Y117.616 E2.20813
G1 X119.116 Y117.733 E2.21143
G1 X118.544 Y118.247 E2.22678
G1 X117.922 Y118.7 E2.24214
G1 X117.257 Y119.086 E2.25748
G1 X116.555 Y119.401 E2.27284
G1 X115.824 Y119.641 E2.28819
G1 X115.073 Y119.804 E2.30353
G1 X114.308 Y119.888 E2.31888
G1 X113.883 Y119.9 E2.32737
G1 X106.117 Y119.9 E2.48235
G1 X105.349 Y119.86 E2.49769
G1 X104.589 Y119.741 E2.51305
G1 X103.846 Y119.543 E2.52839
G1 X103.127 Y119.269 E2.54375
G1 X102.441 Y118.922 E2.55909
G1 X101.794 Y118.506 E2.57444
G1 X101.194 Y118.025 E2.58978
G1 X100.884 Y117.733 E2.59828
G1 X100.767 Y117.616 E2.60158
G1 X100.253 Y117.044 E2.61693
G1 X99.8 Y116.422 E2.63229
G1 X99.414 Y115.757 E2.64763
G1 X99.099 Y115.055 E2.66299
G1 X98.859 Y114.324 E2.67834
G1 X98.696 Y113.573 E2.69368
G1 X98.612 Y112.808 E2.70903
G1 X98.6 Y112.383 E2.71752
G1 X98.6 Y107.617 E2.81263
G1 X98.64 Y106.849 E2.82798
G1 X98.759 Y106.089 E2.84333
G1 X98.957 Y105.346 E2.85867
G1 X99.231 Y104.627 E2.87403
G1 X99.578 Y103.941 E2.88937
G1 X99.994 Y103.294 E2.90472
G1 X100.475 Y102.694 E2.92007
G1 X100.767 Y102.384 E2.92856
G1 X100.884 Y102.267 E2.93187
G0 F6000 X101.167 Y102.55
G1 F1200 X101.724 Y102.05 E2.9468
G1 X102.33 Y101.613 E2.96171
G1 X102.98 Y101.242 E2.97665
G1 X103.666 Y100.943 E2.99158
G1 X104.38 Y100.719 E3.00652
G1 X105.113 Y100.572 E3.02143
G1 X106.117 Y100.5 E3.04152
G1 X113.883 Y100.5 E3.1965
G1 X114.63 Y100.54 E3.21143
G1 X115.368 Y100.659 E3.22635
G1 X116.09 Y100.857 E3.24129
G1 X116.786 Y101.13 E3.25621
G1 X117.449 Y101.477 E3.27114
G1 X118.072 Y101.892 E3.28608
G1 X118.833 Y102.55 E3.30616
G1 X118.95 Y102.667 E3.30946
G1 X119.45 Y103.224 E3.32439
G1 X119.887 Y103.83 E3.3393
G1 X120.258 Y104.48 E3.35424
G1 X120.557 Y105.166 E3.36917
G1 X120.781 Y105.88 E3.38411
G1 X120.928 Y106.613 E3.39903
G1 X121 Y107.617 E3.41911
G1 X121 Y112.383 E3.51422
G1 X120.96 Y113.13 E3.52915
G1 X120.841 Y113.868 E3.54407
G1 X120.643 Y114.59 E3.55901
G1 X120.37 Y115.286 E3.57393
G1 X120.023 Y115.949 E3.58886
G1 X119.608 Y116.572 E3.6038
G1 X118.95 Y117.333 E3.62388
G1 X118.833 Y117.45 E3.62718
G1 X118.276 Y117.95 E3.64212
G1 X117.67 Y118.387 E3.65703
G1 X117.02 Y118.758 E3.67196
G1 X116.334 Y119.057 E3.6869
G1 X115.62 Y119.281 E3.70183
G1 X114.887 Y119.428 E3.71675
G1 X113.883 Y119.5 E3.73684
G1 X106.117 Y119.5 E3.89182
G1 X105.37 Y119.46 E3.90674
G1 X104.632 Y119.341 E3.92166
G1 X103.91 Y119.143 E3.9366
G1 X103.214 Y118.87 E3.95152
G1 X102.551 Y118.523 E3.96646
G1 X101.928 Y118.108 E3.98139
G1 X101.167 Y117.45 E4.00147
G1 X101.05 Y117.333 E4.00477
G1 X100.55 Y116.776 E4.01971
G1 X100.113 Y116.17 E4.03462
G1 X99.742 Y115.52 E4.04956
G1 X99.443 Y114.834 E4.06449
G1 X99.219 Y114.12 E4.07942
G1 X99.072 Y113.387 E4.09434
G1 X99 Y112.383 E4.11443
G1 X99 Y107.617 E4.20954
G1 X99.04 Y106.87 E4.22447
G1 X99.159 Y106.132 E4.23939
G1 X99.357 Y105.41 E4.25433
G1 X99.63 Y104.714 E4.26925
G1 X99.977 Y104.051 E4.28418
G1 X100.392 Y103.428 E4.29912
G1 X101.05 Y102.667 E4.31919
G1 X101.167 Y102.55 E4.3225
G0 F6000 X101.45 Y102.833
G1 F1200 X101.991 Y102.349 E4.33698
G1 X102.582 Y101.926 E4.35149
G1 X103.216 Y101.572 E4.36598
G1 X103.885 Y101.289 E4.38047
G1 X104.581 Y101.081 E4.39497
G1 X105.296 Y100.951 E4.40947
G1 X106.117 Y100.9 E4.42589
G1 X113.883 Y100.9 E4.58087
G1 X114.608 Y100.94 E4.59536
G1 X115.325 Y101.059 E4.60986
G1 X116.024 Y101.257 E4.62436
G1 X116.697 Y101.53 E4.63885
G1 X117.336 Y101.875 E4.65334
G1 X117.933 Y102.289 E4.66784
G1 X118.55 Y102.833 E4.68426
G1 X118.667 Y102.95 E4.68756
G1 X119.151 Y103.491 E4.70205
G1 X119.574 Y104.082 E4.71655
G1 X119.928 Y104.716 E4.73104
G1 X120.211 Y105.385 E4.74554
G1 X120.419 Y106.081 E4.76003
G1 X120.549 Y106.796 E4.77453
G1 X120.6 Y107.617 E4.79095
G1 X120.6 Y112.383 E4.88606
G1 X120.56 Y113.108 E4.90055
G1 X120.441 Y113.825 E4.91506
G1 X120.243 Y114.524 E4.92955
G1 X119.97 Y115.197 E4.94405
G1 X119.625 Y115.836 E4.95854
G1 X119.211 Y116.433 E4.97304
G1 X118.667 Y117.05 E4.98945
G1 X118.55 Y117.167 E4.99275
G1 X118.009 Y117.651 E5.00724
G1 X117.418 Y118.074 E5.02174
G1 X116.784 Y118.428 E5.03624
G1 X116.115 Y118.711 E5.05073
G1 X115.419 Y118.919 E5.06523
G1 X114.704 Y119.049 E5.07973
G1 X113.883 Y119.1 E5.09615
G1 X106.117 Y119.1 E5.25112
G1 X105.392 Y119.06 E5.26561
G1 X104.675 Y118.941 E5.28012
G1 X103.976 Y118.743 E5.29462
G1 X103.303 Y118.47 E5.30911
G1 X102.664 Y118.125 E5.3236
G1 X102.067 Y117.711 E5.3381
G1 X101.45 Y117.167 E5.35452
G1 X101.333 Y117.05 E5.35782
G1 X100.849 Y116.509 E5.3723
G1 X100.426 Y115.918 E5.38681
G1 X100.072 Y115.284 E5.4013
G1 X99.789 Y114.615 E5.41579
G1 X99.581 Y113.919 E5.43029
G1 X99.451 Y113.204 E5.44479
G1 X99.4 Y112.383 E5.46121
G1 X99.4 Y107.617 E5.55632
G1 X99.44 Y106.892 E5.57081
G1 X99.559 Y106.175 E5.58531
G1 X99.757 Y105.476 E5.59981
G1 X100.03 Y104.803 E5.61431
G1 X100.375 Y104.164 E5.6288
G1 X100.789 Y103.567 E5.6433
G1 X101.333 Y102.95 E5.65971
G1 X101.45 Y102.833 E5.66301
G0 F6000 X101.733 Y103.116
G1 F1200 X102.258 Y102.647 E5.67706
G1 X102.833 Y102.241 E5.69111
G1 X103.451 Y101.903 E5.70517
G1 X104.102 Y101.636 E5.71921
G1 X104.78 Y101.446 E5.73326
G1 X105.475 Y101.333 E5.74731
G1 X106.117 Y101.3 E5.76014
G1 X113.883 Y101.3 E5.91512
G1 X114.586 Y101.34 E5.92917
G1 X115.28 Y101.459 E5.94322
G1 X115.955 Y101.657 E5.95726
G1 X116.604 Y101.929 E5.9713
G1 X117.218 Y102.274 E5.98536
G1 X117.789 Y102.685 E5.9994
G1 X118.267 Y103.116 E6.01224
G1 X118.384 Y103.233 E6.01554
G1 X118.853 Y103.758 E6.02959
G1 X119.259 Y104.333 E6.04364
G1 X119.597 Y104.951 E6.05769
G1 X119.864 Y105.602 E6.07174
G1 X120.054 Y106.28 E6.08579
G1 X120.167 Y106.975 E6.09984
G1 X120.2 Y107.617 E6.11267
G1 X120.2 Y112.383 E6.20778
G1 X120.16 Y113.086 E6.22183
G1 X120.041 Y113.78 E6.23588
G1 X119.843 Y114.455 E6.24992
G1 X119.571 Y115.104 E6.26396
G1 X119.226 Y115.718 E6.27802
G1 X118.815 Y116.289 E6.29206
G1 X118.384 Y116.767 E6.3049
G1 X118.267 Y116.884 E6.3082
G1 X117.742 Y117.353 E6.32225
G1 X117.167 Y117.759 E6.3363
G1 X116.549 Y118.097 E6.35036
G1 X115.898 Y118.364 E6.3644
G1 X115.22 Y118.554 E6.37845
G1 X114.525 Y118.667 E6.3925
G1 X113.883 Y118.7 E6.40533
G1 X106.117 Y118.7 E6.56031
G1 X105.414 Y118.66 E6.57436
G1 X104.72 Y118.541 E6.58841
G1 X104.045 Y118.343 E6.60245
G1 X103.396 Y118.071 E6.61649
G1 X102.782 Y117.726 E6.63055
G1 X102.211 Y117.315 E6.64459
G1 X101.733 Y116.884 E6.65743
G1 X101.616 Y116.767 E6.66073
G1 X101.147 Y116.242 E6.67478
G1 X100.741 Y115.667 E6.68883
G1 X100.403 Y115.049 E6.70289
G1 X100.136 Y114.398 E6.71693
G1 X99.946 Y113.72 E6.73098
G1 X99.833 Y113.025 E6.74503
G1 X99.8 Y112.383 E6.75786
G1 X99.8 Y107.617 E6.85297
G1 X99.84 Y106.914 E6.86702
G1 X99.959 Y106.22 E6.88107
G1 X100.157 Y105.545 E6.89511
G1 X100.429 Y104.896 E6.90915
G1 X100.774 Y104.282 E6.92321
G1 X101.185 Y103.711 E6.93725
G1 X101.616 Y103.233 E6.95009
G1 X101.733 Y103.116 E6.9534
G0 F6000 X102.016 Y103.399
G1 F1200 X102.525 Y102.946 E6.96699
G1 X103.083 Y102.557 E6.98057
G1 X103.683 Y102.235 E6.99416
G1 X104.317 Y101.986 E7.00775
G1 X104.976 Y101.813 E7.02135
G1 X105.65 Y101.719 E7.03493
G1 X106.117 Y101.7 E7.04425
G1 X113.883 Y101.7 E7.19923
G1 X114.563 Y101.74 E7.21283
G1 X115.233 Y101.859 E7.22641
G1 X115.885 Y102.056 E7.24
G1 X116.509 Y102.328 E7.25358
G1 X117.097 Y102.672 E7.26718
G1 X117.641 Y103.082 E7.28077
G1 X117.984 Y103.399 E7.29009
G1 X118.101 Y103.516 E7.29339
G1 X118.554 Y104.025 E7.30699
G1 X118.943 Y104.583 E7.32057
G1 X119.265 Y105.183 E7.33416
G1 X119.514 Y105.817 E7.34775
G1 X119.687 Y106.476 E7.36135
G1 X119.781 Y107.15 E7.37493
G1 X119.8 Y107.617 E7.38425
G1 X119.8 Y112.383 E7.47936
G1 X119.76 Y113.063 E7.49296
G1 X119.641 Y113.733 E7.50654
G1 X119.444 Y114.385 E7.52013
G1 X119.172 Y115.009 E7.53371
G1 X118.828 Y115.597 E7.54731
G1 X118.418 Y116.141 E7.5609
G1 X118.101 Y116.484 E7.57022
G1 X117.984 Y116.601 E7.57352
G1 X117.475 Y117.054 E7.58712
G1 X116.917 Y117.443 E7.6007
G1 X116.317 Y117.765 E7.61429
G1 X115.683 Y118.014 E7.62788
G1 X115.024 Y118.187 E7.64148
G1 X114.35 Y118.281 E7.65506
G1 X113.883 Y118.3 E7.66438
G1 X106.117 Y118.3 E7.81936
G1 X105.437 Y118.26 E7.83296
G1 X104.767 Y118.141 E7.84654
G1 X104.115 Y117.944 E7.86013
G1 X103.491 Y117.672 E7.87371
G1 X102.903 Y117.328 E7.88731
G1 X102.359 Y116.918 E7.9009
G1 X102.016 Y116.601 E7.91022
G1 X101.899 Y116.484 E7.91352
G1 X101.446 Y115.975 E7.92712
G1 X101.057 Y115.417 E7.9407
G1 X100.735 Y114.817 E7.95428
G1 X100.486 Y114.183 E7.96788
G1 X100.313 Y113.524 E7.98147
G1 X100.219 Y112.85 E7.99506
G1 X100.2 Y112.383 E8.00438
G1 X100.2 Y107.617 E8.09949
G1 X100.24 Y106.937 E8.11309
G1 X100.359 Y106.267 E8.12667
G1 X100.556 Y105.615 E8.14026
G1 X100.828 Y104.991 E8.15384
G1 X101.172 Y104.403 E8.16744
G1 X101.582 Y103.859 E8.18103
G1 X101.899 Y103.516 E8.19035
G1 X102.016 Y103.399 E8.19365
G0 F6000 X102.299 Y103.682
G1 F1200 X102.791 Y103.246 E8.20677
G1 X103.332 Y102.874 E8.21988
G1 X103.914 Y102.57 E8.23298
G1 X104.529 Y102.339 E8.24609
G1 X105.168 Y102.184 E8.25921
G1 X106.117 Y102.1 E8.27822
G1 X113.883 Y102.1 E8.4332
G1 X114.539 Y102.14 E8.44632
G1 X115.185 Y102.259 E8.45943
G1 X115.812 Y102.456 E8.47254
G1 X116.41 Y102.728 E8.48565
G1 X116.971 Y103.07 E8.49876
G1 X117.701 Y103.682 E8.51777
G1 X117.818 Y103.799 E8.52108
G1 X118.254 Y104.291 E8.53419
G1 X118.626 Y104.832 E8.5473
G1 X118.93 Y105.414 E8.5604
G1 X119.161 Y106.029 E8.57351
G1 X119.316 Y106.668 E8.58663
G1 X119.4 Y107.617 E8.60564
G1 X119.4 Y112.383 E8.70076
G1 X119.36 Y113.039 E8.71387
G1 X119.241 Y113.685 E8.72698
G1 X119.044 Y114.312 E8.74009
G1 X118.772 Y114.91 E8.75321
G1 X118.43 Y115.471 E8.76632
G1 X117.818 Y116.201 E8.78533
G1 X117.701 Y116.318 E8.78863
G1 X117.209 Y116.754 E8.80175
G1 X116.668 Y117.126 E8.81485
G1 X116.086 Y117.43 E8.82795
G1 X115.471 Y117.661 E8.84106
G1 X114.832 Y117.816 E8.85419
G1 X113.883 Y117.9 E8.8732
G1 X106.117 Y117.9 E9.02818
G1 X105.461 Y117.86 E9.04129
G1 X104.815 Y117.741 E9.0544
G1 X104.188 Y117.544 E9.06752
G1 X103.59 Y117.272 E9.08063
G1 X103.029 Y116.93 E9.09374
G1 X102.299 Y116.318 E9.11275
G1 X102.182 Y116.201 E9.11605
G1 X101.746 Y115.709 E9.12917
G1 X101.374 Y115.168 E9.14227
G1 X101.07 Y114.586 E9.15537
G1 X100.839 Y113.971 E9.16849
G1 X100.684 Y113.332 E9.18161
G1 X100.6 Y112.383 E9.20062
G1 X100.6 Y107.617 E9.29573
G1 X100.64 Y106.961 E9.30885
G1 X100.759 Y106.315 E9.32195
G1 X100.956 Y105.688 E9.33507
G1 X101.228 Y105.09 E9.34818
G1 X101.57 Y104.529 E9.36129
G1 X102.182 Y103.799 E9.3803
G1 X102.299 Y103.682 E9.3836
G0 F6000 X102.581 Y103.964
G1 F1200 X103.056 Y103.547 E9.39622
G1 X103.579 Y103.192 E9.40883
G1 X104.143 Y102.906 E9.42145
G1 X104.738 Y102.694 E9.43406
G1 X105.356 Y102.558 E9.44668
G1 X106.117 Y102.5 E9.46191
G1 X113.883 Y102.5 E9.61689
G1 X114.514 Y102.54 E9.62951
G1 X115.135 Y102.659 E9.64213
G1 X115.735 Y102.856 E9.65473
G1 X116.307 Y103.127 E9.66736
G1 X116.839 Y103.467 E9.67996
G1 X117.419 Y103.964 E9.69521
G1 X117.536 Y104.081 E9.69851
G1 X117.953 Y104.556 E9.71112
G1 X118.308 Y105.079 E9.72374
G1 X118.594 Y105.643 E9.73635
G1 X118.806 Y106.238 E9.74896
G1 X118.942 Y106.856 E9.76159
G1 X119 Y107.617 E9.77682
G1 X119 Y112.383 E9.87193
G1 X118.96 Y113.014 E9.88455
G1 X118.841 Y113.635 E9.89717
G1 X118.644 Y114.235 E9.90977
G1 X118.373 Y114.807 E9.9224
G1 X118.033 Y115.339 E9.935
G1 X117.536 Y115.919 E9.95024
G1 X117.419 Y116.036 E9.95354
G1 X116.944 Y116.453 E9.96616
G1 X116.421 Y116.808 E9.97877
G1 X115.857 Y117.094 E9.99139
G1 X115.262 Y117.306 E10.004
G1 X114.644 Y117.442 E10.01662
G1 X113.883 Y117.5 E10.03185
G1 X106.117 Y117.5 E10.18683
G1 X105.486 Y117.46 E10.19945
G1 X104.865 Y117.341 E10.21207
G1 X104.265 Y117.144 E10.22467
G1 X103.693 Y116.873 E10.2373
G1 X103.161 Y116.533 E10.2499
G1 X102.581 Y116.036 E10.26515
G1 X102.464 Y115.919 E10.26845
G1 X102.047 Y115.444 E10.28106
G1 X101.692 Y114.921 E10.29368
G1 X101.406 Y114.357 E10.30629
G1 X101.194 Y113.762 E10.3189
G1 X101.058 Y113.144 E10.33153
G1 X101 Y112.383 E10.34676
G1 X101 Y107.617 E10.44187
G1 X101.04 Y106.986 E10.45449
G1 X101.159 Y106.365 E10.4671
G1 X101.356 Y105.765 E10.47971
