;FLAVOR:Marlin
;TIME:40224
;Filament used: 40.129m
;Layer height: 0.28
;MINX:16.9
;MINY:56.247
;MINZ:0.28
;MAXX:203.012
;MAXY:163.753
;MAXZ:54.88
;Generated with Cura_SteamEngine 4.9.1
M140 S60
M105
M190 S60
M104 S200
M105
M109 S200
M82 ;absolute extrusion mode
; Ender 3 Custom Start G-code
G92 E0 ; Reset Extruder
G28 ; Home all axes
G1 Z2.0 F3000 ; Move Z Axis up little to prevent scratching of Heat Bed
G1 X0.1 Y20 Z0.3 F5000.0 ; Move to start position
G1 X0.1 Y200.0 Z0.3 F1500.0 E15 ; Draw the first line
G1 X0.4 Y200.0 Z0.3 F5000.0 ; Move to side a little
G1 X0.4 Y20 Z0.3 F1500.0 E30 ; Draw the second line
G92 E0 ; Reset Extruder
G1 Z2.0 F3000 ; Move Z Axis up little to prevent scratching of Heat Bed
G1 X5 Y20 Z0.3 F5000.0 ; Move over to prevent blob squish
G92 E0
G92 E0
G1 F1500 E-6.5
;LAYER_COUNT:196
;LAYER:0
M107
G0 F6000 X50.818 Y122.955 Z0.28
;TYPE:SKIRT
G1 F1500 E0
G1 F1200 X50.381 Y123.142 E0.02213
G1 X49.832 Y123.401 E0.0504
G1 X49.455 Y123.606 E0.07038
G1 X48.95 Y123.911 E0.09785
G1 X48.581 Y124.169 E0.11882
G1 X48.054 Y124.562 E0.14943
G1 X47.715 Y124.847 E0.17005
G1 X47.301 Y125.231 E0.19634
G1 X46.817 Y125.73 E0.22871
G1 X46.605 Y125.968 E0.24356
G1 X46.215 Y126.445 E0.27225
G1 X45.978 Y126.779 E0.29132
G1 X45.576 Y127.388 E0.32529
G1 X45.356 Y127.772 E0.3459
G1 X45.181 Y128.111 E0.36367
G1 X44.94 Y128.644 E0.3909
G1 X44.711 Y129.212 E0.41942
G1 X44.533 Y129.736 E0.44519
G1 X44.393 Y130.222 E0.46874
G1 X44.254 Y130.828 E0.49769
G1 X44.189 Y131.217 E0.51606
G1 X44.099 Y131.914 E0.54878
G1 X44.041 Y132.611 E0.58135
G1 X44.027 Y132.987 E0.59887
G1 X44.102 Y133.984 E0.64542
G1 X44.157 Y134.402 E0.66506
G1 X44.267 Y135.027 E0.69461
G1 X44.369 Y135.483 E0.71636
G1 X44.513 Y135.989 E0.74086
G1 X44.725 Y136.626 E0.77212
G1 X44.846 Y136.944 E0.78796
G1 X45.125 Y137.554 E0.8192
G1 X45.348 Y137.997 E0.84229
G1 X45.648 Y138.521 E0.87041
G1 X45.944 Y138.976 E0.89568
G1 X46.235 Y139.389 E0.91921
G1 X46.495 Y139.714 E0.93859
G1 X46.872 Y140.142 E0.96515
G1 X47.302 Y140.587 E0.99396
G1 X47.607 Y140.869 E1.0133
G1 X48.09 Y141.276 E1.04272
G1 X48.452 Y141.544 E1.06369
G1 X48.891 Y141.852 E1.08866
G1 X49.423 Y142.173 E1.11759
G1 X49.851 Y142.405 E1.14026
G1 X50.367 Y142.653 E1.16692
G1 X50.891 Y142.88 E1.19351
G1 X51.468 Y143.091 E1.22212
G1 X51.696 Y143.161 E1.23322
G1 X52.431 Y143.336 E1.2684
G1 X52.91 Y143.441 E1.29124
G1 X53.36 Y143.51 E1.31244
G1 X53.974 Y143.566 E1.34115
G1 X54.578 Y143.597 E1.36931
G1 X54.911 Y143.597 E1.38481
G1 X55.833 Y143.547 E1.42781
G1 X56.708 Y143.415 E1.46901
G1 X57.146 Y143.327 E1.48982
G1 X57.715 Y143.182 E1.51716
G1 X58.168 Y143.045 E1.5392
G1 X58.615 Y142.876 E1.56145
G1 X59.16 Y142.649 E1.58894
G1 X59.608 Y142.432 E1.61212
G1 X60.088 Y142.172 E1.63754
G1 X60.583 Y141.871 E1.66451
G1 X61.034 Y141.559 E1.69005
G1 X61.426 Y141.263 E1.71292
G1 X61.752 Y140.986 E1.73284
G1 X62.326 Y140.455 E1.76925
G1 X62.587 Y140.189 E1.7866
G1 X62.967 Y139.752 E1.81357
G1 X63.284 Y139.358 E1.83712
G1 X63.596 Y138.913 E1.86242
G1 X63.918 Y138.416 E1.89
G1 X64.138 Y138.029 E1.91073
G1 X64.409 Y137.503 E1.93828
G1 X64.575 Y137.128 E1.95738
G1 X64.809 Y136.521 E1.98767
G1 X64.984 Y136.013 E2.01269
G1 X65.126 Y135.508 E2.03711
G1 X65.239 Y135.009 E2.06094
G1 X65.374 Y134.221 E2.09816
G1 X65.392 Y134.082 E2.10469
G1 X65.475 Y132.97 E2.15661
G1 X65.477 Y132.847 E2.16234
G1 X65.39 Y131.763 E2.21298
G1 X65.316 Y131.218 E2.23859
G1 X65.236 Y130.779 E2.25937
G1 X65.14 Y130.36 E2.27938
G1 X64.948 Y129.664 E2.313
G1 X64.81 Y129.263 E2.33275
G1 X64.566 Y128.655 E2.36326
G1 X64.318 Y128.11 E2.39114
G1 X64.15 Y127.785 E2.40817
G1 X63.926 Y127.405 E2.42871
G1 X63.531 Y126.803 E2.46224
G1 X63.291 Y126.462 E2.48166
G1 X62.888 Y125.958 E2.51171
G1 X62.615 Y125.659 E2.53056
G1 X62.246 Y125.278 E2.55526
G1 X61.667 Y124.738 E2.59212
G1 X61.457 Y124.562 E2.60488
G1 X61.035 Y124.248 E2.62937
G1 X60.534 Y123.905 E2.65765
G1 X60.126 Y123.655 E2.67993
G1 X59.545 Y123.343 E2.71064
G1 X59.159 Y123.159 E2.73055
G1 X58.63 Y122.931 E2.75737
G1 X58.147 Y122.758 E2.78126
G1 X57.679 Y122.608 E2.80414
G1 X57.097 Y122.465 E2.83205
G1 X56.635 Y122.373 E2.85398
G1 X56.142 Y122.299 E2.8772
G1 X55.595 Y122.242 E2.90281
G1 X54.985 Y122.213 E2.93124
G1 X53.359 Y122.292 E3.00705
G1 X53.132 Y122.324 E3.01772
G1 X52.275 Y122.508 E3.05853
G1 X51.77 Y122.637 E3.0828
G1 X51.323 Y122.771 E3.10453
G1 X50.818 Y122.955 E3.12956
G0 F6000 X50.665 Y122.584
G1 F1200 X50.22 Y122.776 E3.15213
G1 X49.649 Y123.045 E3.18152
G1 X49.269 Y123.251 E3.20165
G1 X48.729 Y123.578 E3.23104
G1 X48.342 Y123.848 E3.25302
G1 X47.805 Y124.248 E3.28419
G1 X47.446 Y124.55 E3.30604
G1 X47.024 Y124.941 E3.33283
G1 X46.527 Y125.455 E3.36612
G1 X46.312 Y125.695 E3.38112
G1 X45.895 Y126.205 E3.4118
G1 X45.631 Y126.579 E3.43312
G1 X45.239 Y127.172 E3.46622
G1 X45.011 Y127.569 E3.48753
G1 X44.819 Y127.942 E3.50707
G1 X44.567 Y128.499 E3.53554
G1 X44.343 Y129.055 E3.56345
G1 X44.148 Y129.63 E3.59172
G1 X44.003 Y130.13 E3.61596
G1 X43.86 Y130.758 E3.64595
G1 X43.793 Y131.156 E3.66475
G1 X43.703 Y131.849 E3.69729
G1 X43.641 Y132.607 E3.7327
G1 X43.626 Y132.994 E3.75073
G1 X43.704 Y134.03 E3.79911
G1 X43.761 Y134.458 E3.81922
G1 X43.874 Y135.098 E3.84948
G1 X43.983 Y135.587 E3.87281
G1 X44.133 Y136.118 E3.8985
G1 X44.339 Y136.736 E3.92883
G1 X44.481 Y137.108 E3.94737
G1 X44.761 Y137.722 E3.9788
G1 X44.998 Y138.19 E4.00322
G1 X45.312 Y138.737 E4.03259
G1 X45.609 Y139.197 E4.05809
G1 X45.909 Y139.623 E4.08235
G1 X46.206 Y139.992 E4.10441
G1 X46.556 Y140.391 E4.12912
G1 X47.021 Y140.872 E4.16027
G1 X47.35 Y141.175 E4.1811
G1 X47.844 Y141.591 E4.21117
G1 X48.198 Y141.854 E4.23171
G1 X48.673 Y142.187 E4.25872
G1 X49.229 Y142.523 E4.28897
G1 X49.674 Y142.764 E4.31253
G1 X50.193 Y143.014 E4.33936
G1 X50.752 Y143.256 E4.36772
G1 X51.322 Y143.464 E4.39598
G1 X51.598 Y143.549 E4.40942
G1 X52.309 Y143.718 E4.44345
G1 X52.854 Y143.837 E4.46943
G1 X53.297 Y143.905 E4.4903
G1 X53.944 Y143.964 E4.52055
G1 X54.576 Y143.997 E4.55002
G1 X54.933 Y143.997 E4.56664
G1 X55.861 Y143.947 E4.60992
G1 X56.808 Y143.804 E4.65451
G1 X57.227 Y143.72 E4.67441
G1 X57.817 Y143.569 E4.70277
G1 X58.29 Y143.426 E4.72578
G1 X58.777 Y143.243 E4.75
G1 X59.317 Y143.017 E4.77726
G1 X59.786 Y142.791 E4.8015
G1 X60.29 Y142.516 E4.82824
G1 X60.808 Y142.202 E4.85644
G1 X61.259 Y141.89 E4.88198
G1 X61.68 Y141.571 E4.90657
G1 X62.024 Y141.28 E4.92755
G1 X62.601 Y140.747 E4.96413
G1 X62.875 Y140.467 E4.98237
G1 X63.275 Y140.006 E5.01079
G1 X63.605 Y139.596 E5.0353
G1 X63.914 Y139.157 E5.0603
G1 X64.271 Y138.606 E5.09087
G1 X64.489 Y138.222 E5.11143
G1 X64.77 Y137.676 E5.14002
G1 X64.942 Y137.289 E5.15974
G1 X65.184 Y136.661 E5.19108
G1 X65.368 Y136.126 E5.21743
G1 X65.512 Y135.613 E5.24224
G1 X65.631 Y135.086 E5.26739
G1 X65.77 Y134.274 E5.30575
G1 X65.79 Y134.122 E5.31289
G1 X65.875 Y132.991 E5.36571
G1 X65.875 Y132.794 E5.37488
G1 X65.789 Y131.732 E5.42449
G1 X65.712 Y131.161 E5.45132
G1 X65.625 Y130.684 E5.4739
G1 X65.525 Y130.25 E5.49464
G1 X65.334 Y129.558 E5.52806
G1 X65.186 Y129.129 E5.5492
G1 X64.929 Y128.486 E5.58144
G1 X64.672 Y127.923 E5.61026
G1 X64.512 Y127.612 E5.62654
G1 X64.256 Y127.179 E5.64997
G1 X63.86 Y126.575 E5.6836
G1 X63.622 Y126.238 E5.70281
G1 X63.185 Y125.69 E5.73544
G1 X62.914 Y125.394 E5.75413
G1 X62.514 Y124.98 E5.78094
G1 X61.935 Y124.441 E5.81777
G1 X61.706 Y124.249 E5.83169
G1 X61.283 Y123.934 E5.85624
G1 X60.742 Y123.563 E5.88679
G1 X60.318 Y123.304 E5.90993
G1 X59.736 Y122.991 E5.9407
G1 X59.332 Y122.798 E5.96154
G1 X58.768 Y122.556 E5.99012
G1 X58.277 Y122.38 E6.01441
G1 X57.783 Y122.221 E6.03857
G1 X57.175 Y122.072 E6.06772
G1 X56.714 Y121.98 E6.08961
G1 X56.198 Y121.902 E6.11391
G1 X55.637 Y121.844 E6.14017
G1 X54.974 Y121.813 E6.17108
G1 X53.327 Y121.892 E6.24786
G1 X53.062 Y121.93 E6.26033
G1 X52.195 Y122.116 E6.30162
G1 X51.66 Y122.253 E6.32733
G1 X51.188 Y122.394 E6.35027
G1 X50.665 Y122.584 E6.37618
G0 F6000 X50.528 Y122.208
G1 F1200 X50.07 Y122.405 E6.3994
G1 X49.453 Y122.696 E6.43116
G1 X49.074 Y122.902 E6.45125
G1 X48.507 Y123.245 E6.4821
G1 X48.125 Y123.512 E6.50381
G1 X47.554 Y123.937 E6.53695
G1 X47.167 Y124.262 E6.56048
G1 X46.746 Y124.653 E6.58724
G1 X46.237 Y125.179 E6.62132
G1 X46.007 Y125.435 E6.63734
G1 X45.574 Y125.965 E6.66921
G1 X45.298 Y126.356 E6.6915
G1 X44.902 Y126.955 E6.72493
G1 X44.656 Y127.383 E6.74792
G1 X44.456 Y127.772 E6.76829
G1 X44.203 Y128.333 E6.79694
G1 X43.968 Y128.913 E6.82608
G1 X43.768 Y129.504 E6.85514
G1 X43.615 Y130.035 E6.88087
G1 X43.469 Y130.671 E6.91125
G1 X43.394 Y131.117 E6.93231
G1 X43.305 Y131.808 E6.96475
G1 X43.241 Y132.584 E7.00101
G1 X43.226 Y132.986 E7.01974
G1 X43.306 Y134.076 E7.07063
G1 X43.364 Y134.51 E7.09102
G1 X43.483 Y135.189 E7.12312
G1 X43.589 Y135.661 E7.14565
G1 X43.753 Y136.24 E7.17367
G1 X43.97 Y136.892 E7.20566
G1 X44.11 Y137.257 E7.22387
G1 X44.398 Y137.889 E7.25621
G1 X44.647 Y138.383 E7.28197
G1 X44.97 Y138.945 E7.31215
G1 X45.275 Y139.417 E7.33832
G1 X45.59 Y139.863 E7.36374
G1 X45.897 Y140.246 E7.3866
G1 X46.272 Y140.673 E7.41306
G1 X46.735 Y141.152 E7.44408
G1 X47.092 Y141.481 E7.46669
G1 X47.588 Y141.899 E7.49689
G1 X47.997 Y142.202 E7.52059
G1 X48.438 Y142.512 E7.54569
G1 X49.044 Y142.878 E7.57866
G1 X49.49 Y143.119 E7.60227
G1 X50.03 Y143.379 E7.63017
G1 X50.607 Y143.629 E7.65945
G1 X51.188 Y143.841 E7.68825
G1 X51.492 Y143.935 E7.70307
G1 X52.243 Y144.113 E7.73901
G1 X52.774 Y144.229 E7.76432
G1 X53.265 Y144.305 E7.78745
G1 X53.885 Y144.361 E7.81644
G1 X54.574 Y144.397 E7.84857
G1 X54.936 Y144.397 E7.86542
G1 X55.915 Y144.344 E7.91107
G1 X56.859 Y144.201 E7.95553
G1 X57.311 Y144.111 E7.97699
G1 X57.94 Y143.95 E8.00723
G1 X58.412 Y143.808 E8.03018
G1 X58.953 Y143.603 E8.05712
G1 X59.466 Y143.389 E8.083
G1 X59.981 Y143.141 E8.10962
G1 X60.486 Y142.866 E8.13639
G1 X61.026 Y142.538 E8.16581
G1 X61.496 Y142.213 E8.19242
G1 X61.927 Y141.887 E8.21758
G1 X62.284 Y141.584 E8.23939
G1 X62.885 Y141.028 E8.27751
G1 X63.164 Y140.744 E8.29605
G1 X63.593 Y140.251 E8.32648
G1 X63.92 Y139.844 E8.35079
G1 X64.257 Y139.364 E8.3781
G1 X64.599 Y138.835 E8.40743
G1 X64.844 Y138.404 E8.43052
G1 X65.137 Y137.836 E8.46028
G1 X65.308 Y137.45 E8.47993
G1 X65.559 Y136.8 E8.51238
G1 X65.75 Y136.243 E8.5398
G1 X65.9 Y135.712 E8.56549
G1 X66.027 Y135.149 E8.59236
G1 X66.165 Y134.342 E8.63049
G1 X66.188 Y134.165 E8.6388
G1 X66.275 Y133.011 E8.69269
G1 X66.275 Y132.779 E8.70349
G1 X66.187 Y131.684 E8.75464
G1 X66.108 Y131.099 E8.78213
G1 X66.019 Y130.61 E8.80527
G1 X65.918 Y130.172 E8.8262
G1 X65.709 Y129.414 E8.86282
G1 X65.564 Y128.994 E8.88351
G1 X65.302 Y128.341 E8.91627
G1 X65.038 Y127.761 E8.94594
G1 X64.85 Y127.397 E8.96502
G1 X64.612 Y126.993 E8.98685
G1 X64.197 Y126.36 E9.0221
G1 X63.926 Y125.976 E9.04398
G1 X63.502 Y125.446 E9.07559
G1 X63.181 Y125.094 E9.09777
G1 X62.81 Y124.711 E9.1226
G1 X62.181 Y124.125 E9.16263
G1 X61.957 Y123.937 E9.17624
G1 X61.52 Y123.611 E9.20163
G1 X60.968 Y123.234 E9.23276
G1 X60.516 Y122.957 E9.25744
G1 X59.903 Y122.627 E9.28986
G1 X59.493 Y122.431 E9.31102
G1 X58.93 Y122.189 E9.33956
G1 X58.381 Y121.993 E9.3667
G1 X57.904 Y121.84 E9.39003
G1 X57.257 Y121.681 E9.42105
G1 X56.789 Y121.587 E9.44328
G1 X56.232 Y121.504 E9.4695
G1 X55.66 Y121.445 E9.49627
G1 X54.985 Y121.412 E9.52774
G1 X53.282 Y121.495 E9.60714
G1 X52.98 Y121.538 E9.62134
G1 X52.114 Y121.723 E9.66257
G1 X51.542 Y121.87 E9.69007
G1 X51.073 Y122.01 E9.71287
G1 X50.528 Y122.208 E9.73987
G0 F6000 X50.4 Y121.829
G1 F1200 X49.886 Y122.05 E9.76592
G1 X49.278 Y122.336 E9.79721
G1 X48.872 Y122.557 E9.81873
G1 X48.285 Y122.912 E9.85067
G1 X47.903 Y123.179 E9.87237
G1 X47.297 Y123.63 E9.90755
G1 X46.909 Y123.956 E9.93115
G1 X46.47 Y124.364 E9.95905
G1 X45.935 Y124.917 E9.99488
G1 X45.703 Y125.175 E10.01104
G1 X45.254 Y125.725 E10.0441
G1 X44.99 Y126.097 E10.06534
G1 X44.554 Y126.757 E10.10217
G1 X44.302 Y127.197 E10.12578
G1 X44.101 Y127.587 E10.14621
G1 X43.833 Y128.179 E10.17647
G1 X43.592 Y128.778 E10.20654
G1 X43.381 Y129.401 E10.23716
G1 X43.231 Y129.919 E10.26228
G1 X43.075 Y130.604 E10.29499
G1 X43.004 Y131.023 E10.31478
G1 X42.908 Y131.768 E10.34975
G1 X42.841 Y132.579 E10.38765
G1 X42.826 Y132.979 E10.40629
G1 X42.827 Y133.033 E10.4088
G1 X42.907 Y134.104 E10.45881
G1 X42.971 Y134.588 E10.48154
G1 X43.089 Y135.255 E10.51308
G1 X43.204 Y135.769 E10.53761
G1 X43.372 Y136.362 E10.56631
G1 X43.587 Y137.008 E10.59801
G1 X43.745 Y137.421 E10.6186
G1 X44.035 Y138.056 E10.65111
G1 X44.297 Y138.576 E10.67822
G1 X44.625 Y139.148 E10.70892
G1 X44.945 Y139.643 E10.73637
G1 X45.278 Y140.114 E10.76323
G1 X45.577 Y140.488 E10.78553
G1 X45.977 Y140.943 E10.81374
G1 X46.474 Y141.456 E10.84699
G1 X46.821 Y141.777 E10.86901
G1 X47.341 Y142.215 E10.90066
G1 X47.723 Y142.498 E10.9228
G1 X48.236 Y142.858 E10.95198
G1 X48.834 Y143.219 E10.98451
G1 X49.313 Y143.478 E11.00987
G1 X49.855 Y143.739 E11.03788
G1 X50.453 Y143.998 E11.06822
G1 X51.082 Y144.228 E11.09941
G1 X51.371 Y144.317 E11.11349
G1 X52.188 Y144.511 E11.15259
G1 X52.691 Y144.621 E11.17656
G1 X53.216 Y144.701 E11.20129
G1 X53.881 Y144.762 E11.23239
G1 X54.553 Y144.797 E11.26372
G1 X54.958 Y144.797 E11.28258
G1 X55.917 Y144.745 E11.3273
G1 X55.959 Y144.741 E11.32926
G1 X56.936 Y144.593 E11.37528
G1 X57.41 Y144.499 E11.39778
G1 X58.036 Y144.339 E11.42786
G1 X58.537 Y144.187 E11.45224
G1 X59.105 Y143.973 E11.48051
G1 X59.63 Y143.754 E11.50699
G1 X60.159 Y143.499 E11.53434
G1 X60.689 Y143.211 E11.56243
G1 X61.243 Y142.874 E11.59262
G1 X61.733 Y142.535 E11.62037
G1 X62.173 Y142.202 E11.64606
G1 X62.555 Y141.878 E11.66938
G1 X63.16 Y141.319 E11.70774
G1 X63.469 Y141.004 E11.72829
G1 X63.886 Y140.524 E11.75789
G1 X64.241 Y140.083 E11.78426
G1 X64.591 Y139.583 E11.81267
G1 X64.945 Y139.037 E11.84297
G1 X65.201 Y138.587 E11.86708
G1 X65.487 Y138.03 E11.89624
G1 X65.689 Y137.577 E11.91933
G1 X65.935 Y136.94 E11.95113
G1 X66.13 Y136.371 E11.97914
G1 X66.286 Y135.816 E12.00598
G1 X66.42 Y135.226 E12.03415
G1 X66.559 Y134.414 E12.07251
G1 X66.585 Y134.21 E12.08209
G1 X66.675 Y133.008 E12.13822
G1 X66.675 Y132.753 E12.15009
G1 X66.586 Y131.657 E12.20129
G1 X66.502 Y131.036 E12.23047
G1 X66.405 Y130.504 E12.25565
G1 X66.303 Y130.063 E12.27673
G1 X66.095 Y129.308 E12.3132
G1 X65.938 Y128.853 E12.33561
G1 X65.668 Y128.178 E12.36946
G1 X65.396 Y127.582 E12.39997
G1 X65.207 Y127.216 E12.41915
G1 X64.936 Y126.757 E12.44397
G1 X64.535 Y126.145 E12.47804
G1 X64.25 Y125.741 E12.50106
G1 X63.799 Y125.176 E12.53472
G1 X63.498 Y124.847 E12.55549
G1 X63.078 Y124.413 E12.58361
G1 X62.459 Y123.836 E12.62301
G1 X62.197 Y123.617 E12.63891
G1 X61.752 Y123.285 E12.66476
G1 X61.186 Y122.898 E12.69669
G1 X60.714 Y122.609 E12.72246
G1 X60.086 Y122.272 E12.75565
G1 X59.665 Y122.07 E12.77739
G1 X59.063 Y121.812 E12.80789
G1 X58.521 Y121.618 E12.8347
G1 X58.018 Y121.456 E12.8593
G1 X57.34 Y121.289 E12.89182
G1 X56.848 Y121.191 E12.91518
G1 X56.288 Y121.107 E12.94154
G1 X55.702 Y121.047 E12.96897
G1 X54.974 Y121.012 E13.00291
G1 X53.25 Y121.095 E13.08328
G1 X52.913 Y121.143 E13.09913
G1 X52.029 Y121.333 E13.14123
G1 X51.432 Y121.486 E13.16993
G1 X50.938 Y121.633 E13.19393
G1 X50.4 Y121.829 E13.22059
G0 F6000 X50.244 Y121.46
G1 F1200 X49.725 Y121.683 E13.2469
G1 X49.095 Y121.98 E13.27933
G1 X48.676 Y122.207 E13.30152
G1 X48.072 Y122.573 E13.3344
G1 X47.664 Y122.858 E13.35758
G1 X47.056 Y123.31 E13.39285
G1 X46.642 Y123.659 E13.41807
G1 X46.183 Y124.084 E13.4472
G1 X45.644 Y124.641 E13.48329
G1 X45.41 Y124.902 E13.49961
G1 X44.934 Y125.485 E13.53466
G1 X44.643 Y125.897 E13.55814
G1 X44.217 Y126.541 E13.5941
G1 X43.957 Y126.994 E13.61842
G1 X43.739 Y127.418 E13.64062
G1 X43.465 Y128.023 E13.67154
G1 X43.215 Y128.642 E13.70263
G1 X43.008 Y129.253 E13.73267
G1 X42.842 Y129.824 E13.76036
G1 X42.684 Y130.517 E13.79345
G1 X42.605 Y130.984 E13.81551
G1 X42.509 Y131.728 E13.85044
G1 X42.443 Y132.532 E13.888
G1 X42.426 Y132.989 E13.9093
G1 X42.427 Y133.036 E13.91149
G1 X42.512 Y134.168 E13.96435
G1 X42.574 Y134.64 E13.98651
G1 X42.699 Y135.35 E14.02008
G1 X42.813 Y135.856 E14.04423
G1 X42.985 Y136.464 E14.07366
G1 X43.217 Y137.164 E14.108
