;FLAVOR:Marlin
;TIME:21707
;Filament used: 21.8247m
;Layer height: 0.28
;MINX:62.2
;MINY:77.2
;MINZ:0.28
;MAXX:157.8
;MAXY:142.8
;MAXZ:39.76
;Generated with Cura_SteamEngine 4.8.0
M140 S60
M105
M190 S60
M104 S200
M105
M109 S200
M82 ;absolute extrusion mode
; Ender 3 Custom Start G-code
G92 E0 ; Reset Extruder
G28 ; Home all axes
G1 Z2.0 F3000 ; Move Z Axis up little to prevent scratching of Heat Bed
G1 X0.1 Y20 Z0.3 F5000.0 ; Move to start position
G1 X0.1 Y200.0 Z0.3 F1500.0 E15 ; Draw the first line
G1 X0.4 Y200.0 Z0.3 F5000.0 ; Move to side a little
G1 X0.4 Y20 Z0.3 F1500.0 E30 ; Draw the second line
G92 E0 ; Reset Extruder
G1 Z2.0 F3000 ; Move Z Axis up little to prevent scratching of Heat Bed
G1 X5 Y20 Z0.3 F5000.0 ; Move over to prevent blob squish
G92 E0
G92 E0
G1 F1500 E-6.5
;LAYER_COUNT:142
;LAYER:0
M107
G0 F6000 X68.288 Y78.955 Z0.28
;TYPE:SKIRT
G1 F1500 E0
G1 F1200 X68.924 Y78.488 E0.03674
G1 X69.604 Y78.087 E0.0735
G1 X70.322 Y77.757 E0.1103
G1 X71.069 Y77.502 E0.14705
G1 X71.838 Y77.323 E0.18381
G1 X72.622 Y77.223 E0.22062
G1 X73.217 Y77.2 E0.24834
G1 X146.783 Y77.2 E3.67388
G1 X147.572 Y77.24 E3.71067
G1 X148.352 Y77.359 E3.74741
G1 X149.117 Y77.557 E3.78421
G1 X149.857 Y77.831 E3.82095
G1 X150.566 Y78.179 E3.85773
G1 X151.237 Y78.597 E3.89454
G1 X151.861 Y79.08 E3.93128
G1 X152.298 Y79.485 E3.95902
G1 X152.415 Y79.602 E3.96673
G1 X152.945 Y80.188 E4.00352
G1 X153.412 Y80.824 E4.04026
G1 X153.813 Y81.504 E4.07702
G1 X154.143 Y82.222 E4.11382
G1 X154.398 Y82.969 E4.15057
G1 X154.577 Y83.738 E4.18734
G1 X154.677 Y84.522 E4.22414
G1 X154.7 Y85.117 E4.25186
G1 X154.7 Y98.878 E4.89263
G1 X154.961 Y99.08 E4.908
G1 X155.398 Y99.485 E4.93575
G1 X155.515 Y99.602 E4.94345
G1 X156.045 Y100.188 E4.98024
G1 X156.512 Y100.824 E5.01698
G1 X156.913 Y101.504 E5.05374
G1 X157.243 Y102.222 E5.09054
G1 X157.498 Y102.969 E5.12729
G1 X157.677 Y103.738 E5.16406
G1 X157.777 Y104.522 E5.20086
G1 X157.8 Y105.117 E5.22859
G1 X157.8 Y134.883 E6.61461
G1 X157.76 Y135.672 E6.6514
G1 X157.641 Y136.452 E6.68814
G1 X157.443 Y137.217 E6.72494
G1 X157.169 Y137.957 E6.76168
G1 X156.821 Y138.666 E6.79846
G1 X156.403 Y139.337 E6.83527
G1 X155.92 Y139.961 E6.87201
G1 X155.515 Y140.398 E6.89976
G1 X155.398 Y140.515 E6.90746
G1 X154.812 Y141.045 E6.94425
G1 X154.176 Y141.512 E6.98099
G1 X153.496 Y141.913 E7.01775
G1 X152.778 Y142.243 E7.05455
G1 X152.031 Y142.498 E7.0913
G1 X151.262 Y142.677 E7.12807
G1 X150.478 Y142.777 E7.16487
G1 X149.883 Y142.8 E7.19259
G1 X70.117 Y142.8 E10.90683
G1 X69.328 Y142.76 E10.94362
G1 X68.548 Y142.641 E10.98036
G1 X67.783 Y142.443 E11.01716
G1 X67.043 Y142.169 E11.0539
G1 X66.334 Y141.821 E11.09068
G1 X65.663 Y141.403 E11.12749
G1 X65.039 Y140.92 E11.16423
G1 X64.602 Y140.515 E11.19197
G1 X64.485 Y140.398 E11.19968
G1 X63.955 Y139.812 E11.23647
G1 X63.488 Y139.176 E11.27321
G1 X63.087 Y138.496 E11.30997
G1 X62.757 Y137.778 E11.34677
G1 X62.502 Y137.031 E11.38352
G1 X62.323 Y136.262 E11.42029
G1 X62.223 Y135.478 E11.45709
G1 X62.2 Y134.883 E11.48481
G1 X62.2 Y105.117 E12.87084
G1 X62.24 Y104.328 E12.90763
G1 X62.359 Y103.548 E12.94437
G1 X62.557 Y102.783 E12.98117
G1 X62.831 Y102.043 E13.01791
G1 X63.179 Y101.334 E13.05469
G1 X63.597 Y100.663 E13.0915
G1 X64.08 Y100.039 E13.12824
G1 X64.485 Y99.602 E13.15598
G1 X64.602 Y99.485 E13.16369
G1 X65.188 Y98.955 E13.20048
G1 X65.3 Y98.873 E13.20694
G1 X65.3 Y85.117 E13.84748
G1 X65.34 Y84.328 E13.88427
G1 X65.459 Y83.548 E13.92101
G1 X65.657 Y82.783 E13.9578
G1 X65.931 Y82.043 E13.99455
G1 X66.279 Y81.334 E14.03132
G1 X66.697 Y80.663 E14.06813
G1 X67.18 Y80.039 E14.10488
G1 X67.585 Y79.602 E14.13262
G1 X67.702 Y79.485 E14.14033
G1 X68.288 Y78.955 E14.17712
G0 F6000 X68.556 Y79.253
G1 F1200 X69.178 Y78.8 E14.21295
G1 X69.843 Y78.414 E14.24875
G1 X70.545 Y78.099 E14.28458
G1 X71.276 Y77.859 E14.3204
G1 X72.027 Y77.696 E14.35619
G1 X72.792 Y77.612 E14.39202
G1 X73.217 Y77.6 E14.41182
G1 X146.783 Y77.6 E17.83736
G1 X147.551 Y77.64 E17.87317
G1 X148.311 Y77.759 E17.90899
G1 X149.054 Y77.957 E17.9448
G1 X149.773 Y78.231 E17.98063
G1 X150.459 Y78.578 E18.01642
G1 X151.106 Y78.994 E18.05224
G1 X151.706 Y79.475 E18.08805
G1 X152.016 Y79.767 E18.10788
G1 X152.133 Y79.884 E18.11558
G1 X152.647 Y80.456 E18.15139
G1 X153.1 Y81.078 E18.18722
G1 X153.486 Y81.743 E18.22302
G1 X153.801 Y82.445 E18.25885
G1 X154.041 Y83.176 E18.29468
G1 X154.204 Y83.927 E18.33046
G1 X154.288 Y84.692 E18.3663
G1 X154.3 Y85.117 E18.3861
G1 X154.3 Y99.069 E19.03576
G1 X154.806 Y99.475 E19.06597
G1 X155.116 Y99.767 E19.0858
G1 X155.233 Y99.884 E19.0935
G1 X155.747 Y100.456 E19.12931
G1 X156.2 Y101.078 E19.16514
G1 X156.586 Y101.743 E19.20094
G1 X156.901 Y102.445 E19.23677
G1 X157.141 Y103.176 E19.2726
G1 X157.304 Y103.927 E19.30838
G1 X157.388 Y104.692 E19.34422
G1 X157.4 Y105.117 E19.36402
G1 X157.4 Y134.883 E20.75005
G1 X157.36 Y135.651 E20.78586
G1 X157.241 Y136.411 E20.82168
G1 X157.043 Y137.154 E20.85748
G1 X156.769 Y137.873 E20.89331
G1 X156.422 Y138.559 E20.92911
G1 X156.006 Y139.206 E20.96492
G1 X155.525 Y139.806 E21.00073
G1 X155.233 Y140.116 E21.02056
G1 X155.116 Y140.233 E21.02827
G1 X154.544 Y140.747 E21.06407
G1 X153.922 Y141.2 E21.0999
G1 X153.257 Y141.586 E21.13571
G1 X152.555 Y141.901 E21.17154
G1 X151.824 Y142.141 E21.20736
G1 X151.073 Y142.304 E21.24315
G1 X150.308 Y142.388 E21.27898
G1 X149.883 Y142.4 E21.29878
G1 X70.117 Y142.4 E25.01302
G1 X69.349 Y142.36 E25.04883
G1 X68.589 Y142.241 E25.08465
G1 X67.846 Y142.043 E25.12045
G1 X67.127 Y141.769 E25.15628
G1 X66.441 Y141.422 E25.19208
G1 X65.794 Y141.006 E25.22789
G1 X65.194 Y140.525 E25.2637
G1 X64.884 Y140.233 E25.28353
G1 X64.767 Y140.116 E25.29124
G1 X64.253 Y139.544 E25.32705
G1 X63.8 Y138.922 E25.36288
G1 X63.414 Y138.257 E25.39868
G1 X63.099 Y137.555 E25.43451
G1 X62.859 Y136.824 E25.47033
G1 X62.696 Y136.073 E25.50612
G1 X62.612 Y135.308 E25.54195
G1 X62.6 Y134.883 E25.56175
G1 X62.6 Y105.117 E26.94778
G1 X62.64 Y104.349 E26.98359
G1 X62.759 Y103.589 E27.01941
G1 X62.957 Y102.846 E27.05522
G1 X63.231 Y102.127 E27.09104
G1 X63.578 Y101.441 E27.12684
G1 X63.994 Y100.794 E27.16266
G1 X64.475 Y100.194 E27.19847
G1 X64.767 Y99.884 E27.2183
G1 X64.884 Y99.767 E27.226
G1 X65.456 Y99.253 E27.26181
G1 X65.7 Y99.075 E27.27587
G1 X65.7 Y85.117 E27.92582
G1 X65.74 Y84.349 E27.96163
G1 X65.859 Y83.589 E27.99745
G1 X66.057 Y82.846 E28.03325
G1 X66.331 Y82.127 E28.06908
G1 X66.678 Y81.441 E28.10488
G1 X67.094 Y80.794 E28.14069
G1 X67.575 Y80.194 E28.1765
G1 X67.867 Y79.884 E28.19633
G1 X67.984 Y79.767 E28.20403
G1 X68.556 Y79.253 E28.23984
G0 F6000 X68.824 Y79.55
G1 F1200 X69.43 Y79.113 E28.27463
G1 X70.08 Y78.742 E28.30948
G1 X70.766 Y78.443 E28.34433
G1 X71.48 Y78.219 E28.37917
G1 X72.213 Y78.072 E28.41398
G1 X73.217 Y78 E28.46085
G1 X146.783 Y78 E31.8864
G1 X147.53 Y78.04 E31.92123
G1 X148.268 Y78.159 E31.95604
G1 X148.99 Y78.357 E31.9909
G1 X149.686 Y78.63 E32.02571
G1 X150.349 Y78.977 E32.06055
G1 X150.972 Y79.392 E32.09541
G1 X151.733 Y80.05 E32.14226
G1 X151.85 Y80.167 E32.14996
G1 X152.35 Y80.724 E32.18481
G1 X152.787 Y81.33 E32.2196
G1 X153.158 Y81.98 E32.25445
G1 X153.457 Y82.666 E32.2893
G1 X153.681 Y83.38 E32.32414
G1 X153.828 Y84.113 E32.35895
G1 X153.9 Y85.117 E32.40582
G1 X153.9 Y99.277 E33.06517
G1 X154.072 Y99.392 E33.07481
G1 X154.833 Y100.05 E33.12165
G1 X154.95 Y100.167 E33.12936
G1 X155.45 Y100.724 E33.16421
G1 X155.887 Y101.33 E33.199
G1 X156.258 Y101.98 E33.23385
G1 X156.557 Y102.666 E33.2687
G1 X156.781 Y103.38 E33.30354
G1 X156.928 Y104.113 E33.33835
G1 X157 Y105.117 E33.38522
G1 X157 Y134.883 E34.77125
G1 X156.96 Y135.63 E34.80608
G1 X156.841 Y136.368 E34.84089
G1 X156.643 Y137.09 E34.87575
G1 X156.37 Y137.786 E34.91057
G1 X156.023 Y138.449 E34.94541
G1 X155.608 Y139.072 E34.98027
G1 X154.95 Y139.833 E35.02711
G1 X154.833 Y139.95 E35.03482
G1 X154.276 Y140.45 E35.06967
G1 X153.67 Y140.887 E35.10446
G1 X153.02 Y141.258 E35.13931
G1 X152.334 Y141.557 E35.17415
G1 X151.62 Y141.781 E35.209
G1 X150.887 Y141.928 E35.24381
G1 X149.883 Y142 E35.29068
G1 X70.117 Y142 E39.00492
G1 X69.37 Y141.96 E39.03975
G1 X68.632 Y141.841 E39.07456
G1 X67.91 Y141.643 E39.10942
G1 X67.214 Y141.37 E39.14423
G1 X66.551 Y141.023 E39.17908
G1 X65.928 Y140.608 E39.21394
G1 X65.167 Y139.95 E39.26078
G1 X65.05 Y139.833 E39.26849
G1 X64.55 Y139.276 E39.30334
G1 X64.113 Y138.67 E39.33813
G1 X63.742 Y138.02 E39.37298
G1 X63.443 Y137.334 E39.40782
G1 X63.219 Y136.62 E39.44267
G1 X63.072 Y135.887 E39.47748
G1 X63 Y134.883 E39.52435
G1 X63 Y105.117 E40.91038
G1 X63.04 Y104.37 E40.94521
G1 X63.159 Y103.632 E40.98002
G1 X63.357 Y102.91 E41.01488
G1 X63.63 Y102.214 E41.04969
G1 X63.977 Y101.551 E41.08454
G1 X64.392 Y100.928 E41.1194
G1 X65.05 Y100.167 E41.16624
G1 X65.167 Y100.05 E41.17394
G1 X65.724 Y99.55 E41.2088
G1 X66.1 Y99.279 E41.23038
G1 X66.1 Y85.117 E41.88982
G1 X66.14 Y84.37 E41.92465
G1 X66.259 Y83.632 E41.95946
G1 X66.457 Y82.91 E41.99432
G1 X66.73 Y82.214 E42.02914
G1 X67.077 Y81.551 E42.06398
G1 X67.492 Y80.928 E42.09884
G1 X68.15 Y80.167 E42.14568
G1 X68.267 Y80.05 E42.15339
G1 X68.824 Y79.55 E42.18824
G0 F6000 X69.091 Y79.849
G1 F1200 X69.682 Y79.426 E42.22208
G1 X70.316 Y79.072 E42.25589
G1 X70.985 Y78.789 E42.28972
G1 X71.681 Y78.581 E42.32354
G1 X72.396 Y78.451 E42.35738
G1 X73.217 Y78.4 E42.39568
G1 X146.783 Y78.4 E45.82123
G1 X147.508 Y78.44 E45.85504
G1 X148.225 Y78.559 E45.88888
G1 X148.924 Y78.757 E45.92271
G1 X149.597 Y79.03 E45.95653
G1 X150.236 Y79.375 E45.99034
G1 X150.833 Y79.789 E46.02417
G1 X151.45 Y80.333 E46.06247
G1 X151.567 Y80.45 E46.07018
G1 X152.051 Y80.991 E46.10398
G1 X152.474 Y81.582 E46.13782
G1 X152.828 Y82.216 E46.17163
G1 X153.111 Y82.885 E46.20546
G1 X153.319 Y83.581 E46.23928
G1 X153.449 Y84.296 E46.27312
G1 X153.5 Y85.117 E46.31142
G1 X153.5 Y99.489 E46.98064
G1 X153.933 Y99.789 E47.00517
G1 X154.55 Y100.333 E47.04347
G1 X154.667 Y100.45 E47.05118
G1 X155.151 Y100.991 E47.08498
G1 X155.574 Y101.582 E47.11882
G1 X155.928 Y102.216 E47.15263
G1 X156.211 Y102.885 E47.18646
G1 X156.419 Y103.581 E47.22028
G1 X156.549 Y104.296 E47.25412
G1 X156.6 Y105.117 E47.29243
G1 X156.6 Y134.883 E48.67845
G1 X156.56 Y135.608 E48.71227
G1 X156.441 Y136.325 E48.74611
G1 X156.243 Y137.024 E48.77994
G1 X155.97 Y137.697 E48.81376
G1 X155.625 Y138.336 E48.84757
G1 X155.211 Y138.933 E48.8814
G1 X154.667 Y139.55 E48.9197
G1 X154.55 Y139.667 E48.92741
G1 X154.009 Y140.151 E48.96121
G1 X153.418 Y140.574 E48.99505
G1 X152.784 Y140.928 E49.02886
G1 X152.115 Y141.211 E49.06268
G1 X151.419 Y141.419 E49.09651
G1 X150.704 Y141.549 E49.13035
G1 X149.883 Y141.6 E49.16865
G1 X70.117 Y141.6 E52.88289
G1 X69.392 Y141.56 E52.9167
G1 X68.675 Y141.441 E52.95054
G1 X67.976 Y141.243 E52.98437
G1 X67.303 Y140.97 E53.01819
G1 X66.664 Y140.625 E53.05201
G1 X66.067 Y140.211 E53.08583
G1 X65.45 Y139.667 E53.12414
G1 X65.333 Y139.55 E53.13184
G1 X64.849 Y139.009 E53.16564
G1 X64.426 Y138.418 E53.19948
G1 X64.072 Y137.784 E53.2333
G1 X63.789 Y137.115 E53.26712
G1 X63.581 Y136.419 E53.30095
G1 X63.451 Y135.704 E53.33478
G1 X63.4 Y134.883 E53.37309
G1 X63.4 Y105.117 E54.75912
G1 X63.44 Y104.392 E54.79293
G1 X63.559 Y103.675 E54.82677
G1 X63.757 Y102.976 E54.8606
G1 X64.03 Y102.303 E54.89442
G1 X64.375 Y101.664 E54.92823
G1 X64.789 Y101.067 E54.96206
G1 X65.333 Y100.45 E55.00036
G1 X65.45 Y100.333 E55.00807
G1 X65.991 Y99.849 E55.04187
G1 X66.5 Y99.485 E55.07101
G1 X66.5 Y85.117 E55.74004
G1 X66.54 Y84.392 E55.77385
G1 X66.659 Y83.675 E55.80769
G1 X66.857 Y82.976 E55.84152
G1 X67.13 Y82.303 E55.87534
G1 X67.475 Y81.664 E55.90916
G1 X67.889 Y81.067 E55.94298
G1 X68.433 Y80.45 E55.98129
G1 X68.55 Y80.333 E55.98899
G1 X69.091 Y79.849 E56.02279
G0 F6000 X69.358 Y80.147
G1 F1200 X69.933 Y79.741 E56.05557
G1 X70.551 Y79.403 E56.08837
G1 X71.202 Y79.136 E56.12113
G1 X71.88 Y78.946 E56.15392
G1 X72.575 Y78.833 E56.18671
G1 X73.217 Y78.8 E56.21664
G1 X146.783 Y78.8 E59.64218
G1 X147.486 Y78.84 E59.67497
G1 X148.18 Y78.959 E59.70776
G1 X148.855 Y79.157 E59.74051
G1 X149.504 Y79.429 E59.77328
G1 X150.118 Y79.774 E59.80607
G1 X150.689 Y80.185 E59.83883
G1 X151.167 Y80.616 E59.8688
G1 X151.284 Y80.733 E59.87651
G1 X151.753 Y81.258 E59.90929
G1 X152.159 Y81.833 E59.94206
G1 X152.497 Y82.451 E59.97486
G1 X152.764 Y83.102 E60.00763
G1 X152.954 Y83.78 E60.04041
G1 X153.067 Y84.475 E60.0732
G1 X153.1 Y85.117 E60.10313
G1 X153.1 Y99.708 E60.78255
G1 X153.218 Y99.774 E60.78885
G1 X153.789 Y100.185 E60.82161
G1 X154.267 Y100.616 E60.85158
G1 X154.384 Y100.733 E60.85928
G1 X154.853 Y101.258 E60.89206
G1 X155.259 Y101.833 E60.92484
G1 X155.597 Y102.451 E60.95764
G1 X155.864 Y103.102 E60.9904
G1 X156.054 Y103.78 E61.02319
G1 X156.167 Y104.475 E61.05597
G1 X156.2 Y105.117 E61.08591
G1 X156.2 Y134.883 E62.47194
G1 X156.16 Y135.586 E62.50472
G1 X156.041 Y136.28 E62.53751
G1 X155.843 Y136.955 E62.57027
G1 X155.571 Y137.604 E62.60303
G1 X155.226 Y138.218 E62.63583
G1 X154.815 Y138.789 E62.66859
G1 X154.384 Y139.267 E62.69856
G1 X154.267 Y139.384 E62.70626
G1 X153.742 Y139.853 E62.73904
G1 X153.167 Y140.259 E62.77182
G1 X152.549 Y140.597 E62.80462
G1 X151.898 Y140.864 E62.83738
G1 X151.22 Y141.054 E62.87017
G1 X150.525 Y141.167 E62.90296
G1 X149.883 Y141.2 E62.93289
G1 X70.117 Y141.2 E66.64713
G1 X69.414 Y141.16 E66.67992
G1 X68.72 Y141.041 E66.7127
G1 X68.045 Y140.843 E66.74546
G1 X67.396 Y140.571 E66.77823
G1 X66.782 Y140.226 E66.81102
G1 X66.211 Y139.815 E66.84378
G1 X65.733 Y139.384 E66.87375
G1 X65.616 Y139.267 E66.88145
G1 X65.147 Y138.742 E66.91423
G1 X64.741 Y138.167 E66.94701
G1 X64.403 Y137.549 E66.97981
G1 X64.136 Y136.898 E67.01257
G1 X63.946 Y136.22 E67.04536
G1 X63.833 Y135.525 E67.07815
G1 X63.8 Y134.883 E67.10808
G1 X63.8 Y105.117 E68.49411
G1 X63.84 Y104.414 E68.5269
G1 X63.959 Y103.72 E68.55969
G1 X64.157 Y103.045 E68.59244
G1 X64.429 Y102.396 E68.62521
G1 X64.774 Y101.782 E68.658
G1 X65.185 Y101.211 E68.69076
G1 X65.616 Y100.733 E68.72073
G1 X65.733 Y100.616 E68.72844
G1 X66.258 Y100.147 E68.76122
G1 X66.833 Y99.741 E68.79399
G1 X66.9 Y99.704 E68.79756
G1 X66.9 Y85.117 E69.47679
G1 X66.94 Y84.414 E69.50958
G1 X67.059 Y83.72 E69.54236
G1 X67.257 Y83.045 E69.57512
G1 X67.529 Y82.396 E69.60788
G1 X67.874 Y81.782 E69.64068
G1 X68.285 Y81.211 E69.67344
G1 X68.716 Y80.733 E69.70341
G1 X68.833 Y80.616 E69.71111
G1 X69.358 Y80.147 E69.74389
G0 F6000 X69.625 Y80.446
G1 F1200 X70.183 Y80.057 E69.77557
G1 X70.783 Y79.735 E69.80727
G1 X71.417 Y79.486 E69.83899
G1 X72.076 Y79.313 E69.87072
G1 X72.75 Y79.219 E69.9024
G1 X73.217 Y79.2 E69.92417
G1 X146.783 Y79.2 E73.34971
G1 X147.463 Y79.24 E73.38143
G1 X148.133 Y79.359 E73.41311
G1 X148.785 Y79.556 E73.44483
G1 X149.409 Y79.828 E73.47653
G1 X149.997 Y80.172 E73.50825
G1 X150.541 Y80.582 E73.53997
G1 X150.884 Y80.899 E73.56171
G1 X151.001 Y81.016 E73.56942
G1 X151.454 Y81.525 E73.60115
G1 X151.843 Y82.083 E73.63282
G1 X152.165 Y82.683 E73.66453
G1 X152.414 Y83.317 E73.69625
G1 X152.587 Y83.976 E73.72797
G1 X152.681 Y84.65 E73.75966
G1 X152.7 Y85.117 E73.78142
G1 X152.7 Y99.94 E74.47164
G1 X153.097 Y100.172 E74.49305
G1 X153.641 Y100.582 E74.52477
G1 X153.984 Y100.899 E74.54652
G1 X154.101 Y101.016 E74.55423
G1 X154.554 Y101.525 E74.58595
G1 X154.943 Y102.083 E74.61763
G1 X155.265 Y102.683 E74.64934
G1 X155.514 Y103.317 E74.68105
G1 X155.687 Y103.976 E74.71278
G1 X155.781 Y104.65 E74.74447
G1 X155.8 Y105.117 E74.76623
G1 X155.8 Y134.883 E76.15226
G1 X155.76 Y135.563 E76.18398
G1 X155.641 Y136.233 E76.21566
G1 X155.444 Y136.885 E76.24738
G1 X155.172 Y137.509 E76.27908
G1 X154.828 Y138.097 E76.3108
G1 X154.418 Y138.641 E76.34252
G1 X154.101 Y138.984 E76.36426
G1 X153.984 Y139.101 E76.37197
G1 X153.475 Y139.554 E76.4037
G1 X152.917 Y139.943 E76.43537
G1 X152.317 Y140.265 E76.46708
G1 X151.683 Y140.514 E76.4988
G1 X151.024 Y140.687 E76.53052
G1 X150.35 Y140.781 E76.56221
G1 X149.883 Y140.8 E76.58397
G1 X70.117 Y140.8 E80.29821
G1 X69.437 Y140.76 E80.32993
G1 X68.767 Y140.641 E80.36162
G1 X68.115 Y140.444 E80.39333
G1 X67.491 Y140.172 E80.42503
G1 X66.903 Y139.828 E80.45675
G1 X66.359 Y139.418 E80.48847
