;FLAVOR:Marlin
;TIME:5700
;Filament used: 1.30929m
;Layer height: 0.12
;MINX:80.2
;MINY:87.7
;MINZ:0.12
;MAXX:139.8
;MAXY:132.3
;MAXZ:5.4
;Generated with Cura_SteamEngine 4.8.0
M140 S60
M105
M190 S60
M104 S200
M105
M109 S200
M82 ;absolute extrusion mode
; Ender 3 Custom Start G-code
G92 E0 ; Reset Extruder
G28 ; Home all axes
G1 Z2.0 F3000 ; Move Z Axis up little to prevent scratching of Heat Bed
G1 X0.1 Y20 Z0.3 F5000.0 ; Move to start position
G1 X0.1 Y200.0 Z0.3 F1500.0 E15 ; Draw the first line
G1 X0.4 Y200.0 Z0.3 F5000.0 ; Move to side a little
G1 X0.4 Y20 Z0.3 F1500.0 E30 ; Draw the second line
G92 E0 ; Reset Extruder
G1 Z2.0 F3000 ; Move Z Axis up little to prevent scratching of Heat Bed
G1 X5 Y20 Z0.3 F5000.0 ; Move over to prevent blob squish
G92 E0
G92 E0
G1 F1500 E-6.5
;LAYER_COUNT:45
;LAYER:0
M107
G0 F6000 X82.602 Y89.985 Z0.12
;TYPE:SKIRT
G1 F1500 E0
G1 F1200 X83.188 Y89.455 E0.01577
G1 X83.824 Y88.988 E0.03151
G1 X84.504 Y88.587 E0.04727
G1 X85.222 Y88.257 E0.06304
G1 X85.969 Y88.002 E0.07879
G1 X86.738 Y87.823 E0.09455
G1 X87.522 Y87.723 E0.11032
G1 X88.117 Y87.7 E0.1222
G1 X95.883 Y87.7 E0.27718
G1 X96.672 Y87.74 E0.29295
G1 X97.452 Y87.859 E0.30869
G1 X97.988 Y87.998 E0.31974
G1 X98.738 Y87.823 E0.33511
G1 X99.522 Y87.723 E0.35088
G1 X100.117 Y87.7 E0.36277
G1 X107.883 Y87.7 E0.51774
G1 X108.672 Y87.74 E0.53351
G1 X109.452 Y87.859 E0.54926
G1 X109.988 Y87.998 E0.56031
G1 X110.738 Y87.823 E0.57568
G1 X111.522 Y87.723 E0.59145
G1 X112.117 Y87.7 E0.60333
G1 X119.883 Y87.7 E0.75831
G1 X120.672 Y87.74 E0.77407
G1 X121.452 Y87.859 E0.78982
G1 X121.988 Y87.998 E0.80087
G1 X122.738 Y87.823 E0.81624
G1 X123.522 Y87.723 E0.83201
G1 X124.117 Y87.7 E0.8439
G1 X131.883 Y87.7 E0.99887
G1 X132.672 Y87.74 E1.01464
G1 X133.452 Y87.859 E1.03039
G1 X134.217 Y88.057 E1.04615
G1 X134.957 Y88.331 E1.0619
G1 X135.666 Y88.679 E1.07766
G1 X136.337 Y89.097 E1.09344
G1 X136.961 Y89.58 E1.10919
G1 X137.398 Y89.985 E1.12108
G1 X137.515 Y90.102 E1.12438
G1 X138.045 Y90.688 E1.14015
G1 X138.512 Y91.324 E1.15589
G1 X138.913 Y92.004 E1.17165
G1 X139.243 Y92.722 E1.18742
G1 X139.498 Y93.469 E1.20317
G1 X139.677 Y94.238 E1.21892
G1 X139.777 Y95.022 E1.2347
G1 X139.8 Y95.617 E1.24658
G1 X139.8 Y100.383 E1.34169
G1 X139.76 Y101.172 E1.35746
G1 X139.641 Y101.952 E1.3732
G1 X139.677 Y102.238 E1.37895
G1 X139.777 Y103.022 E1.39473
G1 X139.8 Y103.617 E1.40661
G1 X139.8 Y108.383 E1.50172
G1 X139.76 Y109.172 E1.51749
G1 X139.641 Y109.952 E1.53323
G1 X139.677 Y110.238 E1.53898
G1 X139.777 Y111.022 E1.55476
G1 X139.8 Y111.617 E1.56664
G1 X139.8 Y116.383 E1.66175
G1 X139.76 Y117.172 E1.67752
G1 X139.641 Y117.952 E1.69326
G1 X139.677 Y118.238 E1.69901
G1 X139.777 Y119.022 E1.71479
G1 X139.8 Y119.617 E1.72667
G1 X139.8 Y124.383 E1.82178
G1 X139.76 Y125.172 E1.83754
G1 X139.641 Y125.952 E1.85329
G1 X139.443 Y126.717 E1.86906
G1 X139.169 Y127.457 E1.88481
G1 X138.821 Y128.166 E1.90057
G1 X138.403 Y128.837 E1.91634
G1 X137.92 Y129.461 E1.93209
G1 X137.515 Y129.898 E1.94398
G1 X137.398 Y130.015 E1.94728
G1 X136.812 Y130.545 E1.96305
G1 X136.176 Y131.012 E1.9788
G1 X135.496 Y131.413 E1.99455
G1 X134.778 Y131.743 E2.01032
G1 X134.031 Y131.998 E2.02607
G1 X133.262 Y132.177 E2.04183
G1 X132.478 Y132.277 E2.0576
G1 X131.883 Y132.3 E2.06948
G1 X124.117 Y132.3 E2.22446
G1 X123.328 Y132.26 E2.24023
G1 X122.548 Y132.141 E2.25598
G1 X122.012 Y132.002 E2.26703
G1 X121.262 Y132.177 E2.28239
G1 X120.478 Y132.277 E2.29817
G1 X119.883 Y132.3 E2.31005
G1 X112.117 Y132.3 E2.46503
G1 X111.328 Y132.26 E2.48079
G1 X110.548 Y132.141 E2.49654
G1 X110.012 Y132.002 E2.50759
G1 X109.262 Y132.177 E2.52296
G1 X108.478 Y132.277 E2.53873
G1 X107.883 Y132.3 E2.55061
G1 X100.117 Y132.3 E2.70559
G1 X99.328 Y132.26 E2.72136
G1 X98.548 Y132.141 E2.7371
G1 X98.012 Y132.002 E2.74816
G1 X97.262 Y132.177 E2.76352
G1 X96.478 Y132.277 E2.7793
G1 X95.883 Y132.3 E2.79118
G1 X88.117 Y132.3 E2.94616
G1 X87.328 Y132.26 E2.96192
G1 X86.548 Y132.141 E2.97767
G1 X85.783 Y131.943 E2.99344
G1 X85.043 Y131.669 E3.00919
G1 X84.334 Y131.321 E3.02495
G1 X83.663 Y130.903 E3.04072
G1 X83.039 Y130.42 E3.05647
G1 X82.602 Y130.015 E3.06836
G1 X82.485 Y129.898 E3.07166
G1 X81.955 Y129.312 E3.08743
G1 X81.488 Y128.676 E3.10318
G1 X81.087 Y127.996 E3.11893
G1 X80.757 Y127.278 E3.1347
G1 X80.502 Y126.531 E3.15045
G1 X80.323 Y125.762 E3.16621
G1 X80.223 Y124.978 E3.18198
G1 X80.2 Y124.383 E3.19386
G1 X80.2 Y119.617 E3.28897
G1 X80.24 Y118.828 E3.30474
G1 X80.359 Y118.048 E3.32049
G1 X80.323 Y117.762 E3.32624
G1 X80.223 Y116.978 E3.34201
G1 X80.2 Y116.383 E3.35389
G1 X80.2 Y111.617 E3.449
G1 X80.24 Y110.828 E3.46477
G1 X80.359 Y110.048 E3.48052
G1 X80.323 Y109.762 E3.48627
G1 X80.223 Y108.978 E3.50204
G1 X80.2 Y108.383 E3.51392
G1 X80.2 Y103.617 E3.60903
G1 X80.24 Y102.828 E3.6248
G1 X80.359 Y102.048 E3.64055
G1 X80.323 Y101.762 E3.6463
G1 X80.223 Y100.978 E3.66207
G1 X80.2 Y100.383 E3.67395
G1 X80.2 Y95.617 E3.76906
G1 X80.24 Y94.828 E3.78483
G1 X80.359 Y94.048 E3.80057
G1 X80.557 Y93.283 E3.81634
G1 X80.831 Y92.543 E3.83209
G1 X81.179 Y91.834 E3.84785
G1 X81.597 Y91.163 E3.86363
G1 X82.08 Y90.539 E3.87938
G1 X82.485 Y90.102 E3.89127
G1 X82.602 Y89.985 E3.89457
G0 F6000 X82.884 Y90.267
G1 F1200 X83.456 Y89.753 E3.90991
G1 X84.078 Y89.3 E3.92527
G1 X84.743 Y88.914 E3.94062
G1 X85.445 Y88.599 E3.95597
G1 X86.176 Y88.359 E3.97132
G1 X86.927 Y88.196 E3.98666
G1 X87.692 Y88.112 E4.00202
G1 X88.117 Y88.1 E4.0105
G1 X95.883 Y88.1 E4.16548
G1 X96.651 Y88.14 E4.18083
G1 X97.411 Y88.259 E4.19618
G1 X98.001 Y88.416 E4.20836
G1 X98.176 Y88.359 E4.21204
G1 X98.927 Y88.196 E4.22737
G1 X99.692 Y88.112 E4.24273
G1 X100.117 Y88.1 E4.25122
G1 X107.883 Y88.1 E4.40619
G1 X108.651 Y88.14 E4.42154
G1 X109.411 Y88.259 E4.43689
G1 X110.001 Y88.416 E4.44908
G1 X110.176 Y88.359 E4.45275
G1 X110.927 Y88.196 E4.46809
G1 X111.692 Y88.112 E4.48344
G1 X112.117 Y88.1 E4.49193
G1 X119.883 Y88.1 E4.64691
G1 X120.651 Y88.14 E4.66225
G1 X121.411 Y88.259 E4.67761
G1 X122.001 Y88.416 E4.68979
G1 X122.176 Y88.359 E4.69346
G1 X122.927 Y88.196 E4.7088
G1 X123.692 Y88.112 E4.72416
G1 X124.117 Y88.1 E4.73264
G1 X131.883 Y88.1 E4.88762
G1 X132.651 Y88.14 E4.90297
G1 X133.411 Y88.259 E4.91832
G1 X134.154 Y88.457 E4.93366
G1 X134.873 Y88.731 E4.94902
G1 X135.559 Y89.078 E4.96436
G1 X136.206 Y89.494 E4.97971
G1 X136.806 Y89.975 E4.99506
G1 X137.116 Y90.267 E5.00356
G1 X137.233 Y90.384 E5.00686
G1 X137.747 Y90.956 E5.0222
G1 X138.2 Y91.578 E5.03756
G1 X138.586 Y92.243 E5.0529
G1 X138.901 Y92.945 E5.06826
G1 X139.141 Y93.676 E5.08361
G1 X139.304 Y94.427 E5.09895
G1 X139.388 Y95.192 E5.11431
G1 X139.4 Y95.617 E5.12279
G1 X139.4 Y100.383 E5.2179
G1 X139.36 Y101.151 E5.23325
G1 X139.241 Y101.911 E5.2486
G1 X139.214 Y102.012 E5.25069
G1 X139.304 Y102.427 E5.25916
G1 X139.388 Y103.192 E5.27452
G1 X139.4 Y103.617 E5.283
G1 X139.4 Y108.383 E5.37812
G1 X139.36 Y109.151 E5.39346
G1 X139.241 Y109.911 E5.40881
G1 X139.214 Y110.012 E5.4109
G1 X139.304 Y110.427 E5.41937
G1 X139.388 Y111.192 E5.43473
G1 X139.4 Y111.617 E5.44322
G1 X139.4 Y116.383 E5.53833
G1 X139.36 Y117.151 E5.55367
G1 X139.241 Y117.911 E5.56903
G1 X139.214 Y118.012 E5.57111
G1 X139.304 Y118.427 E5.57959
G1 X139.388 Y119.192 E5.59495
G1 X139.4 Y119.617 E5.60343
G1 X139.4 Y124.383 E5.69854
G1 X139.36 Y125.151 E5.71389
G1 X139.241 Y125.911 E5.72924
G1 X139.043 Y126.654 E5.74458
G1 X138.769 Y127.373 E5.75994
G1 X138.422 Y128.059 E5.77528
G1 X138.006 Y128.706 E5.79063
G1 X137.525 Y129.306 E5.80598
G1 X137.233 Y129.616 E5.81448
G1 X137.116 Y129.733 E5.81778
G1 X136.544 Y130.247 E5.83312
G1 X135.922 Y130.7 E5.84848
G1 X135.257 Y131.086 E5.86382
G1 X134.555 Y131.401 E5.87918
G1 X133.824 Y131.641 E5.89453
G1 X133.073 Y131.804 E5.90987
G1 X132.308 Y131.888 E5.92523
G1 X131.883 Y131.9 E5.93371
G1 X124.117 Y131.9 E6.08869
G1 X123.349 Y131.86 E6.10404
G1 X122.589 Y131.741 E6.11939
G1 X121.999 Y131.584 E6.13157
G1 X121.824 Y131.641 E6.13525
G1 X121.073 Y131.804 E6.15058
G1 X120.308 Y131.888 E6.16594
G1 X119.883 Y131.9 E6.17442
G1 X112.117 Y131.9 E6.3294
G1 X111.349 Y131.86 E6.34475
G1 X110.589 Y131.741 E6.3601
G1 X109.999 Y131.584 E6.37229
G1 X109.824 Y131.641 E6.37596
G1 X109.073 Y131.804 E6.39129
G1 X108.308 Y131.888 E6.40665
G1 X107.883 Y131.9 E6.41514
G1 X100.117 Y131.9 E6.57012
G1 X99.349 Y131.86 E6.58546
G1 X98.589 Y131.741 E6.60081
G1 X97.999 Y131.584 E6.613
G1 X97.824 Y131.641 E6.61667
G1 X97.073 Y131.804 E6.63201
G1 X96.308 Y131.888 E6.64737
G1 X95.883 Y131.9 E6.65585
G1 X88.117 Y131.9 E6.81083
G1 X87.349 Y131.86 E6.82618
G1 X86.589 Y131.741 E6.84153
G1 X85.846 Y131.543 E6.85687
G1 X85.127 Y131.269 E6.87223
G1 X84.441 Y130.922 E6.88757
G1 X83.794 Y130.506 E6.90292
G1 X83.194 Y130.025 E6.91827
G1 X82.884 Y129.733 E6.92676
G1 X82.767 Y129.616 E6.93007
G1 X82.253 Y129.044 E6.94541
G1 X81.8 Y128.422 E6.96077
G1 X81.414 Y127.757 E6.97611
G1 X81.099 Y127.055 E6.99147
G1 X80.859 Y126.324 E7.00682
G1 X80.696 Y125.573 E7.02216
G1 X80.612 Y124.808 E7.03752
G1 X80.6 Y124.383 E7.046
G1 X80.6 Y119.617 E7.14111
G1 X80.64 Y118.849 E7.15646
G1 X80.759 Y118.089 E7.17181
G1 X80.786 Y117.987 E7.17392
G1 X80.696 Y117.573 E7.18237
G1 X80.612 Y116.808 E7.19773
G1 X80.6 Y116.383 E7.20621
G1 X80.6 Y111.617 E7.30132
G1 X80.64 Y110.849 E7.31667
G1 X80.759 Y110.089 E7.33202
G1 X80.786 Y109.987 E7.33413
G1 X80.696 Y109.573 E7.34258
G1 X80.612 Y108.808 E7.35794
G1 X80.6 Y108.383 E7.36643
G1 X80.6 Y103.617 E7.46154
G1 X80.64 Y102.849 E7.47688
G1 X80.759 Y102.089 E7.49223
G1 X80.786 Y101.987 E7.49434
G1 X80.696 Y101.573 E7.5028
G1 X80.612 Y100.808 E7.51815
G1 X80.6 Y100.383 E7.52664
G1 X80.6 Y95.617 E7.62175
G1 X80.64 Y94.849 E7.6371
G1 X80.759 Y94.089 E7.65245
G1 X80.957 Y93.346 E7.66779
G1 X81.231 Y92.627 E7.68315
G1 X81.578 Y91.941 E7.69849
G1 X81.994 Y91.294 E7.71384
G1 X82.475 Y90.694 E7.72918
G1 X82.767 Y90.384 E7.73768
G1 X82.884 Y90.267 E7.74099
G0 F6000 X83.167 Y90.55
G1 F1200 X83.724 Y90.05 E7.75592
G1 X84.33 Y89.613 E7.77083
G1 X84.98 Y89.242 E7.78577
G1 X85.666 Y88.943 E7.8007
G1 X86.38 Y88.719 E7.81564
G1 X87.113 Y88.572 E7.83055
G1 X88.117 Y88.5 E7.85064
G1 X95.883 Y88.5 E8.00562
G1 X96.63 Y88.54 E8.02055
G1 X97.368 Y88.659 E8.03547
G1 X98.01 Y88.835 E8.04875
G1 X98.38 Y88.719 E8.05649
G1 X99.113 Y88.572 E8.07141
G1 X100.117 Y88.5 E8.0915
G1 X107.883 Y88.5 E8.24647
G1 X108.63 Y88.54 E8.2614
G1 X109.368 Y88.659 E8.27632
G1 X110.01 Y88.835 E8.28961
G1 X110.38 Y88.719 E8.29734
G1 X111.113 Y88.572 E8.31226
G1 X112.117 Y88.5 E8.33235
G1 X119.883 Y88.5 E8.48733
G1 X120.63 Y88.54 E8.50226
G1 X121.368 Y88.659 E8.51718
G1 X122.01 Y88.835 E8.53046
G1 X122.38 Y88.719 E8.5382
G1 X123.113 Y88.572 E8.55312
G1 X124.117 Y88.5 E8.5732
G1 X131.883 Y88.5 E8.72818
G1 X132.63 Y88.54 E8.74311
G1 X133.368 Y88.659 E8.75803
G1 X134.09 Y88.857 E8.77297
G1 X134.786 Y89.13 E8.78789
G1 X135.449 Y89.477 E8.80282
G1 X136.072 Y89.892 E8.81776
G1 X136.833 Y90.55 E8.83784
G1 X136.95 Y90.667 E8.84114
G1 X137.45 Y91.224 E8.85608
G1 X137.887 Y91.83 E8.87099
G1 X138.258 Y92.48 E8.88592
G1 X138.557 Y93.166 E8.90086
G1 X138.781 Y93.88 E8.91579
G1 X138.928 Y94.613 E8.93071
G1 X139 Y95.617 E8.9508
G1 X139 Y100.383 E9.04591
G1 X138.96 Y101.13 E9.06084
G1 X138.841 Y101.868 E9.07575
G1 X138.805 Y101.999 E9.07846
G1 X138.928 Y102.613 E9.09096
G1 X139 Y103.617 E9.11105
G1 X139 Y108.383 E9.20616
G1 X138.96 Y109.13 E9.22109
G1 X138.841 Y109.868 E9.23601
G1 X138.805 Y109.999 E9.23872
G1 X138.928 Y110.613 E9.25121
G1 X139 Y111.617 E9.2713
G1 X139 Y116.383 E9.36641
G1 X138.96 Y117.13 E9.38134
G1 X138.841 Y117.868 E9.39626
G1 X138.805 Y117.999 E9.39897
G1 X138.928 Y118.613 E9.41147
G1 X139 Y119.617 E9.43155
G1 X139 Y124.383 E9.52666
G1 X138.96 Y125.13 E9.54159
G1 X138.841 Y125.868 E9.55651
G1 X138.643 Y126.59 E9.57145
G1 X138.37 Y127.286 E9.58637
G1 X138.023 Y127.949 E9.6013
G1 X137.608 Y128.572 E9.61624
G1 X136.95 Y129.333 E9.63632
G1 X136.833 Y129.45 E9.63962
G1 X136.276 Y129.95 E9.65456
G1 X135.67 Y130.387 E9.66947
G1 X135.02 Y130.758 E9.6844
G1 X134.334 Y131.057 E9.69934
G1 X133.62 Y131.281 E9.71427
G1 X132.887 Y131.428 E9.72919
G1 X131.883 Y131.5 E9.74928
G1 X124.117 Y131.5 E9.90425
G1 X123.37 Y131.46 E9.91918
G1 X122.632 Y131.341 E9.9341
G1 X121.99 Y131.165 E9.94739
G1 X121.62 Y131.281 E9.95512
G1 X120.887 Y131.428 E9.97004
G1 X119.883 Y131.5 E9.99013
G1 X112.117 Y131.5 E10.14511
G1 X111.37 Y131.46 E10.16004
G1 X110.632 Y131.341 E10.17496
G1 X109.99 Y131.165 E10.18824
G1 X109.62 Y131.281 E10.19598
G1 X108.887 Y131.428 E10.2109
G1 X107.883 Y131.5 E10.23098
G1 X100.117 Y131.5 E10.38596
G1 X99.37 Y131.46 E10.40089
G1 X98.632 Y131.341 E10.41581
G1 X97.99 Y131.165 E10.42909
G1 X97.62 Y131.281 E10.43683
G1 X96.887 Y131.428 E10.45175
G1 X95.883 Y131.5 E10.47184
G1 X88.117 Y131.5 E10.62682
G1 X87.37 Y131.46 E10.64175
G1 X86.632 Y131.341 E10.65666
G1 X85.91 Y131.143 E10.6716
G1 X85.214 Y130.87 E10.68652
G1 X84.551 Y130.523 E10.70146
G1 X83.928 Y130.108 E10.7164
G1 X83.167 Y129.45 E10.73647
G1 X83.05 Y129.333 E10.73977
G1 X82.55 Y128.776 E10.75471
G1 X82.113 Y128.17 E10.76962
G1 X81.742 Y127.52 E10.78456
G1 X81.443 Y126.834 E10.79949
G1 X81.219 Y126.12 E10.81442
G1 X81.072 Y125.387 E10.82934
G1 X81 Y124.383 E10.84943
G1 X81 Y119.617 E10.94454
G1 X81.04 Y118.87 E10.95947
G1 X81.159 Y118.132 E10.97439
G1 X81.195 Y118.001 E10.9771
G1 X81.072 Y117.387 E10.9896
G1 X81 Y116.383 E11.00968
G1 X81 Y111.617 E11.10479
G1 X81.04 Y110.87 E11.11972
G1 X81.159 Y110.132 E11.13464
G1 X81.195 Y110.001 E11.13735
G1 X81.072 Y109.387 E11.14985
G1 X81 Y108.383 E11.16993
G1 X81 Y103.617 E11.26505
G1 X81.04 Y102.87 E11.27997
G1 X81.159 Y102.132 E11.29489
G1 X81.195 Y102.001 E11.2976
G1 X81.072 Y101.387 E11.3101
G1 X81 Y100.383 E11.33019
G1 X81 Y95.617 E11.4253
G1 X81.04 Y94.87 E11.44023
G1 X81.159 Y94.132 E11.45514
G1 X81.357 Y93.41 E11.47008
G1 X81.63 Y92.714 E11.485
G1 X81.977 Y92.051 E11.49994
G1 X82.392 Y91.428 E11.51488
G1 X83.05 Y90.667 E11.53495
G1 X83.167 Y90.55 E11.53825
G0 F6000 X83.45 Y90.833
G1 F1200 X83.991 Y90.349 E11.55274
G1 X84.582 Y89.926 E11.56724
G1 X85.216 Y89.572 E11.58173
G1 X85.885 Y89.289 E11.59623
G1 X86.581 Y89.081 E11.61073
G1 X87.296 Y88.951 E11.62523
G1 X88.117 Y88.9 E11.64165
G1 X95.883 Y88.9 E11.79662
G1 X96.608 Y88.94 E11.81111
G1 X97.325 Y89.059 E11.82562
G1 X98.008 Y89.252 E11.83978
G1 X98.581 Y89.081 E11.85172
G1 X99.296 Y88.951 E11.86622
G1 X100.117 Y88.9 E11.88263
G1 X107.883 Y88.9 E12.03761
G1 X108.608 Y88.94 E12.0521
G1 X109.325 Y89.059 E12.06661
G1 X110.008 Y89.252 E12.08077
G1 X110.581 Y89.081 E12.0927
G1 X111.296 Y88.951 E12.10721
G1 X112.117 Y88.9 E12.12362
G1 X119.883 Y88.9 E12.2786
G1 X120.608 Y88.94 E12.29309
G1 X121.325 Y89.059 E12.30759
G1 X122.008 Y89.252 E12.32176
G1 X122.581 Y89.081 E12.33369
G1 X123.296 Y88.951 E12.34819
G1 X124.117 Y88.9 E12.36461
G1 X131.883 Y88.9 E12.51959
G1 X132.608 Y88.94 E12.53408
G1 X133.325 Y89.059 E12.54858
G1 X134.024 Y89.257 E12.56308
G1 X134.697 Y89.53 E12.57757
G1 X135.336 Y89.875 E12.59207
G1 X135.933 Y90.289 E12.60656
G1 X136.55 Y90.833 E12.62298
G1 X136.667 Y90.95 E12.62628
G1 X137.151 Y91.491 E12.64077
G1 X137.574 Y92.082 E12.65527
G1 X137.928 Y92.716 E12.66976
G1 X138.211 Y93.385 E12.68426
G1 X138.419 Y94.081 E12.69876
G1 X138.549 Y94.796 E12.71326
G1 X138.6 Y95.617 E12.72967
G1 X138.6 Y100.383 E12.82478
G1 X138.56 Y101.108 E12.83927
G1 X138.441 Y101.825 E12.85378
G1 X138.393 Y101.994 E12.85728
G1 X138.419 Y102.081 E12.8591
G1 X138.549 Y102.796 E12.8736
G1 X138.6 Y103.617 E12.89001
G1 X138.6 Y108.383 E12.98512
G1 X138.56 Y109.108 E12.99962
G1 X138.441 Y109.825 E13.01412
G1 X138.393 Y109.994 E13.01763
G1 X138.419 Y110.081 E13.01944
G1 X138.549 Y110.796 E13.03394
G1 X138.6 Y111.617 E13.05036
G1 X138.6 Y116.383 E13.14547
G1 X138.56 Y117.108 E13.15996
G1 X138.441 Y117.825 E13.17446
G1 X138.393 Y117.994 E13.17797
G1 X138.419 Y118.081 E13.17978
G1 X138.549 Y118.796 E13.19428
G1 X138.6 Y119.617 E13.2107
G1 X138.6 Y124.383 E13.30581
G1 X138.56 Y125.108 E13.3203
G1 X138.441 Y125.825 E13.3348
G1 X138.243 Y126.524 E13.3493
G1 X137.97 Y127.197 E13.36379
G1 X137.625 Y127.836 E13.37829
