;FLAVOR:Marlin
;TIME:15846
;Filament used: 6.53449m
;Layer height: 0.12
;MINX:56.546
;MINY:107.606
;MINZ:0.12
;MAXX:156.186
;MAXY:162.106
;MAXZ:9
;Generated with Cura_SteamEngine 4.9.1
M140 S63
M105
M190 S63
M104 S210
M105
M109 S210
M82 ;absolute extrusion mode
; Ender 3 Custom Start G-code
G92 E0 ; Reset Extruder
G28 ; Home all axes
G1 Z2.0 F3000 ; Move Z Axis up little to prevent scratching of Heat Bed
G1 X0.1 Y20 Z0.3 F5000.0 ; Move to start position
G1 X0.1 Y200.0 Z0.3 F1500.0 E15 ; Draw the first line
G1 X0.4 Y200.0 Z0.3 F5000.0 ; Move to side a little
G1 X0.4 Y20 Z0.3 F1500.0 E30 ; Draw the second line
G92 E0 ; Reset Extruder
G1 Z2.0 F3000 ; Move Z Axis up little to prevent scratching of Heat Bed
G1 X5 Y20 Z0.3 F5000.0 ; Move over to prevent blob squish
G92 E0
G92 E0
G1 F1500 E-6.5
;LAYER_COUNT:75
;LAYER:0
M107
G0 F6000 X60.99 Y108.493 Z0.12
;TYPE:SKIRT
G1 F1500 E0
G1 F1200 X61.708 Y108.163 E0.01577
G1 X62.455 Y107.908 E0.03152
G1 X63.224 Y107.729 E0.04728
G1 X64.008 Y107.629 E0.06305
G1 X64.603 Y107.606 E0.07493
G1 X142.258 Y107.606 E1.62462
G1 X142.745 Y107.615 E1.63434
G1 X143.198 Y107.638 E1.64339
G1 X143.483 Y107.661 E1.6491
G1 X143.79 Y107.692 E1.65526
G1 X144.105 Y107.73 E1.66159
G1 X144.517 Y107.791 E1.6699
G1 X144.808 Y107.842 E1.6758
G1 X145.191 Y107.919 E1.68359
G1 X145.477 Y107.984 E1.68945
G1 X145.828 Y108.072 E1.69667
G1 X146.128 Y108.155 E1.70288
G1 X146.482 Y108.263 E1.71027
G1 X146.756 Y108.353 E1.71602
G1 X147.141 Y108.49 E1.72418
G1 X147.43 Y108.602 E1.73036
G1 X147.779 Y108.747 E1.7379
G1 X148.04 Y108.863 E1.7436
G1 X148.37 Y109.019 E1.75089
G1 X148.653 Y109.161 E1.75721
G1 X149.002 Y109.348 E1.76511
G1 X149.263 Y109.496 E1.77109
G1 X149.619 Y109.71 E1.77938
G1 X149.866 Y109.868 E1.78523
G1 X150.151 Y110.06 E1.79209
G1 X150.404 Y110.238 E1.79827
G1 X150.71 Y110.464 E1.80586
G1 X150.95 Y110.651 E1.81193
G1 X151.261 Y110.907 E1.81997
G1 X151.477 Y111.094 E1.82567
G1 X151.742 Y111.334 E1.8328
G1 X151.959 Y111.54 E1.83877
G1 X152.24 Y111.821 E1.84671
G1 X152.455 Y112.047 E1.85293
G1 X152.719 Y112.338 E1.86077
G1 X152.909 Y112.559 E1.86659
G1 X153.147 Y112.85 E1.87409
G1 X153.334 Y113.09 E1.88016
G1 X153.559 Y113.394 E1.88771
G1 X153.735 Y113.644 E1.89381
G1 X153.952 Y113.97 E1.90163
G1 X154.113 Y114.225 E1.90764
G1 X154.3 Y114.536 E1.91489
G1 X154.446 Y114.793 E1.92078
G1 X154.641 Y115.158 E1.92904
G1 X154.779 Y115.434 E1.9352
G1 X154.936 Y115.769 E1.94258
G1 X155.054 Y116.036 E1.94841
G1 X155.187 Y116.356 E1.95532
G1 X155.295 Y116.633 E1.96126
G1 X155.433 Y117.016 E1.96938
G1 X155.524 Y117.291 E1.97516
G1 X155.633 Y117.65 E1.98265
G1 X155.719 Y117.959 E1.98905
G1 X155.812 Y118.326 E1.99661
G1 X155.875 Y118.604 E2.00229
G1 X155.959 Y119.026 E2.01088
G1 X156.012 Y119.339 E2.01722
G1 X156.062 Y119.68 E2.02409
G1 X156.098 Y119.97 E2.02993
G1 X156.136 Y120.359 E2.03772
G1 X156.158 Y120.658 E2.04371
G1 X156.177 Y121.047 E2.05148
G1 X156.184 Y121.345 E2.05743
G1 X156.186 Y121.528 E2.06108
G1 X156.186 Y154.189 E2.71287
G1 X156.146 Y154.978 E2.72863
G1 X156.027 Y155.758 E2.74438
G1 X155.829 Y156.523 E2.76015
G1 X155.555 Y157.263 E2.77589
G1 X155.207 Y157.972 E2.79166
G1 X154.789 Y158.643 E2.80743
G1 X154.306 Y159.267 E2.82318
G1 X153.901 Y159.704 E2.83507
G1 X153.784 Y159.821 E2.83837
G1 X153.198 Y160.351 E2.85414
G1 X152.562 Y160.818 E2.86989
G1 X151.882 Y161.219 E2.88564
G1 X151.164 Y161.549 E2.90141
G1 X150.417 Y161.804 E2.91716
G1 X149.648 Y161.983 E2.93292
G1 X148.864 Y162.083 E2.94869
G1 X148.269 Y162.106 E2.96057
G1 X136.462 Y162.106 E3.19619
G1 X136.052 Y162.085 E3.20439
G1 X135.947 Y162.096 E3.20649
G1 X135.545 Y162.106 E3.21452
G1 X130.634 Y162.106 E3.31252
G1 X129.845 Y162.066 E3.32829
G1 X129.065 Y161.947 E3.34403
G1 X128.499 Y161.8 E3.3557
G1 X127.719 Y161.983 E3.37169
G1 X126.935 Y162.083 E3.38746
G1 X126.34 Y162.106 E3.39935
G1 X110.145 Y162.106 E3.72254
G1 X109.748 Y162.086 E3.73047
G1 X109.228 Y162.106 E3.74085
G1 X95.462 Y162.106 E4.01557
G1 X95.052 Y162.085 E4.02376
G1 X94.947 Y162.096 E4.02587
G1 X94.545 Y162.106 E4.03389
G1 X87.684 Y162.106 E4.17081
G1 X86.895 Y162.066 E4.18658
G1 X86.115 Y161.947 E4.20232
G1 X85.52 Y161.793 E4.21459
G1 X85.488 Y161.804 E4.21526
G1 X84.719 Y161.983 E4.23102
G1 X83.935 Y162.083 E4.24679
G1 X83.34 Y162.106 E4.25868
G1 X69.145 Y162.106 E4.54195
G1 X68.748 Y162.086 E4.54988
G1 X68.228 Y162.106 E4.56027
G1 X64.463 Y162.106 E4.6354
G1 X63.674 Y162.066 E4.65117
G1 X62.894 Y161.947 E4.66692
G1 X62.129 Y161.749 E4.68268
G1 X61.389 Y161.475 E4.69843
G1 X60.68 Y161.127 E4.71419
G1 X60.009 Y160.709 E4.72997
G1 X59.385 Y160.226 E4.74572
G1 X58.924 Y159.798 E4.75827
G1 X58.807 Y159.68 E4.76159
G1 X58.28 Y159.092 E4.77734
G1 X57.815 Y158.453 E4.79311
G1 X57.418 Y157.771 E4.80886
G1 X57.091 Y157.052 E4.82463
G1 X56.838 Y156.304 E4.84038
G1 X56.663 Y155.534 E4.85614
G1 X56.566 Y154.75 E4.87191
G1 X56.546 Y154.16 E4.88369
G1 X56.686 Y115.495 E5.65529
G1 X56.729 Y114.706 E5.67106
G1 X56.851 Y113.926 E5.68682
G1 X57.052 Y113.162 E5.70258
G1 X57.329 Y112.423 E5.71833
G1 X57.679 Y111.715 E5.73409
G1 X58.099 Y111.046 E5.74986
G1 X58.584 Y110.423 E5.76561
G1 X58.971 Y110.008 E5.77694
G1 X59.088 Y109.891 E5.78024
G1 X59.674 Y109.361 E5.79601
G1 X60.31 Y108.894 E5.81175
G1 X60.99 Y108.493 E5.82751
G0 F6000 X61.229 Y108.82
G1 F1200 X61.931 Y108.505 E5.84286
G1 X62.662 Y108.265 E5.85822
G1 X63.413 Y108.102 E5.87355
G1 X64.178 Y108.018 E5.88891
G1 X64.603 Y108.006 E5.89739
G1 X142.258 Y108.006 E7.44708
G1 X142.736 Y108.015 E7.45662
G1 X143.166 Y108.037 E7.46522
G1 X143.451 Y108.06 E7.47092
G1 X143.742 Y108.089 E7.47676
G1 X144.057 Y108.127 E7.48309
G1 X144.448 Y108.185 E7.49098
G1 X144.739 Y108.236 E7.49687
G1 X145.102 Y108.309 E7.50426
G1 X145.388 Y108.374 E7.51012
G1 X145.721 Y108.458 E7.51697
G1 X146.021 Y108.541 E7.52318
G1 X146.357 Y108.643 E7.53019
G1 X146.631 Y108.733 E7.53594
G1 X146.996 Y108.863 E7.54368
G1 X147.285 Y108.975 E7.54986
G1 X147.616 Y109.113 E7.55702
G1 X147.877 Y109.229 E7.56272
G1 X148.191 Y109.377 E7.56965
G1 X148.474 Y109.519 E7.57596
G1 X148.805 Y109.696 E7.58345
G1 X149.066 Y109.844 E7.58944
G1 X149.404 Y110.047 E7.59731
G1 X149.651 Y110.205 E7.60316
G1 X149.921 Y110.387 E7.60966
G1 X150.174 Y110.565 E7.61583
G1 X150.464 Y110.78 E7.62304
G1 X150.704 Y110.967 E7.62911
G1 X151 Y111.209 E7.63674
G1 X151.216 Y111.396 E7.64244
G1 X151.467 Y111.624 E7.64921
G1 X151.684 Y111.83 E7.65518
G1 X151.95 Y112.097 E7.6627
G1 X152.165 Y112.323 E7.66892
G1 X152.415 Y112.599 E7.67636
G1 X152.605 Y112.82 E7.68217
G1 X152.831 Y113.096 E7.68929
G1 X153.018 Y113.336 E7.69536
G1 X153.232 Y113.624 E7.70252
G1 X153.408 Y113.874 E7.70862
G1 X153.614 Y114.183 E7.71604
G1 X153.775 Y114.438 E7.72205
G1 X153.952 Y114.734 E7.72894
G1 X154.098 Y114.991 E7.73483
G1 X154.283 Y115.337 E7.74266
G1 X154.421 Y115.613 E7.74882
G1 X154.57 Y115.931 E7.75583
G1 X154.688 Y116.198 E7.76166
G1 X154.814 Y116.501 E7.76821
G1 X154.922 Y116.778 E7.77414
G1 X155.053 Y117.141 E7.78184
G1 X155.144 Y117.416 E7.78762
G1 X155.248 Y117.757 E7.79473
G1 X155.334 Y118.066 E7.80114
G1 X155.422 Y118.414 E7.8083
G1 X155.485 Y118.692 E7.81399
G1 X155.564 Y119.093 E7.82214
G1 X155.617 Y119.406 E7.82848
G1 X155.665 Y119.729 E7.835
G1 X155.701 Y120.019 E7.84083
G1 X155.737 Y120.388 E7.84823
G1 X155.759 Y120.687 E7.85421
G1 X155.777 Y121.056 E7.86158
G1 X155.786 Y121.528 E7.871
G1 X155.786 Y154.189 E8.52279
G1 X155.746 Y154.957 E8.53813
G1 X155.627 Y155.717 E8.55349
G1 X155.429 Y156.46 E8.56883
G1 X155.155 Y157.179 E8.58419
G1 X154.808 Y157.865 E8.59953
G1 X154.392 Y158.512 E8.61488
G1 X153.911 Y159.112 E8.63022
G1 X153.619 Y159.422 E8.63872
G1 X153.502 Y159.539 E8.64202
G1 X152.93 Y160.053 E8.65737
G1 X152.308 Y160.506 E8.67273
G1 X151.643 Y160.892 E8.68807
G1 X150.941 Y161.207 E8.70343
G1 X150.21 Y161.447 E8.71878
G1 X149.459 Y161.61 E8.73412
G1 X148.694 Y161.694 E8.74947
G1 X148.269 Y161.706 E8.75796
G1 X136.462 Y161.706 E8.99358
G1 X135.98 Y161.681 E9.00321
G1 X135.545 Y161.706 E9.01191
G1 X130.634 Y161.706 E9.10991
G1 X129.866 Y161.666 E9.12526
G1 X129.106 Y161.547 E9.14061
G1 X128.482 Y161.381 E9.1535
G1 X128.281 Y161.447 E9.15772
G1 X127.53 Y161.61 E9.17305
G1 X126.765 Y161.694 E9.18841
G1 X126.34 Y161.706 E9.1969
G1 X110.145 Y161.706 E9.52009
G1 X109.737 Y161.685 E9.52824
G1 X109.653 Y161.694 E9.52992
G1 X109.228 Y161.706 E9.53841
G1 X95.462 Y161.706 E9.81312
G1 X94.98 Y161.681 E9.82276
G1 X94.545 Y161.706 E9.83145
G1 X87.684 Y161.706 E9.96837
G1 X86.916 Y161.666 E9.98372
G1 X86.156 Y161.547 E9.99907
G1 X85.505 Y161.373 E10.01252
G1 X85.281 Y161.447 E10.01722
G1 X84.53 Y161.61 E10.03256
G1 X83.765 Y161.694 E10.04792
G1 X83.34 Y161.706 E10.0564
G1 X69.145 Y161.706 E10.33968
G1 X68.737 Y161.685 E10.34783
G1 X68.653 Y161.694 E10.34952
G1 X68.228 Y161.706 E10.358
G1 X64.463 Y161.706 E10.43314
G1 X63.695 Y161.666 E10.44848
G1 X62.935 Y161.547 E10.46384
G1 X62.192 Y161.349 E10.47918
G1 X61.473 Y161.075 E10.49454
G1 X60.787 Y160.728 E10.50988
G1 X60.14 Y160.312 E10.52523
G1 X59.54 Y159.831 E10.54057
G1 X59.208 Y159.516 E10.54971
G1 X59.091 Y159.398 E10.55302
G1 X58.579 Y158.825 E10.56836
G1 X58.129 Y158.201 E10.58371
G1 X57.746 Y157.534 E10.59906
G1 X57.434 Y156.831 E10.61441
G1 X57.197 Y156.099 E10.62976
G1 X57.037 Y155.347 E10.64511
G1 X56.956 Y154.582 E10.66046
G1 X56.946 Y154.161 E10.66886
G1 X57.086 Y115.496 E11.44047
G1 X57.129 Y114.728 E11.45582
G1 X57.251 Y113.969 E11.47116
G1 X57.451 Y113.226 E11.48651
G1 X57.728 Y112.508 E11.50187
G1 X58.077 Y111.823 E11.51721
G1 X58.496 Y111.178 E11.53256
G1 X58.979 Y110.58 E11.5479
G1 X59.253 Y110.29 E11.55587
G1 X59.37 Y110.173 E11.55917
G1 X59.942 Y109.659 E11.57451
G1 X60.564 Y109.206 E11.58987
G1 X61.229 Y108.82 E11.60521
G0 F6000 X61.466 Y109.148
G1 F1200 X62.152 Y108.849 E11.62015
G1 X62.866 Y108.625 E11.63508
G1 X63.599 Y108.478 E11.65
G1 X64.603 Y108.406 E11.67009
G1 X142.258 Y108.406 E13.21978
G1 X142.728 Y108.415 E13.22916
G1 X143.134 Y108.436 E13.23727
G1 X143.419 Y108.459 E13.24298
G1 X143.694 Y108.486 E13.24849
G1 X144.009 Y108.524 E13.25482
G1 X144.379 Y108.579 E13.26229
G1 X144.67 Y108.63 E13.26818
G1 X145.013 Y108.699 E13.27517
G1 X145.299 Y108.764 E13.28102
G1 X145.615 Y108.843 E13.28752
G1 X145.915 Y108.926 E13.29373
G1 X146.232 Y109.023 E13.30035
G1 X146.506 Y109.113 E13.3061
G1 X146.851 Y109.236 E13.31341
G1 X147.14 Y109.348 E13.3196
G1 X147.454 Y109.478 E13.32638
G1 X147.715 Y109.594 E13.33208
G1 X148.011 Y109.734 E13.33861
G1 X148.294 Y109.876 E13.34493
G1 X148.608 Y110.044 E13.35204
G1 X148.869 Y110.192 E13.35803
G1 X149.188 Y110.384 E13.36546
G1 X149.435 Y110.542 E13.37131
G1 X149.691 Y110.714 E13.37746
G1 X149.944 Y110.892 E13.38363
G1 X150.218 Y111.095 E13.39044
G1 X150.458 Y111.282 E13.39651
G1 X150.738 Y111.512 E13.40374
G1 X150.954 Y111.699 E13.40944
G1 X151.191 Y111.914 E13.41583
G1 X151.408 Y112.12 E13.4218
G1 X151.661 Y112.372 E13.42893
G1 X151.876 Y112.598 E13.43515
G1 X152.112 Y112.86 E13.44219
G1 X152.302 Y113.081 E13.448
G1 X152.516 Y113.342 E13.45474
G1 X152.703 Y113.582 E13.46081
G1 X152.905 Y113.854 E13.46757
G1 X153.081 Y114.104 E13.47367
G1 X153.276 Y114.397 E13.4807
G1 X153.437 Y114.652 E13.48672
G1 X153.604 Y114.931 E13.49321
G1 X153.75 Y115.188 E13.4991
G1 X153.925 Y115.516 E13.50652
G1 X154.063 Y115.792 E13.51268
G1 X154.205 Y116.092 E13.5193
G1 X154.323 Y116.359 E13.52513
G1 X154.442 Y116.646 E13.53133
G1 X154.55 Y116.923 E13.53726
G1 X154.674 Y117.267 E13.54456
G1 X154.765 Y117.542 E13.55034
G1 X154.863 Y117.864 E13.55706
G1 X154.949 Y118.173 E13.56346
G1 X155.032 Y118.503 E13.57025
G1 X155.095 Y118.781 E13.57594
G1 X155.17 Y119.159 E13.58363
G1 X155.223 Y119.472 E13.58996
G1 X155.268 Y119.779 E13.59616
G1 X155.304 Y120.069 E13.60199
G1 X155.338 Y120.417 E13.60896
G1 X155.36 Y120.716 E13.61495
G1 X155.377 Y121.066 E13.62194
G1 X155.386 Y121.528 E13.63116
G1 X155.386 Y154.189 E14.28295
G1 X155.346 Y154.936 E14.29788
G1 X155.227 Y155.674 E14.31279
G1 X155.029 Y156.396 E14.32773
G1 X154.756 Y157.092 E14.34265
G1 X154.409 Y157.755 E14.35759
G1 X153.994 Y158.378 E14.37253
G1 X153.336 Y159.139 E14.3926
G1 X153.219 Y159.256 E14.3959
G1 X152.662 Y159.756 E14.41084
G1 X152.056 Y160.193 E14.42575
G1 X151.406 Y160.564 E14.44069
G1 X150.72 Y160.863 E14.45562
G1 X150.006 Y161.087 E14.47055
G1 X149.273 Y161.234 E14.48547
G1 X148.269 Y161.306 E14.50556
G1 X136.462 Y161.306 E14.74118
G1 X136.075 Y161.285 E14.74892
G1 X136.062 Y161.287 E14.74918
G1 X135.545 Y161.306 E14.7595
G1 X130.634 Y161.306 E14.85751
G1 X129.887 Y161.266 E14.87244
G1 X129.149 Y161.147 E14.88735
G1 X128.475 Y160.962 E14.9013
G1 X128.077 Y161.087 E14.90963
G1 X127.344 Y161.234 E14.92455
G1 X126.34 Y161.306 E14.94463
G1 X110.145 Y161.306 E15.26782
G1 X109.62 Y161.278 E15.27831
G1 X109.228 Y161.306 E15.28616
G1 X95.462 Y161.306 E15.56087
G1 X95.075 Y161.285 E15.56861
G1 X95.062 Y161.287 E15.56887
G1 X94.545 Y161.306 E15.57919
G1 X87.684 Y161.306 E15.71611
G1 X86.937 Y161.266 E15.73104
G1 X86.199 Y161.147 E15.74596
G1 X85.498 Y160.955 E15.76046
G1 X85.077 Y161.087 E15.76927
G1 X84.344 Y161.234 E15.78419
G1 X83.34 Y161.306 E15.80427
G1 X69.145 Y161.306 E16.08755
G1 X68.62 Y161.278 E16.09804
G1 X68.228 Y161.306 E16.10588
G1 X64.463 Y161.306 E16.18102
G1 X63.716 Y161.266 E16.19595
G1 X62.978 Y161.147 E16.21087
G1 X62.256 Y160.949 E16.22581
G1 X61.56 Y160.676 E16.24073
G1 X60.897 Y160.329 E16.25566
G1 X60.274 Y159.914 E16.2706
G1 X59.492 Y159.235 E16.29127
G1 X59.375 Y159.117 E16.29458
G1 X58.878 Y158.558 E16.30951
G1 X58.443 Y157.95 E16.32443
G1 X58.075 Y157.298 E16.33937
G1 X57.779 Y156.611 E16.3543
G1 X57.558 Y155.896 E16.36923
G1 X57.414 Y155.162 E16.38416
G1 X57.346 Y154.163 E16.40414
G1 X57.486 Y115.498 E17.17575
G1 X57.529 Y114.751 E17.19068
G1 X57.651 Y114.013 E17.20561
G1 X57.851 Y113.292 E17.22054
G1 X58.127 Y112.597 E17.23546
G1 X58.476 Y111.935 E17.2504
G1 X58.893 Y111.314 E17.26532
G1 X59.536 Y110.573 E17.2849
G1 X59.653 Y110.456 E17.2882
G1 X60.21 Y109.956 E17.30314
G1 X60.816 Y109.519 E17.31805
G1 X61.466 Y109.148 E17.33299
G0 F6000 X61.702 Y109.478
G1 F1200 X62.371 Y109.195 E17.34748
G1 X63.067 Y108.987 E17.36198
G1 X63.782 Y108.857 E17.37648
G1 X64.603 Y108.806 E17.3929
G1 X142.258 Y108.806 E18.94259
G1 X142.719 Y108.815 E18.95179
G1 X143.102 Y108.834 E18.95944
G1 X143.387 Y108.857 E18.96515
G1 X143.646 Y108.884 E18.97034
G1 X143.961 Y108.922 E18.97667
G1 X144.31 Y108.973 E18.98371
G1 X144.601 Y109.024 E18.98961
G1 X144.925 Y109.089 E18.9962
G1 X145.211 Y109.154 E19.00206
G1 X145.508 Y109.229 E19.00817
G1 X145.808 Y109.312 E19.01438
G1 X146.108 Y109.403 E19.02064
G1 X146.382 Y109.493 E19.02639
G1 X146.707 Y109.609 E19.03328
G1 X146.996 Y109.721 E19.03946
G1 X147.292 Y109.844 E19.04586
G1 X147.553 Y109.96 E19.05156
G1 X147.832 Y110.092 E19.05772
G1 X148.115 Y110.234 E19.06404
G1 X148.411 Y110.392 E19.07073
G1 X148.672 Y110.54 E19.07672
G1 X148.972 Y110.721 E19.08371
G1 X149.219 Y110.879 E19.08957
G1 X149.461 Y111.041 E19.09538
G1 X149.714 Y111.219 E19.10155
G1 X149.973 Y111.411 E19.10798
G1 X150.213 Y111.598 E19.11406
G1 X150.476 Y111.814 E19.12085
G1 X150.692 Y112.001 E19.12655
G1 X150.916 Y112.204 E19.13258
G1 X151.133 Y112.41 E19.13855
G1 X151.371 Y112.648 E19.14527
G1 X151.586 Y112.874 E19.1515
G1 X151.809 Y113.12 E19.15812
G1 X151.999 Y113.341 E19.16394
G1 X152.2 Y113.587 E19.17028
G1 X152.387 Y113.827 E19.17635
G1 X152.578 Y114.085 E19.18275
G1 X152.754 Y114.335 E19.18886
G1 X152.938 Y114.61 E19.19546
G1 X153.099 Y114.865 E19.20148
G1 X153.257 Y115.129 E19.20762
G1 X153.403 Y115.386 E19.21352
G1 X153.567 Y115.694 E19.22048
G1 X153.705 Y115.97 E19.22664
G1 X153.839 Y116.254 E19.2329
G1 X153.957 Y116.521 E19.23873
G1 X154.069 Y116.791 E19.24456
G1 X154.177 Y117.068 E19.2505
G1 X154.294 Y117.393 E19.25739
G1 X154.385 Y117.668 E19.26317
G1 X154.477 Y117.971 E19.26949
G1 X154.563 Y118.28 E19.27589
G1 X154.642 Y118.591 E19.28229
G1 X154.705 Y118.869 E19.28798
G1 X154.775 Y119.226 E19.29524
G1 X154.828 Y119.539 E19.30158
G1 X154.871 Y119.828 E19.30741
G1 X154.907 Y120.118 E19.31324
G1 X154.939 Y120.447 E19.31984
