;FLAVOR:Marlin
;TIME:28670
;Filament used: 28.5603m
;Layer height: 0.28
;MINX:62.2
;MINY:62.2
;MINZ:0.28
;MAXX:157.8
;MAXY:157.8
;MAXZ:54.88
;Generated with Cura_SteamEngine 4.8.0
M140 S60
M105
M190 S60
M104 S200
M105
M109 S200
M82 ;absolute extrusion mode
; Ender 3 Custom Start G-code
G92 E0 ; Reset Extruder
G28 ; Home all axes
G1 Z2.0 F3000 ; Move Z Axis up little to prevent scratching of Heat Bed
G1 X0.1 Y20 Z0.3 F5000.0 ; Move to start position
G1 X0.1 Y200.0 Z0.3 F1500.0 E15 ; Draw the first line
G1 X0.4 Y200.0 Z0.3 F5000.0 ; Move to side a little
G1 X0.4 Y20 Z0.3 F1500.0 E30 ; Draw the second line
G92 E0 ; Reset Extruder
G1 Z2.0 F3000 ; Move Z Axis up little to prevent scratching of Heat Bed
G1 X5 Y20 Z0.3 F5000.0 ; Move over to prevent blob squish
G92 E0
G92 E0
G1 F1500 E-6.5
;LAYER_COUNT:196
;LAYER:0
M107
G0 F6000 X103.827 Y66.03 Z0.28
;TYPE:SKIRT
G1 F1500 E0
G1 F1200 X104.273 Y65.379 E0.03674
G1 X104.784 Y64.776 E0.07355
G1 X105.081 Y64.475 E0.09324
G1 X105.197 Y64.364 E0.10072
G1 X105.795 Y63.848 E0.13749
G1 X106.441 Y63.395 E0.17423
G1 X107.131 Y63.009 E0.21105
G1 X107.855 Y62.695 E0.24779
G1 X108.608 Y62.456 E0.28458
G1 X109.381 Y62.294 E0.32136
G1 X110.166 Y62.212 E0.35811
G1 X110.59 Y62.2 E0.37786
G1 X149.883 Y62.2 E2.20751
G1 X150.672 Y62.24 E2.24429
G1 X151.452 Y62.359 E2.28103
G1 X152.217 Y62.557 E2.31783
G1 X152.957 Y62.831 E2.35457
G1 X153.666 Y63.179 E2.39135
G1 X154.337 Y63.597 E2.42816
G1 X154.961 Y64.08 E2.4649
G1 X155.398 Y64.485 E2.49265
G1 X155.515 Y64.602 E2.50035
G1 X156.045 Y65.188 E2.53714
G1 X156.512 Y65.824 E2.57388
G1 X156.913 Y66.504 E2.61064
G1 X157.243 Y67.222 E2.64744
G1 X157.498 Y67.969 E2.68419
G1 X157.677 Y68.738 E2.72096
G1 X157.777 Y69.522 E2.75776
G1 X157.8 Y70.117 E2.78549
G1 X157.8 Y149.883 E6.49973
G1 X157.76 Y150.672 E6.53651
G1 X157.641 Y151.452 E6.57325
G1 X157.443 Y152.217 E6.61005
G1 X157.169 Y152.957 E6.64679
G1 X156.821 Y153.666 E6.68357
G1 X156.403 Y154.337 E6.72038
G1 X155.92 Y154.961 E6.75712
G1 X155.515 Y155.398 E6.78487
G1 X155.398 Y155.515 E6.79257
G1 X154.812 Y156.045 E6.82936
G1 X154.176 Y156.512 E6.8661
G1 X153.496 Y156.913 E6.90286
G1 X152.778 Y157.243 E6.93966
G1 X152.031 Y157.498 E6.97641
G1 X151.262 Y157.677 E7.01318
G1 X150.478 Y157.777 E7.04998
G1 X149.883 Y157.8 E7.07771
G1 X70.117 Y157.8 E10.79195
G1 X69.328 Y157.76 E10.82873
G1 X68.548 Y157.641 E10.86547
G1 X67.783 Y157.443 E10.90227
G1 X67.043 Y157.169 E10.93901
G1 X66.334 Y156.821 E10.97579
G1 X65.663 Y156.403 E11.0126
G1 X65.039 Y155.92 E11.04934
G1 X64.602 Y155.515 E11.07709
G1 X64.485 Y155.398 E11.08479
G1 X63.955 Y154.812 E11.12158
G1 X63.488 Y154.176 E11.15832
G1 X63.087 Y153.496 E11.19508
G1 X62.757 Y152.778 E11.23188
G1 X62.502 Y152.031 E11.26863
G1 X62.323 Y151.262 E11.3054
G1 X62.223 Y150.478 E11.3422
G1 X62.2 Y149.883 E11.36992
G1 X62.2 Y110.591 E13.19953
G1 X62.24 Y109.802 E13.23631
G1 X62.359 Y109.022 E13.27305
G1 X62.557 Y108.257 E13.30985
G1 X62.831 Y107.517 E13.34659
G1 X63.179 Y106.808 E13.38337
G1 X63.597 Y106.137 E13.42018
G1 X64.08 Y105.513 E13.45692
G1 X64.364 Y105.198 E13.47667
G1 X64.475 Y105.082 E13.48415
G1 X65.05 Y104.54 E13.52094
G1 X65.676 Y104.059 E13.5577
G1 X66.347 Y103.643 E13.59446
G1 X67.057 Y103.298 E13.63122
G1 X67.799 Y103.026 E13.66802
G1 X68.564 Y102.83 E13.70479
G1 X69.345 Y102.713 E13.74156
G1 X69.764 Y102.683 E13.76112
G1 X72.882 Y102.544 E13.90646
G1 X75.674 Y102.178 E14.03757
G1 X78.46 Y101.558 E14.17048
G1 X81.185 Y100.698 E14.30353
G1 X83.823 Y99.606 E14.43648
G1 X86.331 Y98.299 E14.56817
G1 X88.732 Y96.769 E14.70074
G1 X91.026 Y95.009 E14.83537
G1 X93.109 Y93.098 E14.967
G1 X95.035 Y90.995 E15.09979
G1 X96.772 Y88.729 E15.23273
G1 X98.302 Y86.327 E15.36534
G1 X99.615 Y83.806 E15.4977
G1 X100.696 Y81.191 E15.62946
G1 X101.565 Y78.435 E15.76402
G1 X102.183 Y75.649 E15.8969
G1 X102.544 Y72.89 E16.02646
G1 X102.682 Y69.767 E16.17203
G1 X102.756 Y68.98 E16.20883
G1 X102.91 Y68.206 E16.24558
G1 X103.142 Y67.451 E16.28236
G1 X103.448 Y66.723 E16.31913
G1 X103.827 Y66.03 E16.35591
G0 F6000 X104.22 Y66.155
G1 F1200 X104.665 Y65.527 E16.39175
G1 X105.358 Y64.764 E16.43975
G1 X105.474 Y64.653 E16.44722
G1 X106.057 Y64.151 E16.48305
G1 X106.688 Y63.712 E16.51884
G1 X107.362 Y63.341 E16.55466
G1 X108.07 Y63.042 E16.59045
G1 X108.806 Y62.818 E16.62627
G1 X109.561 Y62.672 E16.66208
G1 X110.59 Y62.6 E16.71011
G1 X149.883 Y62.6 E18.53976
G1 X150.651 Y62.64 E18.57557
G1 X151.411 Y62.759 E18.61139
G1 X152.154 Y62.957 E18.64719
G1 X152.873 Y63.231 E18.68302
G1 X153.559 Y63.578 E18.71882
G1 X154.206 Y63.994 E18.75464
G1 X154.806 Y64.475 E18.79044
G1 X155.116 Y64.767 E18.81027
G1 X155.233 Y64.884 E18.81798
G1 X155.747 Y65.456 E18.85379
G1 X156.2 Y66.078 E18.88962
G1 X156.586 Y66.743 E18.92542
G1 X156.901 Y67.445 E18.96125
G1 X157.141 Y68.176 E18.99708
G1 X157.304 Y68.927 E19.03286
G1 X157.388 Y69.692 E19.06869
G1 X157.4 Y70.117 E19.08849
G1 X157.4 Y149.883 E22.80273
G1 X157.36 Y150.651 E22.83854
G1 X157.241 Y151.411 E22.87436
G1 X157.043 Y152.154 E22.91017
G1 X156.769 Y152.873 E22.94599
G1 X156.422 Y153.559 E22.98179
G1 X156.006 Y154.206 E23.01761
G1 X155.525 Y154.806 E23.05342
G1 X155.233 Y155.116 E23.07325
G1 X155.116 Y155.233 E23.08095
G1 X154.544 Y155.747 E23.11676
G1 X153.922 Y156.2 E23.15259
G1 X153.257 Y156.586 E23.18839
G1 X152.555 Y156.901 E23.22422
G1 X151.824 Y157.141 E23.26005
G1 X151.073 Y157.304 E23.29583
G1 X150.308 Y157.388 E23.33167
G1 X149.883 Y157.4 E23.35146
G1 X70.117 Y157.4 E27.0657
G1 X69.349 Y157.36 E27.10151
G1 X68.589 Y157.241 E27.13733
G1 X67.846 Y157.043 E27.17314
G1 X67.127 Y156.769 E27.20897
G1 X66.441 Y156.422 E27.24476
G1 X65.794 Y156.006 E27.28058
G1 X65.194 Y155.525 E27.31639
G1 X64.884 Y155.233 E27.33622
G1 X64.767 Y155.116 E27.34392
G1 X64.253 Y154.544 E27.37973
G1 X63.8 Y153.922 E27.41556
G1 X63.414 Y153.257 E27.45137
G1 X63.099 Y152.555 E27.48719
G1 X62.859 Y151.824 E27.52302
G1 X62.696 Y151.073 E27.5588
G1 X62.612 Y150.308 E27.59464
G1 X62.6 Y149.883 E27.61444
G1 X62.6 Y110.591 E29.44404
G1 X62.64 Y109.823 E29.47985
G1 X62.759 Y109.063 E29.51567
G1 X62.957 Y108.32 E29.55147
G1 X63.231 Y107.601 E29.5873
G1 X63.578 Y106.915 E29.6231
G1 X63.994 Y106.268 E29.65891
G1 X64.653 Y105.475 E29.70693
G1 X64.764 Y105.359 E29.7144
G1 X65.324 Y104.832 E29.75021
G1 X65.936 Y104.365 E29.78605
G1 X66.593 Y103.965 E29.82187
G1 X67.288 Y103.635 E29.8577
G1 X68.013 Y103.379 E29.8935
G1 X68.761 Y103.199 E29.92932
G1 X69.782 Y103.082 E29.97718
G1 X72.929 Y102.942 E30.12386
G1 X75.735 Y102.573 E30.25564
G1 X78.562 Y101.945 E30.39049
G1 X81.332 Y101.07 E30.52575
G1 X83.991 Y99.969 E30.65976
G1 X86.534 Y98.644 E30.79328
G1 X88.951 Y97.104 E30.92673
G1 X91.293 Y95.307 E31.06419
G1 X93.387 Y93.387 E31.19648
G1 X95.338 Y91.256 E31.33101
G1 X97.098 Y88.961 E31.46568
G1 X98.655 Y86.516 E31.60066
G1 X99.974 Y83.984 E31.7336
G1 X101.072 Y81.328 E31.86742
G1 X101.955 Y78.526 E32.00422
G1 X102.575 Y75.731 E32.13753
G1 X102.942 Y72.925 E32.2693
G1 X103.081 Y69.784 E32.4157
G1 X103.155 Y69.019 E32.45149
G1 X103.308 Y68.265 E32.48732
G1 X103.538 Y67.531 E32.52313
G1 X103.844 Y66.825 E32.55896
G1 X104.22 Y66.155 E32.59474
G0 F6000 X104.614 Y66.282
G1 F1200 X105.056 Y65.679 E32.62955
G1 X105.634 Y65.053 E32.66922
G1 X105.75 Y64.942 E32.6767
G1 X106.318 Y64.455 E32.71154
G1 X106.934 Y64.031 E32.74636
G1 X107.592 Y63.675 E32.7812
G1 X108.284 Y63.391 E32.81603
G1 X109.002 Y63.182 E32.85085
G1 X109.739 Y63.052 E32.8857
G1 X110.59 Y63 E32.9254
G1 X149.883 Y63 E34.75504
G1 X150.63 Y63.04 E34.78988
G1 X151.368 Y63.159 E34.82468
G1 X152.09 Y63.357 E34.85955
G1 X152.786 Y63.63 E34.89436
G1 X153.449 Y63.977 E34.9292
G1 X154.072 Y64.392 E34.96406
G1 X154.833 Y65.05 E35.0109
G1 X154.95 Y65.167 E35.01861
G1 X155.45 Y65.724 E35.05346
G1 X155.887 Y66.33 E35.08825
G1 X156.258 Y66.98 E35.1231
G1 X156.557 Y67.666 E35.15795
G1 X156.781 Y68.38 E35.19279
G1 X156.928 Y69.113 E35.2276
G1 X157 Y70.117 E35.27447
G1 X157 Y149.883 E38.98871
G1 X156.96 Y150.63 E39.02354
G1 X156.841 Y151.368 E39.05835
G1 X156.643 Y152.09 E39.09321
G1 X156.37 Y152.786 E39.12803
G1 X156.023 Y153.449 E39.16287
G1 X155.608 Y154.072 E39.19773
G1 X154.95 Y154.833 E39.24457
G1 X154.833 Y154.95 E39.25228
G1 X154.276 Y155.45 E39.28713
G1 X153.67 Y155.887 E39.32192
G1 X153.02 Y156.258 E39.35677
G1 X152.334 Y156.557 E39.39161
G1 X151.62 Y156.781 E39.42646
G1 X150.887 Y156.928 E39.46127
G1 X149.883 Y157 E39.50814
G1 X70.117 Y157 E43.22238
G1 X69.37 Y156.96 E43.25721
G1 X68.632 Y156.841 E43.29202
G1 X67.91 Y156.643 E43.32688
G1 X67.214 Y156.37 E43.3617
G1 X66.551 Y156.023 E43.39654
G1 X65.928 Y155.608 E43.4314
G1 X65.167 Y154.95 E43.47824
G1 X65.05 Y154.833 E43.48595
G1 X64.55 Y154.276 E43.5208
G1 X64.113 Y153.67 E43.55559
G1 X63.742 Y153.02 E43.59044
G1 X63.443 Y152.334 E43.62528
G1 X63.219 Y151.62 E43.66013
G1 X63.072 Y150.887 E43.69494
G1 X63 Y149.883 E43.74181
G1 X63 Y110.591 E45.57141
G1 X63.04 Y109.844 E45.60624
G1 X63.159 Y109.106 E45.64105
G1 X63.357 Y108.384 E45.67591
G1 X63.63 Y107.688 E45.71072
G1 X63.977 Y107.025 E45.74557
G1 X64.392 Y106.402 E45.78043
G1 X64.942 Y105.751 E45.82011
G1 X65.053 Y105.635 E45.82759
G1 X65.599 Y105.123 E45.86244
G1 X66.196 Y104.672 E45.89728
G1 X66.837 Y104.288 E45.93207
G1 X67.516 Y103.974 E45.96691
G1 X68.225 Y103.734 E46.00176
G1 X68.955 Y103.571 E46.03659
G1 X69.8 Y103.482 E46.07615
G1 X72.963 Y103.341 E46.22358
G1 X75.807 Y102.968 E46.35715
G1 X78.668 Y102.332 E46.49362
G1 X81.466 Y101.448 E46.63025
G1 X84.16 Y100.333 E46.76602
G1 X86.729 Y98.994 E46.90091
G1 X89.183 Y97.43 E47.03642
G1 X91.55 Y95.614 E47.17533
G1 X93.67 Y93.67 E47.30927
G1 X95.647 Y91.51 E47.44562
G1 X97.428 Y89.187 E47.58192
G1 X99.001 Y86.719 E47.7182
G1 X100.338 Y84.152 E47.85297
G1 X101.449 Y81.465 E47.98836
G1 X102.338 Y78.642 E48.12617
G1 X102.971 Y75.789 E48.26225
G1 X103.341 Y72.96 E48.3951
G1 X103.481 Y69.802 E48.5423
G1 X103.554 Y69.057 E48.57715
G1 X103.706 Y68.325 E48.61197
G1 X103.935 Y67.613 E48.64679
G1 X104.239 Y66.929 E48.68165
G1 X104.614 Y66.282 E48.71647
G0 F6000 X105.007 Y66.413
G1 F1200 X105.447 Y65.835 E48.75029
G1 X105.911 Y65.342 E48.78182
G1 X106.027 Y65.231 E48.78929
G1 X106.579 Y64.759 E48.82311
G1 X107.179 Y64.35 E48.85692
G1 X107.82 Y64.009 E48.89073
G1 X108.495 Y63.741 E48.92455
G1 X109.196 Y63.549 E48.95839
G1 X109.913 Y63.435 E48.9922
G1 X110.59 Y63.4 E49.02377
G1 X149.883 Y63.4 E50.85341
G1 X150.608 Y63.44 E50.88722
G1 X151.325 Y63.559 E50.92107
G1 X152.024 Y63.757 E50.9549
G1 X152.697 Y64.03 E50.98871
G1 X153.336 Y64.375 E51.02253
G1 X153.933 Y64.789 E51.05636
G1 X154.55 Y65.333 E51.09466
G1 X154.667 Y65.45 E51.10236
G1 X155.151 Y65.991 E51.13616
G1 X155.574 Y66.582 E51.17001
G1 X155.928 Y67.216 E51.20382
G1 X156.211 Y67.885 E51.23764
G1 X156.419 Y68.581 E51.27147
G1 X156.549 Y69.296 E51.30531
G1 X156.6 Y70.117 E51.34361
G1 X156.6 Y149.883 E55.05785
G1 X156.56 Y150.608 E55.09166
G1 X156.441 Y151.325 E55.1255
G1 X156.243 Y152.024 E55.15933
G1 X155.97 Y152.697 E55.19315
G1 X155.625 Y153.336 E55.22696
G1 X155.211 Y153.933 E55.26079
G1 X154.667 Y154.55 E55.29909
G1 X154.55 Y154.667 E55.3068
G1 X154.009 Y155.151 E55.3406
G1 X153.418 Y155.574 E55.37444
G1 X152.784 Y155.928 E55.40825
G1 X152.115 Y156.211 E55.44208
G1 X151.419 Y156.419 E55.4759
G1 X150.704 Y156.549 E55.50974
G1 X149.883 Y156.6 E55.54805
G1 X70.117 Y156.6 E59.26228
G1 X69.392 Y156.56 E59.2961
G1 X68.675 Y156.441 E59.32994
G1 X67.976 Y156.243 E59.36377
G1 X67.303 Y155.97 E59.39759
G1 X66.664 Y155.625 E59.4314
G1 X66.067 Y155.211 E59.46523
G1 X65.45 Y154.667 E59.50353
G1 X65.333 Y154.55 E59.51124
G1 X64.849 Y154.009 E59.54504
G1 X64.426 Y153.418 E59.57888
G1 X64.072 Y152.784 E59.61269
G1 X63.789 Y152.115 E59.64651
G1 X63.581 Y151.419 E59.68034
G1 X63.451 Y150.704 E59.71418
G1 X63.4 Y149.883 E59.75248
G1 X63.4 Y110.591 E61.58208
G1 X63.44 Y109.866 E61.61589
G1 X63.559 Y109.149 E61.64974
G1 X63.757 Y108.45 E61.68356
G1 X64.03 Y107.777 E61.71738
G1 X64.375 Y107.138 E61.7512
G1 X64.789 Y106.541 E61.78503
G1 X65.231 Y106.028 E61.81656
G1 X65.342 Y105.912 E61.82403
G1 X65.873 Y105.416 E61.85787
G1 X66.454 Y104.981 E61.89166
G1 X67.08 Y104.612 E61.9255
G1 X67.743 Y104.314 E61.95935
G1 X68.434 Y104.092 E61.99314
G1 X69.146 Y103.946 E62.02699
G1 X69.818 Y103.882 E62.05842
G1 X72.987 Y103.741 E62.20613
G1 X75.876 Y103.362 E62.3418
G1 X78.773 Y102.717 E62.48
G1 X81.603 Y101.824 E62.61818
G1 X84.341 Y100.69 E62.75618
G1 X86.924 Y99.344 E62.8918
G1 X89.417 Y97.755 E63.02946
G1 X91.804 Y95.923 E63.16958
G1 X93.953 Y93.953 E63.30533
G1 X95.955 Y91.767 E63.44335
G1 X97.754 Y89.419 E63.58109
G1 X99.342 Y86.927 E63.71868
G1 X100.707 Y84.307 E63.85624
G1 X101.823 Y81.608 E63.99224
G1 X102.728 Y78.736 E64.13246
G1 X103.367 Y75.854 E64.26991
G1 X103.739 Y73.006 E64.40365
G1 X103.88 Y69.82 E64.55215
G1 X103.952 Y69.097 E64.58599
G1 X104.103 Y68.386 E64.61983
G1 X104.331 Y67.697 E64.65362
G1 X104.634 Y67.036 E64.68748
G1 X105.007 Y66.413 E64.72129
G0 F6000 X105.029 Y67.146
G1 F1200 X105.4 Y66.548 E64.75406
G1 X105.837 Y65.996 E64.78685
G1 X106.188 Y65.631 E64.81043
G1 X106.304 Y65.52 E64.8179
G1 X106.839 Y65.063 E64.85067
G1 X107.423 Y64.67 E64.88344
G1 X108.047 Y64.345 E64.9162
G1 X108.705 Y64.094 E64.949
G1 X109.387 Y63.918 E64.98179
G1 X110.084 Y63.821 E65.01456
G1 X110.59 Y63.8 E65.03814
G1 X149.883 Y63.8 E66.86779
G1 X150.586 Y63.84 E66.90058
G1 X151.28 Y63.959 E66.93336
G1 X151.955 Y64.157 E66.96612
G1 X152.604 Y64.429 E66.99889
G1 X153.218 Y64.774 E67.03168
G1 X153.789 Y65.185 E67.06444
G1 X154.267 Y65.616 E67.09441
G1 X154.384 Y65.733 E67.10212
G1 X154.853 Y66.258 E67.1349
G1 X155.259 Y66.833 E67.16767
G1 X155.597 Y67.451 E67.20047
G1 X155.864 Y68.102 E67.23323
G1 X156.054 Y68.78 E67.26602
G1 X156.167 Y69.475 E67.29881
G1 X156.2 Y70.117 E67.32874
G1 X156.2 Y149.883 E71.04298
G1 X156.16 Y150.586 E71.07577
G1 X156.041 Y151.28 E71.10856
G1 X155.843 Y151.955 E71.14131
G1 X155.571 Y152.604 E71.17408
G1 X155.226 Y153.218 E71.20687
G1 X154.815 Y153.789 E71.23963
G1 X154.384 Y154.267 E71.2696
G1 X154.267 Y154.384 E71.27731
G1 X153.742 Y154.853 E71.31009
G1 X153.167 Y155.259 E71.34286
G1 X152.549 Y155.597 E71.37566
G1 X151.898 Y155.864 E71.40843
G1 X151.22 Y156.054 E71.44121
G1 X150.525 Y156.167 E71.474
G1 X149.883 Y156.2 E71.50393
G1 X70.117 Y156.2 E75.21817
G1 X69.414 Y156.16 E75.25096
G1 X68.72 Y156.041 E75.28375
G1 X68.045 Y155.843 E75.3165
G1 X67.396 Y155.571 E75.34927
G1 X66.782 Y155.226 E75.38206
G1 X66.211 Y154.815 E75.41482
G1 X65.733 Y154.384 E75.44479
G1 X65.616 Y154.267 E75.4525
G1 X65.147 Y153.742 E75.48528
G1 X64.741 Y153.167 E75.51805
G1 X64.403 Y152.549 E75.55085
G1 X64.136 Y151.898 E75.58362
G1 X63.946 Y151.22 E75.6164
G1 X63.833 Y150.525 E75.64919
G1 X63.8 Y149.883 E75.67912
G1 X63.8 Y110.591 E77.50872
G1 X63.84 Y109.888 E77.54151
G1 X63.959 Y109.194 E77.5743
G1 X64.157 Y108.519 E77.60705
G1 X64.429 Y107.87 E77.63982
G1 X64.774 Y107.256 E77.67262
G1 X65.185 Y106.685 E77.70538
G1 X65.52 Y106.305 E77.72896
G1 X65.631 Y106.189 E77.73644
G1 X66.146 Y105.708 E77.76925
G1 X66.712 Y105.29 E77.80202
G1 X67.322 Y104.938 E77.83481
G1 X67.968 Y104.657 E77.86761
G1 X68.641 Y104.452 E77.90037
G1 X69.333 Y104.324 E77.93314
G1 X69.835 Y104.281 E77.9566
G1 X73.035 Y104.139 E78.10576
G1 X75.946 Y103.756 E78.24247
G1 X78.875 Y103.105 E78.38219
G1 X81.74 Y102.201 E78.52208
G1 X84.497 Y101.059 E78.66103
G1 X87.135 Y99.684 E78.79955
G1 X89.642 Y98.087 E78.93796
G1 X92.06 Y96.231 E79.0799
G1 X94.237 Y94.235 E79.21743
G1 X96.258 Y92.028 E79.35677
G1 X98.084 Y89.646 E79.49653
G1 X99.692 Y87.122 E79.63588
G1 X101.064 Y84.488 E79.77417
G1 X102.204 Y81.731 E79.91309
G1 X103.112 Y78.849 E80.05379
G1 X103.76 Y75.929 E80.19307
G1 X104.139 Y73.03 E80.32921
G1 X104.28 Y69.837 E80.47803
G1 X104.351 Y69.137 E80.51079
G1 X104.501 Y68.449 E80.54358
G1 X104.728 Y67.783 E80.57634
G1 X105.029 Y67.146 E80.60915
G0 F6000 X105.423 Y67.259
G1 F1200 X105.792 Y66.687 E80.64085
G1 X106.464 Y65.92 E80.68833
G1 X106.58 Y65.809 E80.69581
G1 X107.099 Y65.368 E80.72752
G1 X107.666 Y64.991 E80.75922
G1 X108.273 Y64.683 E80.79092
