;FLAVOR:Marlin
;TIME:14358
;Filament used: 14.3482m
;Layer height: 0.28
;MINX:13.894
;MINY:20.198
;MINZ:0.28
;MAXX:199.802
;MAXY:206.106
;MAXZ:12.88
;Generated with Cura_SteamEngine 4.8.0
M140 S60
M105
M190 S60
M104 S200
M105
M109 S200
M82 ;absolute extrusion mode
; Ender 3 Custom Start G-code
G92 E0 ; Reset Extruder
G28 ; Home all axes
G1 Z2.0 F3000 ; Move Z Axis up little to prevent scratching of Heat Bed
G1 X0.1 Y20 Z0.3 F5000.0 ; Move to start position
G1 X0.1 Y200.0 Z0.3 F1500.0 E15 ; Draw the first line
G1 X0.4 Y200.0 Z0.3 F5000.0 ; Move to side a little
G1 X0.4 Y20 Z0.3 F1500.0 E30 ; Draw the second line
G92 E0 ; Reset Extruder
G1 Z2.0 F3000 ; Move Z Axis up little to prevent scratching of Heat Bed
G1 X5 Y20 Z0.3 F5000.0 ; Move over to prevent blob squish
G92 E0
G92 E0
G1 F1500 E-6.5
;LAYER_COUNT:46
;LAYER:0
M107
G0 F6000 X45.065 Y22.483 Z0.28
;TYPE:SKIRT
G1 F1500 E0
G1 F1200 X45.651 Y21.953 E0.03679
G1 X46.287 Y21.486 E0.07353
G1 X46.967 Y21.085 E0.11029
G1 X47.685 Y20.755 E0.14709
G1 X48.432 Y20.5 E0.18384
G1 X49.201 Y20.321 E0.22061
G1 X49.985 Y20.221 E0.25741
G1 X50.58 Y20.198 E0.28513
G1 X50.746 Y20.198 E0.29286
G1 X51.535 Y20.238 E0.32965
G1 X52.315 Y20.357 E0.36639
G1 X53.08 Y20.555 E0.40319
G1 X53.82 Y20.829 E0.43993
G1 X54.529 Y21.177 E0.47671
G1 X55.2 Y21.595 E0.51352
G1 X55.824 Y22.078 E0.55026
G1 X56.262 Y22.483 E0.57804
G1 X57.35 Y23.571 E0.64969
G1 X58.056 Y22.865 E0.69618
G1 X58.642 Y22.335 E0.73297
G1 X59.278 Y21.868 E0.76971
G1 X59.958 Y21.467 E0.80647
G1 X60.676 Y21.137 E0.84326
G1 X61.423 Y20.882 E0.88002
G1 X62.192 Y20.703 E0.91678
G1 X62.976 Y20.603 E0.95359
G1 X63.571 Y20.58 E0.98131
G1 X63.737 Y20.58 E0.98904
G1 X64.526 Y20.62 E1.02583
G1 X65.306 Y20.739 E1.06257
G1 X66.071 Y20.937 E1.09936
G1 X66.811 Y21.211 E1.13611
G1 X67.52 Y21.559 E1.17288
G1 X68.191 Y21.977 E1.20969
G1 X68.815 Y22.46 E1.24644
G1 X69.252 Y22.865 E1.27418
G1 X97.322 Y50.935 E3.12264
G1 X97.852 Y51.521 E3.15943
G1 X98.319 Y52.157 E3.19617
G1 X98.72 Y52.837 E3.23293
G1 X99.05 Y53.555 E3.26973
G1 X99.305 Y54.302 E3.30648
G1 X99.484 Y55.071 E3.34325
G1 X99.584 Y55.855 E3.38005
G1 X99.607 Y56.45 E3.40777
G1 X99.607 Y56.616 E3.4155
G1 X99.567 Y57.405 E3.45229
G1 X99.448 Y58.185 E3.48903
G1 X99.25 Y58.95 E3.52583
G1 X98.976 Y59.69 E3.56257
G1 X98.628 Y60.399 E3.59935
G1 X98.21 Y61.07 E3.63616
G1 X97.727 Y61.694 E3.6729
G1 X97.322 Y62.131 E3.70064
G1 X96.615 Y62.838 E3.7472
G1 X103.275 Y69.499 E4.18581
G1 X103.982 Y68.792 E4.23236
G1 X104.568 Y68.262 E4.26916
G1 X105.204 Y67.795 E4.3059
G1 X105.884 Y67.394 E4.34266
G1 X106.602 Y67.064 E4.37945
G1 X107.349 Y66.809 E4.41621
G1 X108.118 Y66.63 E4.45297
G1 X108.902 Y66.53 E4.48977
G1 X109.497 Y66.507 E4.5175
G1 X109.663 Y66.507 E4.52523
G1 X110.452 Y66.547 E4.56201
G1 X111.232 Y66.666 E4.59876
G1 X111.997 Y66.864 E4.63555
G1 X112.737 Y67.138 E4.67229
G1 X113.446 Y67.486 E4.70907
G1 X114.117 Y67.904 E4.74588
G1 X114.741 Y68.387 E4.78263
G1 X115.178 Y68.792 E4.81037
G1 X143.311 Y96.925 E6.66297
G1 X143.841 Y97.511 E6.69977
G1 X144.308 Y98.147 E6.73651
G1 X144.709 Y98.827 E6.77327
G1 X145.039 Y99.545 E6.81006
G1 X145.294 Y100.292 E6.84682
G1 X145.473 Y101.061 E6.88358
G1 X145.573 Y101.845 E6.92038
G1 X145.596 Y102.44 E6.94811
G1 X145.596 Y102.606 E6.95584
G1 X145.556 Y103.395 E6.99263
G1 X145.437 Y104.175 E7.02937
G1 X145.239 Y104.94 E7.06616
G1 X144.965 Y105.68 E7.10291
G1 X144.617 Y106.389 E7.13968
G1 X144.199 Y107.06 E7.17649
G1 X143.716 Y107.684 E7.21324
G1 X143.311 Y108.122 E7.24101
G1 X142.604 Y108.829 E7.28757
G1 X149.301 Y115.526 E7.72858
G1 X150.009 Y114.818 E7.7752
G1 X150.595 Y114.288 E7.81199
G1 X151.232 Y113.821 E7.84877
G1 X151.912 Y113.42 E7.88553
G1 X152.63 Y113.091 E7.92231
G1 X153.377 Y112.835 E7.95908
G1 X154.146 Y112.657 E7.99583
G1 X154.93 Y112.557 E8.03263
G1 X155.524 Y112.534 E8.06031
G1 X155.69 Y112.534 E8.06804
G1 X156.479 Y112.574 E8.10483
G1 X157.259 Y112.693 E8.14157
G1 X158.024 Y112.891 E8.17837
G1 X158.764 Y113.165 E8.21511
G1 X159.473 Y113.513 E8.25189
G1 X160.144 Y113.931 E8.2887
G1 X160.768 Y114.414 E8.32544
G1 X161.205 Y114.819 E8.35318
G1 X189.35 Y142.964 E10.20658
G1 X189.88 Y143.55 E10.24337
G1 X190.347 Y144.186 E10.28011
G1 X190.748 Y144.866 E10.31687
G1 X191.078 Y145.584 E10.35367
G1 X191.333 Y146.331 E10.39042
G1 X191.512 Y147.1 E10.42719
G1 X191.612 Y147.884 E10.46399
G1 X191.635 Y148.479 E10.49172
G1 X191.635 Y148.645 E10.49944
G1 X191.595 Y149.434 E10.53623
G1 X191.476 Y150.214 E10.57297
G1 X191.278 Y150.979 E10.60977
G1 X191.004 Y151.719 E10.64651
G1 X190.656 Y152.428 E10.68329
G1 X190.238 Y153.099 E10.7201
G1 X189.755 Y153.723 E10.75684
G1 X189.35 Y154.16 E10.78459
G1 X188.644 Y154.866 E10.83108
G1 X197.517 Y163.738 E11.41535
G1 X198.046 Y164.324 E11.45211
G1 X198.514 Y164.961 E11.48891
G1 X198.915 Y165.641 E11.52567
G1 X199.245 Y166.358 E11.56242
G1 X199.5 Y167.106 E11.59922
G1 X199.679 Y167.875 E11.63599
G1 X199.779 Y168.658 E11.67274
G1 X199.802 Y169.254 E11.70052
G1 X199.802 Y169.42 E11.70825
G1 X199.762 Y170.209 E11.74503
G1 X199.643 Y170.989 E11.78177
G1 X199.445 Y171.754 E11.81857
G1 X199.171 Y172.494 E11.85531
G1 X198.823 Y173.203 E11.89209
G1 X198.405 Y173.874 E11.9289
G1 X197.922 Y174.498 E11.96564
G1 X197.517 Y174.935 E11.99339
G1 X168.631 Y203.821 E13.89558
G1 X168.045 Y204.351 E13.93237
G1 X167.409 Y204.818 E13.96911
G1 X166.729 Y205.219 E14.00587
G1 X166.011 Y205.549 E14.04267
G1 X165.264 Y205.804 E14.07942
G1 X164.495 Y205.983 E14.11619
G1 X163.711 Y206.083 E14.15299
G1 X163.116 Y206.106 E14.18071
G1 X162.95 Y206.106 E14.18844
G1 X162.161 Y206.066 E14.22523
G1 X161.381 Y205.947 E14.26197
G1 X160.616 Y205.749 E14.29877
G1 X159.876 Y205.475 E14.33551
G1 X159.167 Y205.127 E14.37229
G1 X158.496 Y204.709 E14.4091
G1 X157.872 Y204.226 E14.44584
G1 X157.435 Y203.821 E14.47358
G1 X16.179 Y62.565 E23.77553
G1 X15.649 Y61.979 E23.81232
G1 X15.182 Y61.343 E23.84907
G1 X14.781 Y60.663 E23.88582
G1 X14.451 Y59.945 E23.92262
G1 X14.196 Y59.198 E23.95937
G1 X14.017 Y58.429 E23.99614
G1 X13.917 Y57.645 E24.03294
G1 X13.894 Y57.05 E24.06067
G1 X13.894 Y56.884 E24.0684
G1 X13.934 Y56.095 E24.10518
G1 X14.053 Y55.315 E24.14192
G1 X14.251 Y54.55 E24.17872
G1 X14.525 Y53.81 E24.21546
G1 X14.873 Y53.101 E24.25224
G1 X15.291 Y52.43 E24.28905
G1 X15.774 Y51.806 E24.32579
G1 X16.179 Y51.369 E24.35354
G1 X45.065 Y22.483 E26.25573
G0 F6000 X45.347 Y22.765
G1 F1200 X45.919 Y22.251 E26.29154
G1 X46.541 Y21.798 E26.32737
G1 X47.206 Y21.412 E26.36317
G1 X47.908 Y21.097 E26.399
G1 X48.639 Y20.857 E26.43483
G1 X49.39 Y20.694 E26.47061
G1 X50.155 Y20.61 E26.50645
G1 X50.58 Y20.598 E26.52624
G1 X50.746 Y20.598 E26.53397
G1 X51.514 Y20.638 E26.56978
G1 X52.274 Y20.757 E26.6056
G1 X53.017 Y20.955 E26.64141
G1 X53.736 Y21.229 E26.67724
G1 X54.422 Y21.576 E26.71303
G1 X55.069 Y21.992 E26.74885
G1 X55.669 Y22.473 E26.78466
G1 X55.979 Y22.766 E26.80452
G1 X57.349 Y24.136 E26.89474
G1 X58.338 Y23.147 E26.95986
G1 X58.91 Y22.633 E26.99567
G1 X59.532 Y22.18 E27.0315
G1 X60.197 Y21.794 E27.06731
G1 X60.899 Y21.479 E27.10313
G1 X61.63 Y21.239 E27.13896
G1 X62.381 Y21.076 E27.17474
G1 X63.146 Y20.992 E27.21058
G1 X63.571 Y20.98 E27.23038
G1 X63.737 Y20.98 E27.23811
G1 X64.505 Y21.02 E27.27392
G1 X65.265 Y21.139 E27.30974
G1 X66.008 Y21.337 E27.34554
G1 X66.727 Y21.611 E27.38137
G1 X67.413 Y21.958 E27.41717
G1 X68.06 Y22.374 E27.45298
G1 X68.66 Y22.855 E27.48879
G1 X68.97 Y23.147 E27.50862
G1 X97.04 Y51.217 E29.35708
G1 X97.554 Y51.789 E29.39289
G1 X98.007 Y52.411 E29.42872
G1 X98.393 Y53.076 E29.46452
G1 X98.708 Y53.778 E29.50035
G1 X98.948 Y54.509 E29.53618
G1 X99.111 Y55.26 E29.57196
G1 X99.195 Y56.025 E29.6078
G1 X99.207 Y56.45 E29.62759
G1 X99.207 Y56.616 E29.63532
G1 X99.167 Y57.384 E29.67113
G1 X99.048 Y58.144 E29.70695
G1 X98.85 Y58.887 E29.74276
G1 X98.576 Y59.606 E29.77859
G1 X98.229 Y60.292 E29.81438
G1 X97.813 Y60.939 E29.8502
G1 X97.332 Y61.539 E29.88601
G1 X97.04 Y61.849 E29.90584
G1 X96.05 Y62.839 E29.97103
G1 X103.275 Y70.063 E30.44678
G1 X104.264 Y69.074 E30.5119
G1 X104.836 Y68.56 E30.54771
G1 X105.458 Y68.107 E30.58354
G1 X106.123 Y67.721 E30.61935
G1 X106.825 Y67.406 E30.65517
G1 X107.556 Y67.166 E30.691
G1 X108.307 Y67.003 E30.72678
G1 X109.072 Y66.919 E30.76262
G1 X109.497 Y66.907 E30.78242
G1 X109.663 Y66.907 E30.79015
G1 X110.431 Y66.947 E30.82596
G1 X111.191 Y67.066 E30.86178
G1 X111.934 Y67.264 E30.89758
G1 X112.653 Y67.538 E30.93341
G1 X113.339 Y67.885 E30.96921
G1 X113.986 Y68.301 E31.00502
G1 X114.586 Y68.782 E31.04083
G1 X114.896 Y69.074 E31.06066
G1 X143.029 Y97.207 E32.91327
G1 X143.543 Y97.779 E32.94908
G1 X143.996 Y98.401 E32.98491
G1 X144.382 Y99.066 E33.02071
G1 X144.697 Y99.768 E33.05654
G1 X144.937 Y100.499 E33.09236
G1 X145.1 Y101.25 E33.12815
G1 X145.184 Y102.015 E33.16398
G1 X145.196 Y102.44 E33.18378
G1 X145.196 Y102.606 E33.19151
G1 X145.156 Y103.374 E33.22732
G1 X145.037 Y104.134 E33.26314
G1 X144.839 Y104.877 E33.29895
G1 X144.565 Y105.596 E33.33477
G1 X144.218 Y106.282 E33.37057
G1 X143.802 Y106.929 E33.40639
G1 X143.321 Y107.529 E33.4422
G1 X143.028 Y107.839 E33.46206
G1 X142.039 Y108.828 E33.52719
G1 X149.302 Y116.091 E34.00547
G1 X150.292 Y115.101 E34.07066
G1 X150.864 Y114.586 E34.1065
G1 X151.486 Y114.133 E34.14233
G1 X152.151 Y113.747 E34.17813
G1 X152.853 Y113.433 E34.21394
G1 X153.584 Y113.193 E34.24977
G1 X154.335 Y113.03 E34.28555
G1 X155.1 Y112.946 E34.32139
G1 X155.524 Y112.934 E34.34114
G1 X155.69 Y112.934 E34.34887
G1 X156.458 Y112.974 E34.38468
G1 X157.218 Y113.093 E34.4205
G1 X157.961 Y113.291 E34.4563
G1 X158.68 Y113.565 E34.49213
G1 X159.366 Y113.912 E34.52793
G1 X160.013 Y114.328 E34.56374
G1 X160.613 Y114.809 E34.59955
G1 X160.923 Y115.101 E34.61938
G1 X189.068 Y143.246 E36.47278
G1 X189.582 Y143.818 E36.50859
G1 X190.035 Y144.44 E36.54442
G1 X190.421 Y145.105 E36.58022
G1 X190.736 Y145.807 E36.61605
G1 X190.976 Y146.538 E36.65188
G1 X191.139 Y147.289 E36.68766
G1 X191.223 Y148.054 E36.7235
G1 X191.235 Y148.479 E36.74329
G1 X191.235 Y148.645 E36.75102
G1 X191.195 Y149.413 E36.78683
G1 X191.076 Y150.173 E36.82265
G1 X190.878 Y150.916 E36.85846
G1 X190.604 Y151.635 E36.89429
G1 X190.257 Y152.321 E36.93008
G1 X189.841 Y152.968 E36.9659
G1 X189.36 Y153.568 E37.00171
G1 X189.068 Y153.878 E37.02154
G1 X188.079 Y154.867 E37.08666
G1 X197.234 Y164.021 E37.6895
G1 X197.749 Y164.592 E37.72531
G1 X198.202 Y165.214 E37.76114
G1 X198.588 Y165.88 E37.79698
G1 X198.903 Y166.581 E37.83277
G1 X199.143 Y167.312 E37.86859
G1 X199.306 Y168.064 E37.90442
G1 X199.39 Y168.828 E37.94021
G1 X199.402 Y169.254 E37.96006
G1 X199.402 Y169.42 E37.96779
G1 X199.362 Y170.188 E38.0036
G1 X199.243 Y170.948 E38.03942
G1 X199.045 Y171.691 E38.07522
G1 X198.771 Y172.41 E38.11105
G1 X198.424 Y173.096 E38.14685
G1 X198.008 Y173.743 E38.18266
G1 X197.527 Y174.343 E38.21847
G1 X197.235 Y174.653 E38.2383
G1 X168.349 Y203.539 E40.14049
G1 X167.777 Y204.053 E40.1763
G1 X167.155 Y204.506 E40.21213
G1 X166.49 Y204.892 E40.24794
G1 X165.788 Y205.207 E40.28376
G1 X165.057 Y205.447 E40.31959
G1 X164.306 Y205.61 E40.35537
G1 X163.541 Y205.694 E40.39121
G1 X163.116 Y205.706 E40.41101
G1 X162.95 Y205.706 E40.41874
G1 X162.182 Y205.666 E40.45455
G1 X161.422 Y205.547 E40.49037
G1 X160.679 Y205.349 E40.52617
G1 X159.96 Y205.075 E40.562
G1 X159.274 Y204.728 E40.5978
G1 X158.627 Y204.312 E40.63361
G1 X158.027 Y203.831 E40.66942
G1 X157.717 Y203.539 E40.68925
G1 X16.461 Y62.283 E49.9912
G1 X15.947 Y61.711 E50.02701
G1 X15.494 Y61.089 E50.06284
G1 X15.108 Y60.424 E50.09864
G1 X14.793 Y59.722 E50.13447
G1 X14.553 Y58.991 E50.1703
G1 X14.39 Y58.24 E50.20608
G1 X14.306 Y57.475 E50.24192
G1 X14.294 Y57.05 E50.26171
G1 X14.294 Y56.884 E50.26944
G1 X14.334 Y56.116 E50.30525
G1 X14.453 Y55.356 E50.34107
G1 X14.651 Y54.613 E50.37688
G1 X14.925 Y53.894 E50.41271
G1 X15.272 Y53.208 E50.4485
G1 X15.688 Y52.561 E50.48432
G1 X16.169 Y51.961 E50.52013
G1 X16.461 Y51.651 E50.53996
G1 X45.347 Y22.765 E52.44215
G0 F6000 X45.63 Y23.048
G1 F1200 X46.187 Y22.548 E52.47701
G1 X46.793 Y22.111 E52.51179
G1 X47.443 Y21.74 E52.54664
G1 X48.129 Y21.441 E52.58149
G1 X48.843 Y21.217 E52.61633
G1 X49.576 Y21.07 E52.65115
G1 X50.58 Y20.998 E52.69802
G1 X50.746 Y20.998 E52.70575
G1 X51.493 Y21.038 E52.74058
G1 X52.231 Y21.157 E52.77539
G1 X52.953 Y21.355 E52.81025
G1 X53.649 Y21.628 E52.84506
G1 X54.312 Y21.975 E52.87991
G1 X54.935 Y22.39 E52.91476
G1 X55.696 Y23.049 E52.96164
G1 X57.349 Y24.702 E53.07049
G1 X58.621 Y23.43 E53.15425
G1 X59.178 Y22.93 E53.18911
G1 X59.784 Y22.493 E53.2239
G1 X60.434 Y22.122 E53.25875
G1 X61.12 Y21.823 E53.29359
G1 X61.834 Y21.599 E53.32844
G1 X62.567 Y21.452 E53.36325
G1 X63.571 Y21.38 E53.41012
G1 X63.737 Y21.38 E53.41785
G1 X64.484 Y21.42 E53.45268
G1 X65.222 Y21.539 E53.48749
G1 X65.944 Y21.737 E53.52235
G1 X66.64 Y22.01 E53.55716
G1 X67.303 Y22.357 E53.59201
G1 X67.926 Y22.772 E53.62686
G1 X68.687 Y23.43 E53.67371
G1 X96.757 Y51.5 E55.52217
G1 X97.257 Y52.057 E55.55702
G1 X97.694 Y52.663 E55.59181
G1 X98.065 Y53.313 E55.62666
G1 X98.364 Y53.999 E55.6615
G1 X98.588 Y54.713 E55.69635
G1 X98.735 Y55.446 E55.73116
G1 X98.807 Y56.45 E55.77803
G1 X98.807 Y56.616 E55.78576
G1 X98.767 Y57.363 E55.82059
G1 X98.648 Y58.101 E55.8554
G1 X98.45 Y58.823 E55.89026
G1 X98.177 Y59.519 E55.92507
G1 X97.83 Y60.182 E55.95992
G1 X97.415 Y60.805 E55.99477
G1 X96.757 Y61.566 E56.04162
G1 X95.484 Y62.839 E56.12545
G1 X103.275 Y70.629 E56.63847
G1 X104.547 Y69.357 E56.72223
G1 X105.104 Y68.857 E56.75708
G1 X105.71 Y68.42 E56.79187
G1 X106.36 Y68.049 E56.82672
G1 X107.046 Y67.75 E56.86157
G1 X107.76 Y67.526 E56.89641
G1 X108.493 Y67.379 E56.93122
G1 X109.497 Y67.307 E56.97809
G1 X109.663 Y67.307 E56.98582
G1 X110.41 Y67.347 E57.02066
G1 X111.148 Y67.466 E57.05547
G1 X111.87 Y67.664 E57.09033
G1 X112.566 Y67.937 E57.12514
G1 X113.229 Y68.284 E57.15998
G1 X113.852 Y68.699 E57.19484
G1 X114.613 Y69.357 E57.24168
G1 X142.746 Y97.49 E59.09429
G1 X143.246 Y98.047 E59.12914
G1 X143.683 Y98.653 E59.16393
G1 X144.054 Y99.303 E59.19878
G1 X144.353 Y99.989 E59.23363
G1 X144.577 Y100.703 E59.26847
G1 X144.724 Y101.436 E59.30328
G1 X144.796 Y102.44 E59.35015
G1 X144.796 Y102.606 E59.35788
G1 X144.756 Y103.353 E59.39272
G1 X144.637 Y104.091 E59.42753
G1 X144.439 Y104.813 E59.46239
G1 X144.166 Y105.509 E59.4972
G1 X143.819 Y106.172 E59.53204
G1 X143.404 Y106.795 E59.5669
G1 X142.745 Y107.556 E59.61378
G1 X141.473 Y108.828 E59.69754
G1 X149.302 Y116.657 E60.21309
G1 X150.575 Y115.384 E60.29692
G1 X151.132 Y114.884 E60.33177
G1 X151.738 Y114.446 E60.36659
G1 X152.388 Y114.076 E60.40142
G1 X153.074 Y113.777 E60.43626
G1 X153.788 Y113.553 E60.47111
G1 X154.521 Y113.406 E60.50592
G1 X155.524 Y113.334 E60.55274
G1 X155.69 Y113.334 E60.56047
G1 X156.437 Y113.374 E60.59531
G1 X157.175 Y113.493 E60.63011
G1 X157.897 Y113.691 E60.66497
G1 X158.593 Y113.964 E60.69979
G1 X159.256 Y114.311 E60.73463
G1 X159.879 Y114.726 E60.76949
G1 X160.64 Y115.384 E60.81633
G1 X188.785 Y143.529 E62.66973
G1 X189.285 Y144.086 E62.70458
G1 X189.722 Y144.692 E62.73937
G1 X190.093 Y145.342 E62.77422
G1 X190.392 Y146.028 E62.80907
G1 X190.616 Y146.742 E62.84391
G1 X190.763 Y147.475 E62.87872
G1 X190.835 Y148.479 E62.92559
G1 X190.835 Y148.645 E62.93332
G1 X190.795 Y149.392 E62.96816
G1 X190.676 Y150.13 E63.00297
G1 X190.478 Y150.852 E63.03783
G1 X190.205 Y151.548 E63.07264
G1 X189.858 Y152.211 E63.10748
G1 X189.443 Y152.834 E63.14234
G1 X188.785 Y153.595 E63.18918
G1 X187.513 Y154.867 E63.27295
G1 X196.951 Y164.304 E63.89442
G1 X197.451 Y164.86 E63.92924
G1 X197.889 Y165.467 E63.9641
G1 X198.26 Y166.117 E63.99895
G1 X198.559 Y166.803 E64.03379
G1 X198.783 Y167.516 E64.06859
G1 X198.93 Y168.25 E64.10345
G1 X199.002 Y169.254 E64.15032
G1 X199.002 Y169.42 E64.15805
G1 X198.962 Y170.167 E64.19288
G1 X198.843 Y170.905 E64.22769
G1 X198.645 Y171.627 E64.26255
G1 X198.372 Y172.323 E64.29736
G1 X198.025 Y172.986 E64.33221
G1 X197.61 Y173.609 E64.36706
G1 X196.952 Y174.37 E64.41391
G1 X168.066 Y203.256 E66.3161
G1 X167.509 Y203.756 E66.35095
G1 X166.903 Y204.193 E66.38574
G1 X166.253 Y204.564 E66.42059
