;FLAVOR:Marlin
;TIME:27805
;Filament used: 28.6783m
;Layer height: 0.28
;MINX:73.7
;MINY:47.2
;MINZ:0.28
;MAXX:146.3
;MAXY:172.8
;MAXZ:39.76
;Generated with Cura_SteamEngine 4.8.0
M140 S60
M105
M190 S60
M104 S200
M105
M109 S200
M82 ;absolute extrusion mode
; Ender 3 Custom Start G-code
G92 E0 ; Reset Extruder
G28 ; Home all axes
G1 Z2.0 F3000 ; Move Z Axis up little to prevent scratching of Heat Bed
G1 X0.1 Y20 Z0.3 F5000.0 ; Move to start position
G1 X0.1 Y200.0 Z0.3 F1500.0 E15 ; Draw the first line
G1 X0.4 Y200.0 Z0.3 F5000.0 ; Move to side a little
G1 X0.4 Y20 Z0.3 F1500.0 E30 ; Draw the second line
G92 E0 ; Reset Extruder
G1 Z2.0 F3000 ; Move Z Axis up little to prevent scratching of Heat Bed
G1 X5 Y20 Z0.3 F5000.0 ; Move over to prevent blob squish
G92 E0
G92 E0
G1 F1500 E-6.5
;LAYER_COUNT:142
;LAYER:0
M107
G0 F6000 X75.097 Y53.713 Z0.28
;TYPE:SKIRT
G1 F1500 E0
G1 F1200 X75.58 Y53.089 E0.03674
G1 X75.985 Y52.652 E0.06449
G1 X76.102 Y52.535 E0.07219
G1 X76.688 Y52.005 E0.10898
G1 X77.324 Y51.538 E0.14572
G1 X78.004 Y51.137 E0.18248
G1 X78.722 Y50.807 E0.21928
G1 X79.469 Y50.552 E0.25603
G1 X80.238 Y50.373 E0.2928
G1 X81.022 Y50.273 E0.3296
G1 X81.617 Y50.25 E0.35733
G1 X95.417 Y50.25 E0.99991
G1 X95.58 Y50.039 E1.01233
G1 X95.985 Y49.602 E1.04007
G1 X96.102 Y49.485 E1.04778
G1 X96.688 Y48.955 E1.08457
G1 X97.324 Y48.488 E1.12131
G1 X98.004 Y48.087 E1.15807
G1 X98.722 Y47.757 E1.19486
G1 X99.469 Y47.502 E1.23162
G1 X100.238 Y47.323 E1.26838
G1 X101.022 Y47.223 E1.30518
G1 X101.617 Y47.2 E1.33291
G1 X138.383 Y47.2 E3.04489
G1 X139.172 Y47.24 E3.08168
G1 X139.952 Y47.359 E3.11842
G1 X140.717 Y47.557 E3.15521
G1 X141.457 Y47.831 E3.19196
G1 X142.166 Y48.179 E3.22873
G1 X142.837 Y48.597 E3.26554
G1 X143.461 Y49.08 E3.30229
G1 X143.898 Y49.485 E3.33003
G1 X144.015 Y49.602 E3.33773
G1 X144.545 Y50.188 E3.37453
G1 X145.012 Y50.824 E3.41127
G1 X145.413 Y51.504 E3.44803
G1 X145.743 Y52.222 E3.48482
G1 X145.998 Y52.969 E3.52158
G1 X146.177 Y53.738 E3.55834
G1 X146.277 Y54.522 E3.59514
G1 X146.3 Y55.117 E3.62287
G1 X146.3 Y164.883 E8.73403
G1 X146.26 Y165.672 E8.77082
G1 X146.141 Y166.452 E8.80756
G1 X145.943 Y167.217 E8.84436
G1 X145.669 Y167.957 E8.8811
G1 X145.321 Y168.666 E8.91788
G1 X144.903 Y169.337 E8.95469
G1 X144.42 Y169.961 E8.99143
G1 X144.015 Y170.398 E9.01917
G1 X143.898 Y170.515 E9.02688
G1 X143.312 Y171.045 E9.06367
G1 X142.676 Y171.512 E9.10041
G1 X141.996 Y171.913 E9.13717
G1 X141.278 Y172.243 E9.17397
G1 X140.531 Y172.498 E9.21072
G1 X139.762 Y172.677 E9.24749
G1 X138.978 Y172.777 E9.28429
G1 X138.383 Y172.8 E9.31201
G1 X101.617 Y172.8 E11.02399
G1 X100.828 Y172.76 E11.06078
G1 X100.048 Y172.641 E11.09752
G1 X99.283 Y172.443 E11.13432
G1 X98.543 Y172.169 E11.17106
G1 X97.834 Y171.821 E11.20784
G1 X97.163 Y171.403 E11.24465
G1 X96.539 Y170.92 E11.28139
G1 X96.102 Y170.515 E11.30913
G1 X95.985 Y170.398 E11.31684
G1 X95.455 Y169.812 E11.35363
G1 X94.988 Y169.176 E11.39037
G1 X94.587 Y168.496 E11.42713
G1 X94.257 Y167.778 E11.46393
G1 X94.002 Y167.031 E11.50068
G1 X93.823 Y166.262 E11.53744
G1 X93.723 Y165.478 E11.57425
G1 X93.7 Y164.883 E11.60197
G1 X93.7 Y119.8 E13.70123
G1 X81.617 Y119.8 E14.26386
G1 X80.828 Y119.76 E14.30065
G1 X80.048 Y119.641 E14.33739
G1 X79.283 Y119.443 E14.37418
G1 X78.543 Y119.169 E14.41093
G1 X77.834 Y118.821 E14.4477
G1 X77.163 Y118.403 E14.48451
G1 X76.539 Y117.92 E14.52126
G1 X76.102 Y117.515 E14.549
G1 X75.985 Y117.398 E14.55671
G1 X75.455 Y116.812 E14.5935
G1 X74.988 Y116.176 E14.63024
G1 X74.587 Y115.496 E14.667
G1 X74.257 Y114.778 E14.70379
G1 X74.002 Y114.031 E14.74055
G1 X73.823 Y113.262 E14.77731
G1 X73.723 Y112.478 E14.81412
G1 X73.7 Y111.883 E14.84184
G1 X73.7 Y58.167 E17.34308
G1 X73.74 Y57.378 E17.37987
G1 X73.859 Y56.598 E17.41661
G1 X74.057 Y55.833 E17.45341
G1 X74.331 Y55.093 E17.49015
G1 X74.679 Y54.384 E17.52693
G1 X75.097 Y53.713 E17.56374
G0 F6000 X75.494 Y53.844
G1 F1200 X75.975 Y53.244 E17.59954
G1 X76.267 Y52.934 E17.61937
G1 X76.384 Y52.817 E17.62708
G1 X76.956 Y52.303 E17.66289
G1 X77.578 Y51.85 E17.69872
G1 X78.243 Y51.464 E17.73452
G1 X78.945 Y51.149 E17.77035
G1 X79.676 Y50.909 E17.80618
G1 X80.427 Y50.746 E17.84196
G1 X81.192 Y50.662 E17.8778
G1 X81.617 Y50.65 E17.89759
G1 X95.609 Y50.65 E18.54912
G1 X95.975 Y50.194 E18.57635
G1 X96.267 Y49.884 E18.59618
G1 X96.384 Y49.767 E18.60388
G1 X96.956 Y49.253 E18.63969
G1 X97.578 Y48.8 E18.67552
G1 X98.243 Y48.414 E18.71132
G1 X98.945 Y48.099 E18.74715
G1 X99.676 Y47.859 E18.78298
G1 X100.427 Y47.696 E18.81876
G1 X101.192 Y47.612 E18.8546
G1 X101.617 Y47.6 E18.87439
G1 X138.383 Y47.6 E20.58637
G1 X139.151 Y47.64 E20.62218
G1 X139.911 Y47.759 E20.658
G1 X140.654 Y47.957 E20.69381
G1 X141.373 Y48.231 E20.72964
G1 X142.059 Y48.578 E20.76543
G1 X142.706 Y48.994 E20.80125
G1 X143.306 Y49.475 E20.83706
G1 X143.616 Y49.767 E20.85689
G1 X143.733 Y49.884 E20.86459
G1 X144.247 Y50.456 E20.9004
G1 X144.7 Y51.078 E20.93623
G1 X145.086 Y51.743 E20.97203
G1 X145.401 Y52.445 E21.00786
G1 X145.641 Y53.176 E21.04369
G1 X145.804 Y53.927 E21.07947
G1 X145.888 Y54.692 E21.11531
G1 X145.9 Y55.117 E21.13511
G1 X145.9 Y164.883 E26.24627
G1 X145.86 Y165.651 E26.28208
G1 X145.741 Y166.411 E26.3179
G1 X145.543 Y167.154 E26.35371
G1 X145.269 Y167.873 E26.38953
G1 X144.922 Y168.559 E26.42533
G1 X144.506 Y169.206 E26.46115
G1 X144.025 Y169.806 E26.49696
G1 X143.733 Y170.116 E26.51679
G1 X143.616 Y170.233 E26.52449
G1 X143.044 Y170.747 E26.5603
G1 X142.422 Y171.2 E26.59613
G1 X141.757 Y171.586 E26.63193
G1 X141.055 Y171.901 E26.66776
G1 X140.324 Y172.141 E26.70359
G1 X139.573 Y172.304 E26.73937
G1 X138.808 Y172.388 E26.77521
G1 X138.383 Y172.4 E26.795
G1 X101.617 Y172.4 E28.50698
G1 X100.849 Y172.36 E28.54279
G1 X100.089 Y172.241 E28.57861
G1 X99.346 Y172.043 E28.61442
G1 X98.627 Y171.769 E28.65025
G1 X97.941 Y171.422 E28.68604
G1 X97.294 Y171.006 E28.72186
G1 X96.694 Y170.525 E28.75767
G1 X96.384 Y170.233 E28.7775
G1 X96.267 Y170.116 E28.7852
G1 X95.753 Y169.544 E28.82101
G1 X95.3 Y168.922 E28.85684
G1 X94.914 Y168.257 E28.89264
G1 X94.599 Y167.555 E28.92847
G1 X94.359 Y166.824 E28.9643
G1 X94.196 Y166.073 E29.00008
G1 X94.112 Y165.308 E29.03592
G1 X94.1 Y164.883 E29.05572
G1 X94.1 Y119.4 E31.17359
G1 X81.617 Y119.4 E31.75486
G1 X80.849 Y119.36 E31.79067
G1 X80.089 Y119.241 E31.82649
G1 X79.346 Y119.043 E31.86229
G1 X78.627 Y118.769 E31.89812
G1 X77.941 Y118.422 E31.93392
G1 X77.294 Y118.006 E31.96973
G1 X76.694 Y117.525 E32.00554
G1 X76.384 Y117.233 E32.02537
G1 X76.267 Y117.116 E32.03308
G1 X75.753 Y116.544 E32.06888
G1 X75.3 Y115.922 E32.10471
G1 X74.914 Y115.257 E32.14052
G1 X74.599 Y114.555 E32.17635
G1 X74.359 Y113.824 E32.21217
G1 X74.196 Y113.073 E32.24796
G1 X74.112 Y112.308 E32.28379
G1 X74.1 Y111.883 E32.30359
G1 X74.1 Y58.167 E34.80483
G1 X74.14 Y57.399 E34.84064
G1 X74.259 Y56.639 E34.87646
G1 X74.457 Y55.896 E34.91226
G1 X74.731 Y55.177 E34.94809
G1 X75.078 Y54.491 E34.98389
G1 X75.494 Y53.844 E35.01971
G0 F6000 X75.892 Y53.978
G1 F1200 X76.55 Y53.217 E35.06655
G1 X76.667 Y53.1 E35.07426
G1 X77.224 Y52.6 E35.10911
G1 X77.83 Y52.163 E35.1439
G1 X78.48 Y51.792 E35.17875
G1 X79.166 Y51.493 E35.21359
G1 X79.88 Y51.269 E35.24844
G1 X80.613 Y51.122 E35.28325
G1 X81.617 Y51.05 E35.33012
G1 X95.811 Y51.05 E35.99105
G1 X95.892 Y50.928 E35.99787
G1 X96.55 Y50.167 E36.04472
G1 X96.667 Y50.05 E36.05242
G1 X97.224 Y49.55 E36.08727
G1 X97.83 Y49.113 E36.12206
G1 X98.48 Y48.742 E36.15691
G1 X99.166 Y48.443 E36.19176
G1 X99.88 Y48.219 E36.2266
G1 X100.613 Y48.072 E36.26142
G1 X101.617 Y48 E36.30829
G1 X138.383 Y48 E38.02026
G1 X139.13 Y48.04 E38.0551
G1 X139.868 Y48.159 E38.08991
G1 X140.59 Y48.357 E38.12477
G1 X141.286 Y48.63 E38.15958
G1 X141.949 Y48.977 E38.19442
G1 X142.572 Y49.392 E38.22928
G1 X143.333 Y50.05 E38.27613
G1 X143.45 Y50.167 E38.28383
G1 X143.95 Y50.724 E38.31868
G1 X144.387 Y51.33 E38.35347
G1 X144.758 Y51.98 E38.38832
G1 X145.057 Y52.666 E38.42317
G1 X145.281 Y53.38 E38.45801
G1 X145.428 Y54.113 E38.49282
G1 X145.5 Y55.117 E38.53969
G1 X145.5 Y164.883 E43.65086
G1 X145.46 Y165.63 E43.68569
G1 X145.341 Y166.368 E43.7205
G1 X145.143 Y167.09 E43.75536
G1 X144.87 Y167.786 E43.79017
G1 X144.523 Y168.449 E43.82502
G1 X144.108 Y169.072 E43.85987
G1 X143.45 Y169.833 E43.90672
G1 X143.333 Y169.95 E43.91442
G1 X142.776 Y170.45 E43.94928
G1 X142.17 Y170.887 E43.98407
G1 X141.52 Y171.258 E44.01892
G1 X140.834 Y171.557 E44.05376
G1 X140.12 Y171.781 E44.08861
G1 X139.387 Y171.928 E44.12342
G1 X138.383 Y172 E44.17029
G1 X101.617 Y172 E45.88227
G1 X100.87 Y171.96 E45.9171
G1 X100.132 Y171.841 E45.95191
G1 X99.41 Y171.643 E45.98677
G1 X98.714 Y171.37 E46.02158
G1 X98.051 Y171.023 E46.05643
G1 X97.428 Y170.608 E46.09128
G1 X96.667 Y169.95 E46.13813
G1 X96.55 Y169.833 E46.14583
G1 X96.05 Y169.276 E46.18069
G1 X95.613 Y168.67 E46.21548
G1 X95.242 Y168.02 E46.25033
G1 X94.943 Y167.334 E46.28517
G1 X94.719 Y166.62 E46.32002
G1 X94.572 Y165.887 E46.35483
G1 X94.5 Y164.883 E46.4017
G1 X94.5 Y119 E48.5382
G1 X81.617 Y119 E49.13809
G1 X80.87 Y118.96 E49.17292
G1 X80.132 Y118.841 E49.20773
G1 X79.41 Y118.643 E49.24259
G1 X78.714 Y118.37 E49.2774
G1 X78.051 Y118.023 E49.31225
G1 X77.428 Y117.608 E49.3471
G1 X76.667 Y116.95 E49.39395
G1 X76.55 Y116.833 E49.40165
G1 X76.05 Y116.276 E49.43651
G1 X75.613 Y115.67 E49.4713
G1 X75.242 Y115.02 E49.50615
G1 X74.943 Y114.334 E49.54099
G1 X74.719 Y113.62 E49.57584
G1 X74.572 Y112.887 E49.61065
G1 X74.5 Y111.883 E49.65752
G1 X74.5 Y58.167 E52.15876
G1 X74.54 Y57.42 E52.19359
G1 X74.659 Y56.682 E52.2284
G1 X74.857 Y55.96 E52.26326
G1 X75.13 Y55.264 E52.29807
G1 X75.477 Y54.601 E52.33292
G1 X75.892 Y53.978 E52.36778
G0 F6000 X76.289 Y54.117
G1 F1200 X76.833 Y53.5 E52.40608
G1 X76.95 Y53.383 E52.41378
G1 X77.491 Y52.899 E52.44758
G1 X78.082 Y52.476 E52.48143
G1 X78.716 Y52.122 E52.51524
G1 X79.385 Y51.839 E52.54906
G1 X80.081 Y51.631 E52.58289
G1 X80.796 Y51.501 E52.61673
G1 X81.617 Y51.45 E52.65503
G1 X96.023 Y51.45 E53.32583
G1 X96.289 Y51.067 E53.34755
G1 X96.833 Y50.45 E53.38585
G1 X96.95 Y50.333 E53.39355
G1 X97.491 Y49.849 E53.42735
G1 X98.082 Y49.426 E53.4612
G1 X98.716 Y49.072 E53.49501
G1 X99.385 Y48.789 E53.52883
G1 X100.081 Y48.581 E53.56266
G1 X100.796 Y48.451 E53.5965
G1 X101.617 Y48.4 E53.6348
G1 X138.383 Y48.4 E55.34678
G1 X139.108 Y48.44 E55.38059
G1 X139.825 Y48.559 E55.41443
G1 X140.524 Y48.757 E55.44826
G1 X141.197 Y49.03 E55.48208
G1 X141.836 Y49.375 E55.51589
G1 X142.433 Y49.789 E55.54972
G1 X143.05 Y50.333 E55.58802
G1 X143.167 Y50.45 E55.59573
G1 X143.651 Y50.991 E55.62953
G1 X144.074 Y51.582 E55.66337
G1 X144.428 Y52.216 E55.69718
G1 X144.711 Y52.885 E55.73101
G1 X144.919 Y53.581 E55.76483
G1 X145.049 Y54.296 E55.79867
G1 X145.1 Y55.117 E55.83697
G1 X145.1 Y164.883 E60.94814
G1 X145.06 Y165.608 E60.98195
G1 X144.941 Y166.325 E61.01579
G1 X144.743 Y167.024 E61.04962
G1 X144.47 Y167.697 E61.08344
G1 X144.125 Y168.336 E61.11725
G1 X143.711 Y168.933 E61.15108
G1 X143.167 Y169.55 E61.18939
G1 X143.05 Y169.667 E61.19709
G1 X142.509 Y170.151 E61.23089
G1 X141.918 Y170.574 E61.26473
G1 X141.284 Y170.928 E61.29854
G1 X140.615 Y171.211 E61.33237
G1 X139.919 Y171.419 E61.36619
G1 X139.204 Y171.549 E61.40003
G1 X138.383 Y171.6 E61.43834
G1 X101.617 Y171.6 E63.15032
G1 X100.892 Y171.56 E63.18413
G1 X100.175 Y171.441 E63.21797
G1 X99.476 Y171.243 E63.2518
G1 X98.803 Y170.97 E63.28562
G1 X98.164 Y170.625 E63.31943
G1 X97.567 Y170.211 E63.35326
G1 X96.95 Y169.667 E63.39156
G1 X96.833 Y169.55 E63.39927
G1 X96.349 Y169.009 E63.43307
G1 X95.926 Y168.418 E63.46691
G1 X95.572 Y167.784 E63.50072
G1 X95.289 Y167.115 E63.53454
G1 X95.081 Y166.419 E63.56837
G1 X94.951 Y165.704 E63.60221
G1 X94.9 Y164.883 E63.64051
G1 X94.9 Y118.6 E65.79564
G1 X81.617 Y118.6 E66.41415
G1 X80.892 Y118.56 E66.44796
G1 X80.175 Y118.441 E66.48181
G1 X79.476 Y118.243 E66.51564
G1 X78.803 Y117.97 E66.54945
G1 X78.164 Y117.625 E66.58327
G1 X77.567 Y117.211 E66.6171
G1 X76.95 Y116.667 E66.6554
G1 X76.833 Y116.55 E66.6631
G1 X76.349 Y116.009 E66.69691
G1 X75.926 Y115.418 E66.73075
G1 X75.572 Y114.784 E66.76456
G1 X75.289 Y114.115 E66.79838
G1 X75.081 Y113.419 E66.83221
G1 X74.951 Y112.704 E66.86605
G1 X74.9 Y111.883 E66.90435
G1 X74.9 Y58.167 E69.40559
G1 X74.94 Y57.442 E69.4394
G1 X75.059 Y56.725 E69.47325
G1 X75.257 Y56.026 E69.50708
G1 X75.53 Y55.353 E69.54089
G1 X75.875 Y54.714 E69.57471
G1 X76.289 Y54.117 E69.60854
G0 F6000 X76.274 Y54.832
G1 F1200 X76.685 Y54.261 E69.6413
G1 X77.116 Y53.783 E69.67127
G1 X77.233 Y53.666 E69.67897
G1 X77.758 Y53.197 E69.71175
G1 X78.333 Y52.791 E69.74453
G1 X78.951 Y52.453 E69.77733
G1 X79.602 Y52.186 E69.81009
G1 X80.28 Y51.996 E69.84288
G1 X80.975 Y51.883 E69.87566
G1 X81.617 Y51.85 E69.9056
G1 X96.236 Y51.85 E70.58632
G1 X96.274 Y51.782 E70.58995
G1 X96.685 Y51.211 E70.62271
G1 X97.116 Y50.733 E70.65268
G1 X97.233 Y50.616 E70.66038
G1 X97.758 Y50.147 E70.69316
G1 X98.333 Y49.741 E70.72594
G1 X98.951 Y49.403 E70.75874
G1 X99.602 Y49.136 E70.7915
G1 X100.28 Y48.946 E70.82429
G1 X100.975 Y48.833 E70.85707
G1 X101.617 Y48.8 E70.88701
G1 X138.383 Y48.8 E72.59899
G1 X139.086 Y48.84 E72.63177
G1 X139.78 Y48.959 E72.66456
G1 X140.455 Y49.157 E72.69732
G1 X141.104 Y49.429 E72.73008
G1 X141.718 Y49.774 E72.76288
G1 X142.289 Y50.185 E72.79564
G1 X142.767 Y50.616 E72.82561
G1 X142.884 Y50.733 E72.83331
G1 X143.353 Y51.258 E72.86609
G1 X143.759 Y51.833 E72.89887
G1 X144.097 Y52.451 E72.93167
G1 X144.364 Y53.102 E72.96443
G1 X144.554 Y53.78 E72.99722
G1 X144.667 Y54.475 E73.03
G1 X144.7 Y55.117 E73.05994
G1 X144.7 Y164.883 E78.1711
G1 X144.66 Y165.586 E78.20389
G1 X144.541 Y166.28 E78.23668
G1 X144.343 Y166.955 E78.26943
G1 X144.071 Y167.604 E78.3022
G1 X143.726 Y168.218 E78.33499
G1 X143.315 Y168.789 E78.36775
G1 X142.884 Y169.267 E78.39772
G1 X142.767 Y169.384 E78.40543
G1 X142.242 Y169.853 E78.43821
G1 X141.667 Y170.259 E78.47098
G1 X141.049 Y170.597 E78.50378
G1 X140.398 Y170.864 E78.53655
G1 X139.72 Y171.054 E78.56933
G1 X139.025 Y171.167 E78.60212
G1 X138.383 Y171.2 E78.63206
G1 X101.617 Y171.2 E80.34403
G1 X100.914 Y171.16 E80.37682
G1 X100.22 Y171.041 E80.40961
G1 X99.545 Y170.843 E80.44236
G1 X98.896 Y170.571 E80.47513
G1 X98.282 Y170.226 E80.50793
G1 X97.711 Y169.815 E80.54069
G1 X97.233 Y169.384 E80.57065
G1 X97.116 Y169.267 E80.57836
G1 X96.647 Y168.742 E80.61114
G1 X96.241 Y168.167 E80.64392
G1 X95.903 Y167.549 E80.67672
G1 X95.636 Y166.898 E80.70948
G1 X95.446 Y166.22 E80.74227
G1 X95.333 Y165.525 E80.77505
G1 X95.3 Y164.883 E80.80499
G1 X95.3 Y118.2 E82.97874
G1 X81.617 Y118.2 E83.61588
G1 X80.914 Y118.16 E83.64867
G1 X80.22 Y118.041 E83.68146
G1 X79.545 Y117.843 E83.71421
G1 X78.896 Y117.571 E83.74698
G1 X78.282 Y117.226 E83.77977
G1 X77.711 Y116.815 E83.81253
G1 X77.233 Y116.384 E83.8425
G1 X77.116 Y116.267 E83.85021
G1 X76.647 Y115.742 E83.88299
G1 X76.241 Y115.167 E83.91576
G1 X75.903 Y114.549 E83.94856
G1 X75.636 Y113.898 E83.98133
G1 X75.446 Y113.22 E84.01411
G1 X75.333 Y112.525 E84.0469
G1 X75.3 Y111.883 E84.07683
G1 X75.3 Y58.167 E86.57807
G1 X75.34 Y57.464 E86.61086
G1 X75.459 Y56.77 E86.64365
G1 X75.657 Y56.095 E86.6764
G1 X75.929 Y55.446 E86.70917
G1 X76.274 Y54.832 E86.74197
G0 F6000 X76.672 Y54.953
G1 F1200 X77.082 Y54.409 E86.77369
G1 X77.399 Y54.066 E86.79543
G1 X77.516 Y53.949 E86.80314
G1 X78.025 Y53.496 E86.83487
G1 X78.583 Y53.107 E86.86654
G1 X79.183 Y52.785 E86.89825
G1 X79.817 Y52.536 E86.92996
G1 X80.476 Y52.363 E86.96169
G1 X81.15 Y52.269 E86.99338
G1 X81.617 Y52.25 E87.01514
G1 X96.469 Y52.25 E87.70671
G1 X96.672 Y51.903 E87.72543
G1 X97.082 Y51.359 E87.75715
G1 X97.399 Y51.016 E87.7789
G1 X97.516 Y50.899 E87.7866
G1 X98.025 Y50.446 E87.81833
G1 X98.583 Y50.057 E87.85001
G1 X99.183 Y49.735 E87.88171
G1 X99.817 Y49.486 E87.91343
G1 X100.476 Y49.313 E87.94516
G1 X101.15 Y49.219 E87.97684
G1 X101.617 Y49.2 E87.99861
G1 X138.383 Y49.2 E89.71059
G1 X139.063 Y49.24 E89.74231
G1 X139.733 Y49.359 E89.77399
G1 X140.385 Y49.556 E89.80571
G1 X141.009 Y49.828 E89.8374
G1 X141.597 Y50.172 E89.86912
G1 X142.141 Y50.582 E89.90084
G1 X142.484 Y50.899 E89.92259
