;FLAVOR:Marlin
;TIME:1210
;Filament used: 0.449954m
;Layer height: 0.12
;MINX:90.335
;MINY:91.836
;MINZ:0.144
;MAXX:145.018
;MAXY:128.906
;MAXZ:7.194
;Generated with Cura_SteamEngine 4.8.0
M140 S60
M105
M190 S60
M104 S200
M105
M109 S200
M82 ;absolute extrusion mode
; Ender 3 Custom Start G-code
G92 E0 ; Reset Extruder
G28 ; Home all axes
G1 Z2.0 F3000 ; Move Z Axis up little to prevent scratching of Heat Bed
G1 X0.1 Y20 Z0.3 F5000.0 ; Move to start position
G1 X0.1 Y200.0 Z0.3 F1500.0 E15 ; Draw the first line
G1 X0.4 Y200.0 Z0.3 F5000.0 ; Move to side a little
G1 X0.4 Y20 Z0.3 F1500.0 E30 ; Draw the second line
G92 E0 ; Reset Extruder
G1 Z2.0 F3000 ; Move Z Axis up little to prevent scratching of Heat Bed
G1 X5 Y20 Z0.3 F5000.0 ; Move over to prevent blob squish
G92 E0
G92 E0
G1 F1500 E-6.5
;LAYER_COUNT:54
;LAYER:-6
M107
G0 F9000 X95.812 Y97.158 Z0.144
;TYPE:SUPPORT-INTERFACE
G1 F1500 E0
G1 F1125 X96.508 Y96.512 E0.04548
G1 X96.647 Y96.393 E0.05424
G1 X97.338 Y95.839 E0.09666
G1 X97.477 Y95.735 E0.10498
G1 X98.192 Y95.243 E0.14655
G1 X98.376 Y95.126 E0.15699
G1 X99.132 Y94.683 E0.19896
G1 X99.274 Y94.606 E0.20669
G1 X100.106 Y94.197 E0.2511
G1 X100.219 Y94.147 E0.25701
G1 X101.074 Y93.802 E0.30117
G1 X101.241 Y93.742 E0.30967
G1 X102.091 Y93.469 E0.35243
G1 X102.238 Y93.428 E0.35974
G1 X103.116 Y93.215 E0.40301
G1 X103.278 Y93.182 E0.41093
G1 X104.171 Y93.034 E0.45428
G1 X104.348 Y93.011 E0.46283
G1 X105.242 Y92.928 E0.50583
G1 X105.384 Y92.921 E0.51264
G1 X106.125 Y92.9 E0.54815
G1 X113.886 Y92.901 E0.91986
G1 X114.887 Y92.937 E0.96783
G1 X115.01 Y92.946 E0.97374
G1 X115.927 Y93.048 E1.01793
G1 X116.102 Y93.073 E1.02639
G1 X116.991 Y93.237 E1.06969
G1 X117.114 Y93.265 E1.07573
G1 X118.012 Y93.5 E1.12019
G1 X118.156 Y93.543 E1.12739
G1 X118.81 Y93.693 E1.15952
G1 X119.489 Y93.763 E1.19222
G1 X120.17 Y93.745 E1.22484
G1 X120.615 Y93.704 E1.24625
G1 X120.77 Y93.695 E1.25368
G1 X121.511 Y93.674 E1.28919
G1 X129.272 Y93.675 E1.6609
G1 X130.273 Y93.711 E1.70887
G1 X130.396 Y93.72 E1.71478
G1 X131.313 Y93.822 E1.75897
G1 X131.488 Y93.847 E1.76743
G1 X132.377 Y94.011 E1.81073
G1 X132.5 Y94.039 E1.81677
G1 X133.394 Y94.273 E1.86103
G1 X133.557 Y94.322 E1.86918
G1 X134.399 Y94.608 E1.91177
G1 X134.565 Y94.672 E1.9203
G1 X135.368 Y95.013 E1.96208
G1 X135.557 Y95.101 E1.97206
G1 X136.351 Y95.509 E2.01482
G1 X136.468 Y95.576 E2.02128
G1 X137.247 Y96.05 E2.06495
G1 X137.398 Y96.15 E2.07362
G1 X138.112 Y96.661 E2.11568
G1 X138.26 Y96.774 E2.1246
G1 X138.952 Y97.351 E2.16775
G1 X139.06 Y97.447 E2.17467
G1 X139.572 Y97.929 E2.20835
G1 X139.728 Y98.086 E2.21895
G1 X140.374 Y98.782 E2.26443
G1 X140.493 Y98.921 E2.27319
G1 X141.047 Y99.612 E2.31561
G1 X141.151 Y99.751 E2.32393
G1 X141.643 Y100.465 E2.36545
G1 X141.759 Y100.648 E2.37583
G1 X142.203 Y101.406 E2.41791
G1 X142.28 Y101.548 E2.42564
G1 X142.683 Y102.367 E2.46936
G1 X142.739 Y102.493 E2.47596
G1 X143.081 Y103.338 E2.51962
G1 X143.14 Y103.503 E2.52802
G1 X143.412 Y104.35 E2.57062
G1 X143.458 Y104.512 E2.57869
G1 X143.67 Y105.386 E2.62176
G1 X143.703 Y105.544 E2.62949
G1 X143.851 Y106.436 E2.6728
G1 X143.875 Y106.622 E2.68178
G1 X143.957 Y107.506 E2.7243
G1 X143.965 Y107.658 E2.73159
G1 X143.986 Y108.391 E2.76671
G1 X143.986 Y113.143 E2.99431
G1 X143.949 Y114.161 E3.0431
G1 X143.94 Y114.284 E3.049
G1 X143.838 Y115.201 E3.09319
G1 X143.813 Y115.375 E3.10161
G1 X143.651 Y116.254 E3.14442
G1 X143.621 Y116.388 E3.151
G1 X143.39 Y117.273 E3.19481
G1 X143.338 Y117.445 E3.20341
G1 X143.052 Y118.287 E3.246
G1 X142.988 Y118.453 E3.25452
G1 X142.647 Y119.256 E3.29631
G1 X142.566 Y119.431 E3.30554
G1 X142.151 Y120.239 E3.34905
G1 X142.084 Y120.356 E3.3555
G1 X141.624 Y121.112 E3.39789
G1 X141.501 Y121.298 E3.40857
G1 X140.999 Y122 E3.4499
G1 X140.886 Y122.148 E3.45882
G1 X140.309 Y122.84 E3.50197
G1 X140.213 Y122.948 E3.50889
G1 X139.693 Y123.498 E3.54515
G1 X139.574 Y123.616 E3.55317
G1 X138.878 Y124.262 E3.59865
G1 X138.739 Y124.381 E3.60742
G1 X138.048 Y124.935 E3.64984
G1 X137.909 Y125.039 E3.65815
G1 X137.194 Y125.531 E3.69972
G1 X137.01 Y125.648 E3.71016
G1 X136.256 Y126.09 E3.75202
G1 X136.112 Y126.168 E3.75987
G1 X135.284 Y126.575 E3.80405
G1 X135.167 Y126.627 E3.81019
G1 X134.312 Y126.972 E3.85434
G1 X134.149 Y127.03 E3.86263
G1 X133.306 Y127.301 E3.90504
G1 X133.142 Y127.347 E3.9132
G1 X132.27 Y127.559 E3.95618
G1 X132.108 Y127.592 E3.9641
G1 X131.215 Y127.74 E4.00745
G1 X131.038 Y127.763 E4.016
G1 X130.144 Y127.846 E4.059
G1 X130.002 Y127.853 E4.06581
G1 X129.261 Y127.874 E4.10131
G1 X121.5 Y127.873 E4.47302
G1 X120.499 Y127.837 E4.521
G1 X120.376 Y127.828 E4.5269
G1 X119.459 Y127.726 E4.57109
G1 X119.284 Y127.701 E4.57956
G1 X118.395 Y127.537 E4.62286
G1 X118.272 Y127.509 E4.6289
G1 X117.374 Y127.274 E4.67336
G1 X117.23 Y127.231 E4.68056
G1 X116.576 Y127.081 E4.71269
G1 X115.897 Y127.011 E4.74538
G1 X115.216 Y127.029 E4.77801
G1 X114.771 Y127.07 E4.79942
G1 X114.616 Y127.079 E4.80685
G1 X113.875 Y127.1 E4.84236
G1 X106.114 Y127.099 E5.21407
G1 X105.113 Y127.063 E5.26204
G1 X104.99 Y127.054 E5.26795
G1 X104.073 Y126.952 E5.31214
G1 X103.898 Y126.927 E5.3206
G1 X103.009 Y126.763 E5.3639
G1 X102.886 Y126.735 E5.36994
G1 X101.992 Y126.501 E5.4142
G1 X101.829 Y126.452 E5.42235
G1 X100.987 Y126.166 E5.46494
G1 X100.821 Y126.102 E5.47346
G1 X100.018 Y125.761 E5.51525
G1 X99.829 Y125.673 E5.52523
G1 X99.035 Y125.265 E5.56799
G1 X98.918 Y125.198 E5.57445
G1 X98.139 Y124.724 E5.61812
G1 X97.988 Y124.624 E5.62679
G1 X97.274 Y124.113 E5.66885
G1 X97.126 Y124 E5.67776
G1 X96.434 Y123.423 E5.72092
G1 X96.326 Y123.327 E5.72784
G1 X95.814 Y122.845 E5.76152
G1 X95.654 Y122.684 E5.77239
G1 X95.01 Y121.99 E5.81773
G1 X94.893 Y121.853 E5.82636
G1 X94.339 Y121.162 E5.86878
G1 X94.235 Y121.023 E5.87709
G1 X93.743 Y120.308 E5.91866
G1 X93.626 Y120.124 E5.92911
G1 X93.183 Y119.368 E5.97107
G1 X93.106 Y119.226 E5.97881
G1 X92.697 Y118.394 E6.02321
G1 X92.647 Y118.281 E6.02913
G1 X92.299 Y117.42 E6.07361
G1 X92.242 Y117.259 E6.08179
G1 X91.97 Y116.411 E6.12444
G1 X91.924 Y116.247 E6.1326
G1 X91.715 Y115.384 E6.17513
G1 X91.68 Y115.214 E6.18344
G1 X91.533 Y114.324 E6.22664
G1 X91.511 Y114.152 E6.23495
G1 X91.428 Y113.253 E6.27819
G1 X91.421 Y113.116 E6.28476
G1 X91.4 Y112.383 E6.31988
G1 X91.4 Y107.631 E6.54748
G1 X91.437 Y106.61 E6.59641
G1 X91.446 Y106.49 E6.60217
G1 X91.548 Y105.573 E6.64636
G1 X91.573 Y105.398 E6.65483
G1 X91.735 Y104.52 E6.69759
G1 X91.765 Y104.386 E6.70417
G1 X91.996 Y103.501 E6.74797
G1 X92.048 Y103.329 E6.75658
G1 X92.334 Y102.487 E6.79917
G1 X92.398 Y102.321 E6.80769
G1 X92.739 Y101.518 E6.84947
G1 X92.82 Y101.343 E6.85871
G1 X93.24 Y100.526 E6.90271
G1 X93.302 Y100.418 E6.90867
G1 X93.776 Y99.639 E6.95235
G1 X93.876 Y99.488 E6.96102
G1 X94.387 Y98.774 E7.00307
G1 X94.5 Y98.626 E7.01199
G1 X95.078 Y97.933 E7.05521
G1 X95.173 Y97.826 E7.06206
G1 X95.655 Y97.314 E7.09574
G1 X95.812 Y97.158 E7.10634
G0 F9000 X96 Y96.983
G1 F1125 X96 Y123.02 E8.35338
G0 F9000 X97.6 Y124.346
G1 F1125 X97.6 Y95.65 E9.72776
G0 F9000 X99.2 Y94.646
G1 F1125 X99.2 Y125.349 E11.19827
G0 F9000 X100.8 Y126.093
G1 F1125 X100.8 Y93.912 E12.73956
G0 F9000 X102.4 Y93.388
G1 F1125 X102.4 Y126.607 E14.33057
G0 F9000 X104 Y126.941
G1 F1125 X104 Y93.062 E15.95319
G0 F9000 X105.6 Y92.914
G1 F1125 X105.6 Y127.08 E17.58956
G0 F9000 X107.2 Y127.099
G1 F1125 X107.2 Y92.901 E19.22746
G0 F9000 X108.8 Y92.901
G1 F1125 X108.8 Y127.099 E20.86536
G0 F9000 X110.4 Y127.099
G1 F1125 X110.4 Y92.901 E22.50326
G0 F9000 X112 Y92.901
G1 F1125 X112 Y127.099 E24.14116
G0 F9000 X113.6 Y127.099
G1 F1125 X113.6 Y92.901 E25.77906
G0 F9000 X115.2 Y92.968
G1 F1125 X115.2 Y127.031 E27.41049
G0 F9000 X116.8 Y127.132
G1 F1125 X116.8 Y93.202 E29.03555
G0 F9000 X118.4 Y93.599
G1 F1125 X118.4 Y127.537 E30.661
G0 F9000 X120 Y127.786
G1 F1125 X120 Y93.749 E32.29119
G0 F9000 X121.6 Y93.675
G1 F1125 X121.6 Y127.873 E33.92909
G0 F9000 X123.2 Y127.873
G1 F1125 X123.2 Y93.675 E35.56699
G0 F9000 X124.8 Y93.675
G1 F1125 X124.8 Y127.873 E37.20489
G0 F9000 X126.4 Y127.873
G1 F1125 X126.4 Y93.675 E38.84279
G0 F9000 X128 Y93.675
G1 F1125 X128 Y127.873 E40.48069
G0 F9000 X129.6 Y127.865
G1 F1125 X129.6 Y93.687 E42.11763
G0 F9000 X131.2 Y93.81
G1 F1125 X131.2 Y127.742 E43.74279
G0 F9000 X132.8 Y127.431
G1 F1125 X132.8 Y94.118 E45.3383
G0 F9000 X134.4 Y94.609
G1 F1125 X134.4 Y126.937 E46.88664
G0 F9000 X136 Y126.224
G1 F1125 X136 Y95.329 E48.36634
G0 F9000 X137.6 Y96.295
G1 F1125 X137.6 Y125.252 E49.75322
G0 F9000 X139.2 Y123.964
G1 F1125 X139.2 Y97.579 E51.01692
G0 F9000 X140.8 Y99.304
G1 F1125 X140.8 Y122.252 E52.11601
G0 F9000 X142.4 Y119.755
G1 F1125 X142.4 Y101.792 E52.97634
G1 F1500 E46.47634
G0 F9000 X143.222 Y101.052
G0 X142.535 Y99.884
G0 X141.308 Y98.237
G0 X139.784 Y96.666
G0 X138.75 Y95.808
G0 X137.012 Y94.661
G0 X135.807 Y94.043
G0 X133.889 Y93.31
G0 X132.585 Y92.968
G0 X130.5 Y92.661
G0 X113.87 Y91.836
G0 X105.161 Y91.868
G0 X103.084 Y92.134
G0 X101.778 Y92.451
G0 X99.81 Y93.165
G0 X98.615 Y93.753
G0 X96.863 Y94.866
G0 X95.806 Y95.712
G0 X94.567 Y96.943
G0 X93.662 Y97.969
G0 X94.4 Y98.756
G1 F1500 E52.97634
G1 F1125 X94.4 Y121.238 E54.0531
G0 F9000 X92.8 Y118.603
G1 F1125 X92.8 Y101.386 E54.87771
G1 F1500 E48.37771
G0 F300 X92.8 Y101.386 Z0.324
G0 F9000 X91.769 Y101.079
G0 X91.036 Y102.997
G0 X90.694 Y104.301
G0 X90.387 Y106.386
G0 X90.336 Y107.606
G0 X90.368 Y113.339
G0 X90.634 Y115.416
G0 X90.953 Y116.725
G0 X91.665 Y118.69
G0 X92.253 Y119.885
G0 X92.883 Y120.877
G0 X93.502 Y121.819
G0 X94.533 Y121.403
;TIME_ELAPSED:71.649219
;LAYER:-5
;TYPE:SUPPORT
G1 F1500 E54.87771
G1 F1125 X97.138 Y124.008 E55.09826
G1 X97.126 Y123.998 E55.0992
G1 X96.433 Y123.422 E55.15315
G1 X96.326 Y123.326 E55.16175
G1 X95.814 Y122.844 E55.20385
G1 X95.653 Y122.683 E55.21748
G1 X95.01 Y121.989 E55.27412
G1 X94.893 Y121.852 E55.28491
G0 F9000 X97.138 Y124.008
G1 F1125 X97.273 Y124.112 E55.29511
G1 X97.988 Y124.623 E55.34772
G1 X98.138 Y124.723 E55.35852
G1 X98.917 Y125.196 E55.41308
G1 X99.035 Y125.264 E55.42123
G1 X99.828 Y125.671 E55.4746
G1 X100.017 Y125.76 E55.4871
G1 X100.515 Y125.971 E55.51948
G1 X92.526 Y117.982 E56.19588
G1 X92.298 Y117.419 E56.23225
G1 X92.242 Y117.258 E56.24245
G1 X91.969 Y116.41 E56.29579
G1 X91.924 Y116.246 E56.30597
G1 X91.834 Y115.876 E56.32877
G1 X102.623 Y126.664 E57.24219
G1 X102.886 Y126.734 E57.25848
G1 X103.009 Y126.762 E57.26604
G1 X103.898 Y126.925 E57.32015
G1 X104.073 Y126.951 E57.33074
G1 X104.354 Y126.982 E57.34766
G1 X91.509 Y114.136 E58.43525
G1 X91.428 Y113.252 E58.48839
G1 X91.421 Y113.115 E58.4966
G1 X91.406 Y112.619 E58.52631
G1 X105.875 Y127.089 E59.75139
G1 X106.114 Y127.098 E59.76571
G1 X107.299 Y127.098 E59.83666
G1 X91.399 Y111.198 E61.18285
G1 X91.399 Y109.784 E61.26751
G1 X108.713 Y127.098 E62.73342
G1 X110.128 Y127.098 E62.81814
G1 X91.399 Y108.37 E64.40381
G1 X91.399 Y107.63 E64.44812
G1 X91.423 Y106.979 E64.48712
G1 X111.542 Y127.098 E66.19052
G1 X112.956 Y127.098 E66.27517
G1 X91.535 Y105.677 E68.08882
G1 X91.547 Y105.572 E68.09514
G1 X91.573 Y105.397 E68.10573
G1 X91.735 Y104.519 E68.15919
G1 X91.744 Y104.472 E68.16205
G1 X114.357 Y127.085 E70.07661
G1 X114.616 Y127.078 E70.09213
G1 X114.771 Y127.069 E70.10142
G1 X115.215 Y127.028 E70.12812
G1 X115.701 Y127.014 E70.15722
G1 X92.039 Y103.353 E72.16056
G1 X92.048 Y103.328 E72.16215
G1 X92.334 Y102.486 E72.21539
G1 X92.398 Y102.32 E72.22604
G1 X92.404 Y102.304 E72.22706
G1 X117.374 Y127.273 E74.34114
G1 X118.272 Y127.508 E74.39671
G1 X118.395 Y127.536 E74.40427
G1 X119.198 Y127.683 E74.45314
G1 X92.831 Y101.317 E76.6855
G1 X93.24 Y100.525 E76.73886
G1 X93.302 Y100.416 E76.74637
G1 X93.318 Y100.389 E76.74825
G1 X120.775 Y127.846 E79.07294
G1 X121.5 Y127.872 E79.11637
G1 X122.215 Y127.872 E79.15917
G1 X93.857 Y99.513 E81.56019
G1 X93.875 Y99.487 E81.56208
G1 X94.386 Y98.773 E81.61465
G1 X94.448 Y98.691 E81.6208
G1 X123.629 Y127.872 E84.09145
G1 X125.044 Y127.872 E84.17617
G1 X95.089 Y97.918 E86.71231
G1 X95.173 Y97.824 E86.71986
G1 X95.654 Y97.313 E86.76187
G1 X95.777 Y97.191 E86.77224
G1 X126.458 Y127.873 E89.36994
G1 X127.873 Y127.873 E89.45465
G1 X96.51 Y96.51 E92.11005
G1 X96.645 Y96.392 E92.12078
G1 X97.29 Y95.876 E92.17023
G1 X129.286 Y127.872 E94.87922
G1 X130.001 Y127.853 E94.92204
G1 X130.143 Y127.846 E94.93055
G1 X130.628 Y127.8 E94.95972
G1 X98.12 Y95.292 E97.71206
G1 X98.191 Y95.243 E97.71722
G1 X98.375 Y95.125 E97.73031
G1 X99.002 Y94.759 E97.77377
G1 X131.872 Y127.629 E100.55676
G1 X132.107 Y127.591 E100.57101
G1 X132.269 Y127.558 E100.58091
G1 X133.03 Y127.373 E100.6278
G1 X99.936 Y94.279 E103.42975
G1 X100.105 Y94.196 E103.44102
G1 X100.218 Y94.147 E103.4484
G1 X100.931 Y93.859 E103.49443
G1 X134.112 Y127.041 E106.30379
G1 X134.148 Y127.03 E106.30605
G1 X134.311 Y126.971 E106.31642
G1 X135.127 Y126.642 E106.3691
G1 X101.987 Y93.502 E109.17495
G1 X102.089 Y93.468 E109.18138
G1 X102.237 Y93.427 E109.19058
G1 X103.114 Y93.215 E109.24459
G1 X136.081 Y126.181 E112.03575
G1 X136.11 Y126.167 E112.03768
G1 X136.255 Y126.089 E112.04754
G1 X136.979 Y125.665 E112.09777
G1 X104.327 Y93.013 E114.8623
G1 X104.347 Y93.01 E114.86351
G1 X105.241 Y92.927 E114.91726
G1 X105.382 Y92.92 E114.92571
G1 X105.641 Y92.913 E114.94122
G1 X137.824 Y125.096 E117.66604
G1 X137.908 Y125.039 E117.67212
G1 X138.047 Y124.935 E117.68252
G1 X138.618 Y124.476 E117.72638
G1 X107.042 Y92.9 E120.3998
G1 X108.456 Y92.9 E120.48446
G1 X139.365 Y123.808 E123.10137
G1 X139.573 Y123.615 E123.11836
G1 X139.692 Y123.498 E123.12835
G1 X140.07 Y123.099 E123.16126
G1 X109.87 Y92.9 E125.71814
G1 X111.285 Y92.901 E125.80285
G1 X140.725 Y122.34 E128.29539
G1 X140.885 Y122.148 E128.31036
G1 X140.998 Y121.999 E128.32155
G1 X141.332 Y121.533 E128.35588
G1 X112.7 Y92.901 E130.78005
G1 X113.885 Y92.901 E130.85099
G1 X114.123 Y92.91 E130.86525
G1 X141.889 Y120.676 E133.2161
G1 X142.083 Y120.355 E133.23855
G1 X142.15 Y120.238 E133.24663
G1 X142.393 Y119.766 E133.27841
G1 X115.644 Y93.017 E135.54315
G1 X115.925 Y93.048 E135.56008
G1 X116.101 Y93.073 E135.57072
G1 X116.99 Y93.236 E135.62483
G1 X117.113 Y93.265 E135.6324
G1 X117.375 Y93.333 E135.6486
G1 X142.84 Y118.798 E137.80463
G1 X142.986 Y118.453 E137.82706
G1 X143.051 Y118.286 E137.83779
G1 X143.227 Y117.771 E137.87037
G1 X119.187 Y93.731 E139.90575
G1 X119.488 Y93.762 E139.92387
G1 X120.169 Y93.744 E139.96465
G1 X120.577 Y93.707 E139.98918
G1 X143.545 Y116.675 E141.9338
G1 X143.62 Y116.388 E141.95156
G1 X143.65 Y116.254 E141.95978
G1 X143.788 Y115.504 E142.00544
G1 X121.958 Y93.674 E143.8537
G1 X123.373 Y93.674 E143.93842
G1 X143.942 Y114.243 E145.67992
G1 X143.948 Y114.16 E145.68491
G1 X143.985 Y113.142 E145.74589
G1 X143.985 Y112.872 E145.76206
G1 X124.787 Y93.674 E147.38748
G1 X126.202 Y93.675 E147.4722
G1 X143.985 Y111.458 E148.97782
G1 X143.985 Y110.044 E149.06247
G1 X127.616 Y93.675 E150.44838
G1 X129.03 Y93.675 E150.53303
G1 X143.985 Y108.629 E151.79918
G1 X143.985 Y108.39 E151.81349
G1 X143.964 Y107.658 E151.85733
G1 X143.956 Y107.506 E151.86644
G1 X143.923 Y107.154 E151.88761
G1 X130.501 Y93.731 E153.02404
G1 X131.312 Y93.821 E153.07289
G1 X131.487 Y93.846 E153.08348
G1 X132.154 Y93.97 E153.12409
G1 X143.696 Y105.512 E154.10131
G1 X143.669 Y105.386 E154.10903
G1 X143.457 Y104.512 E154.16287
G1 X143.411 Y104.349 E154.17301
G1 X143.157 Y103.559 E154.22269
G1 X134.107 Y94.509 E154.98892
G1 X134.398 Y94.608 E155.00733
G1 X134.564 Y94.672 E155.01798
G1 X135.367 Y95.012 E155.07018
G1 X135.555 Y95.1 E155.08261
G1 X136.349 Y95.508 E155.13605
G1 X136.467 Y95.575 E155.14418
G1 X136.775 Y95.763 E155.16578
G1 X141.896 Y100.884 E155.59936
G0 F9000 X141.757 Y100.648
G1 F1125 X141.642 Y100.465 E155.6123
G1 X141.15 Y99.75 E155.66426
G1 X141.045 Y99.612 E155.67464
G1 X140.492 Y98.921 E155.72762
G1 X140.372 Y98.782 E155.73862
G1 X139.727 Y98.085 E155.79547
G1 X139.571 Y97.928 E155.80872
G1 X139.058 Y97.447 E155.85082
G1 X138.951 Y97.35 E155.85947
G1 X138.259 Y96.773 E155.91341
G1 X138.111 Y96.66 E155.92456
G1 X137.397 Y96.15 E155.97709
G1 X137.245 Y96.049 E155.98802
G1 X136.775 Y95.763 E156.02095
G1 F1500 E149.52095
