;FLAVOR:Marlin
;TIME:48145
;Filament used: 47.5527m
;Layer height: 0.28
;MINX:30.723
;MINY:42.553
;MINZ:0.28
;MAXX:199.373
;MAXY:188.153
;MAXZ:56.84
;Generated with Cura_SteamEngine 4.9.1
M140 S60
M105
M190 S60
M104 S200
M105
M109 S200
M82 ;absolute extrusion mode
; Ender 3 Custom Start G-code
G92 E0 ; Reset Extruder
G28 ; Home all axes
G1 Z2.0 F3000 ; Move Z Axis up little to prevent scratching of Heat Bed
G1 X0.1 Y20 Z0.3 F5000.0 ; Move to start position
G1 X0.1 Y200.0 Z0.3 F1500.0 E15 ; Draw the first line
G1 X0.4 Y200.0 Z0.3 F5000.0 ; Move to side a little
G1 X0.4 Y20 Z0.3 F1500.0 E30 ; Draw the second line
G92 E0 ; Reset Extruder
G1 Z2.0 F3000 ; Move Z Axis up little to prevent scratching of Heat Bed
G1 X5 Y20 Z0.3 F5000.0 ; Move over to prevent blob squish
G92 E0
G92 E0
G1 F1500 E-6.5
;LAYER_COUNT:203
;LAYER:0
M107
G0 F6000 X35.745 Y79.043 Z0.28
;TYPE:SKIRT
G1 F1500 E0
G1 F1200 X36.492 Y78.788 E0.03675
G1 X37.261 Y78.609 E0.07352
G1 X38.045 Y78.509 E0.11032
G1 X38.64 Y78.486 E0.13805
G1 X62.172 Y78.486 E1.2338
G1 X62.507 Y77.949 E1.26327
G1 X62.99 Y77.325 E1.30001
G1 X63.395 Y76.888 E1.32776
G1 X63.512 Y76.771 E1.33546
G1 X64.098 Y76.241 E1.37225
G1 X64.734 Y75.774 E1.40899
G1 X65.414 Y75.373 E1.44575
G1 X66.132 Y75.043 E1.48255
G1 X66.879 Y74.788 E1.5193
G1 X67.648 Y74.609 E1.55607
G1 X68.432 Y74.509 E1.59287
G1 X69.027 Y74.486 E1.62059
G1 X78.793 Y74.486 E2.07534
G1 X79.582 Y74.526 E2.11213
G1 X80.362 Y74.645 E2.14887
G1 X81.127 Y74.843 E2.18566
G1 X81.867 Y75.117 E2.22241
G1 X82.576 Y75.465 E2.25918
G1 X83.247 Y75.883 E2.29599
G1 X83.871 Y76.366 E2.33274
G1 X84.308 Y76.771 E2.36048
G1 X84.425 Y76.888 E2.36819
G1 X84.955 Y77.474 E2.40498
G1 X85.422 Y78.11 E2.44172
G1 X85.644 Y78.486 E2.46205
G1 X88.406 Y78.486 E2.59066
G1 X89.195 Y78.526 E2.62745
G1 X89.975 Y78.645 E2.66419
G1 X90.74 Y78.843 E2.70098
G1 X91.48 Y79.117 E2.73773
G1 X92.189 Y79.465 E2.7745
G1 X92.86 Y79.883 E2.81131
G1 X93.484 Y80.366 E2.84806
G1 X93.921 Y80.771 E2.8758
G1 X94.038 Y80.888 E2.88351
G1 X94.568 Y81.474 E2.9203
G1 X94.65 Y81.586 E2.92676
G1 X108.406 Y81.586 E3.5673
G1 X109.195 Y81.626 E3.60408
G1 X109.975 Y81.745 E3.64082
G1 X110.74 Y81.943 E3.67762
G1 X111.48 Y82.217 E3.71436
G1 X112.189 Y82.565 E3.75114
G1 X112.86 Y82.983 E3.78795
G1 X113.484 Y83.466 E3.82469
G1 X113.921 Y83.871 E3.85244
G1 X114.038 Y83.988 E3.86014
G1 X114.568 Y84.574 E3.89693
G1 X115.035 Y85.21 E3.93367
G1 X115.436 Y85.89 E3.97043
G1 X115.766 Y86.608 E4.00723
G1 X116.021 Y87.355 E4.04398
G1 X116.2 Y88.124 E4.08075
G1 X116.3 Y88.908 E4.11755
G1 X116.323 Y89.503 E4.14528
G1 X116.323 Y163.069 E7.57082
G1 X116.283 Y163.858 E7.6076
G1 X116.164 Y164.638 E7.64435
G1 X115.966 Y165.403 E7.68114
G1 X115.692 Y166.143 E7.71788
G1 X115.344 Y166.852 E7.75466
G1 X114.926 Y167.523 E7.79147
G1 X114.443 Y168.147 E7.82822
G1 X114.038 Y168.584 E7.85596
G1 X113.921 Y168.701 E7.86366
G1 X113.335 Y169.231 E7.90045
G1 X112.699 Y169.698 E7.9372
G1 X112.019 Y170.099 E7.97396
G1 X111.301 Y170.429 E8.01075
G1 X110.554 Y170.684 E8.0475
G1 X109.785 Y170.863 E8.08427
G1 X109.001 Y170.963 E8.12107
G1 X108.406 Y170.986 E8.1488
G1 X94.645 Y170.986 E8.78957
G1 X94.443 Y171.247 E8.80494
G1 X94.038 Y171.684 E8.83268
G1 X93.921 Y171.801 E8.84038
G1 X93.335 Y172.331 E8.87718
G1 X92.699 Y172.798 E8.91392
G1 X92.019 Y173.199 E8.95068
G1 X91.301 Y173.529 E8.98747
G1 X90.554 Y173.784 E9.02423
G1 X89.785 Y173.963 E9.06099
G1 X89.001 Y174.063 E9.09779
G1 X88.406 Y174.086 E9.12552
G1 X38.64 Y174.086 E11.44283
G1 X37.851 Y174.046 E11.47962
G1 X37.071 Y173.927 E11.51636
G1 X36.306 Y173.729 E11.55315
G1 X35.566 Y173.455 E11.5899
G1 X34.857 Y173.107 E11.62667
G1 X34.186 Y172.689 E11.66349
G1 X33.562 Y172.206 E11.70023
G1 X33.125 Y171.801 E11.72797
G1 X33.008 Y171.684 E11.73568
G1 X32.478 Y171.098 E11.77247
G1 X32.011 Y170.462 E11.80921
G1 X31.61 Y169.782 E11.84597
G1 X31.28 Y169.064 E11.88276
G1 X31.025 Y168.317 E11.91952
G1 X30.846 Y167.548 E11.95628
G1 X30.746 Y166.764 E11.99309
G1 X30.723 Y166.169 E12.02081
G1 X30.723 Y86.403 E15.73505
G1 X30.763 Y85.614 E15.77184
G1 X30.882 Y84.834 E15.80858
G1 X31.08 Y84.069 E15.84537
G1 X31.354 Y83.329 E15.88212
G1 X31.702 Y82.62 E15.91889
G1 X32.12 Y81.949 E15.9557
G1 X32.603 Y81.325 E15.99245
G1 X33.008 Y80.888 E16.02019
G1 X33.125 Y80.771 E16.0279
G1 X33.711 Y80.241 E16.06469
G1 X34.347 Y79.774 E16.10143
G1 X35.027 Y79.373 E16.13819
G1 X35.745 Y79.043 E16.17498
G0 F6000 X35.968 Y79.385
G1 F1200 X36.699 Y79.145 E16.21081
G1 X37.45 Y78.982 E16.24659
G1 X38.215 Y78.898 E16.28243
G1 X38.64 Y78.886 E16.30223
G1 X62.408 Y78.886 E17.40896
G1 X62.488 Y78.727 E17.41725
G1 X62.904 Y78.08 E17.45307
G1 X63.385 Y77.48 E17.48888
G1 X63.677 Y77.17 E17.50871
G1 X63.794 Y77.053 E17.51641
G1 X64.366 Y76.539 E17.55222
G1 X64.988 Y76.086 E17.58805
G1 X65.653 Y75.7 E17.62385
G1 X66.355 Y75.385 E17.65968
G1 X67.086 Y75.145 E17.69551
G1 X67.837 Y74.982 E17.73129
G1 X68.602 Y74.898 E17.76713
G1 X69.027 Y74.886 E17.78693
G1 X78.793 Y74.886 E18.24167
G1 X79.561 Y74.926 E18.27748
G1 X80.321 Y75.045 E18.3133
G1 X81.064 Y75.243 E18.34911
G1 X81.783 Y75.517 E18.38493
G1 X82.469 Y75.864 E18.42073
G1 X83.116 Y76.28 E18.45655
G1 X83.716 Y76.761 E18.49236
G1 X84.026 Y77.053 E18.51219
G1 X84.143 Y77.17 E18.51989
G1 X84.657 Y77.742 E18.5557
G1 X85.11 Y78.364 E18.59153
G1 X85.413 Y78.886 E18.61963
G1 X88.406 Y78.886 E18.759
G1 X89.174 Y78.926 E18.79481
G1 X89.934 Y79.045 E18.83063
G1 X90.677 Y79.243 E18.86644
G1 X91.396 Y79.517 E18.90226
G1 X92.082 Y79.864 E18.93806
G1 X92.729 Y80.28 E18.97388
G1 X93.329 Y80.761 E19.00969
G1 X93.639 Y81.053 E19.02952
G1 X93.756 Y81.17 E19.03722
G1 X94.27 Y81.742 E19.07303
G1 X94.448 Y81.986 E19.08709
G1 X108.406 Y81.986 E19.73704
G1 X109.174 Y82.026 E19.77285
G1 X109.934 Y82.145 E19.80867
G1 X110.677 Y82.343 E19.84447
G1 X111.396 Y82.617 E19.8803
G1 X112.082 Y82.964 E19.9161
G1 X112.729 Y83.38 E19.95191
G1 X113.329 Y83.861 E19.98772
G1 X113.639 Y84.153 E20.00755
G1 X113.756 Y84.27 E20.01525
G1 X114.27 Y84.842 E20.05106
G1 X114.723 Y85.464 E20.08689
G1 X115.109 Y86.129 E20.1227
G1 X115.424 Y86.831 E20.15853
G1 X115.664 Y87.562 E20.19435
G1 X115.827 Y88.313 E20.23013
G1 X115.911 Y89.078 E20.26597
G1 X115.923 Y89.503 E20.28577
G1 X115.923 Y163.069 E23.71131
G1 X115.883 Y163.837 E23.74712
G1 X115.764 Y164.597 E23.78294
G1 X115.566 Y165.34 E23.81874
G1 X115.292 Y166.059 E23.85457
G1 X114.945 Y166.745 E23.89037
G1 X114.529 Y167.392 E23.92619
G1 X114.048 Y167.992 E23.96199
G1 X113.756 Y168.302 E23.98182
G1 X113.639 Y168.419 E23.98953
G1 X113.067 Y168.933 E24.02534
G1 X112.445 Y169.386 E24.06117
G1 X111.78 Y169.772 E24.09697
G1 X111.078 Y170.087 E24.1328
G1 X110.347 Y170.327 E24.16863
G1 X109.596 Y170.49 E24.20441
G1 X108.831 Y170.574 E24.24024
G1 X108.406 Y170.586 E24.26004
G1 X94.454 Y170.586 E24.90971
G1 X94.048 Y171.092 E24.93991
G1 X93.756 Y171.402 E24.95974
G1 X93.639 Y171.519 E24.96745
G1 X93.067 Y172.033 E25.00326
G1 X92.445 Y172.486 E25.03909
G1 X91.78 Y172.872 E25.07489
G1 X91.078 Y173.187 E25.11072
G1 X90.347 Y173.427 E25.14655
G1 X89.596 Y173.59 E25.18233
G1 X88.831 Y173.674 E25.21817
G1 X88.406 Y173.686 E25.23796
G1 X38.64 Y173.686 E27.55528
G1 X37.872 Y173.646 E27.59109
G1 X37.112 Y173.527 E27.62691
G1 X36.369 Y173.329 E27.66271
G1 X35.65 Y173.055 E27.69854
G1 X34.964 Y172.708 E27.73434
G1 X34.317 Y172.292 E27.77015
G1 X33.717 Y171.811 E27.80596
G1 X33.407 Y171.519 E27.82579
G1 X33.29 Y171.402 E27.8335
G1 X32.776 Y170.83 E27.8693
G1 X32.323 Y170.208 E27.90513
G1 X31.937 Y169.543 E27.94094
G1 X31.622 Y168.841 E27.97677
G1 X31.382 Y168.11 E28.01259
G1 X31.219 Y167.359 E28.04838
G1 X31.135 Y166.594 E28.08421
G1 X31.123 Y166.169 E28.10401
G1 X31.123 Y86.403 E31.81825
G1 X31.163 Y85.635 E31.85406
G1 X31.282 Y84.875 E31.88988
G1 X31.48 Y84.132 E31.92568
G1 X31.754 Y83.413 E31.96151
G1 X32.101 Y82.727 E31.99731
G1 X32.517 Y82.08 E32.03313
G1 X32.998 Y81.48 E32.06893
G1 X33.29 Y81.17 E32.08876
G1 X33.407 Y81.053 E32.09647
G1 X33.979 Y80.539 E32.13228
G1 X34.601 Y80.086 E32.16811
G1 X35.266 Y79.7 E32.20391
G1 X35.968 Y79.385 E32.23974
G0 F6000 X36.189 Y79.729
G1 F1200 X36.903 Y79.505 E32.27458
G1 X37.636 Y79.358 E32.30939
G1 X38.64 Y79.286 E32.35626
G1 X62.652 Y79.286 E33.47436
G1 X62.887 Y78.837 E33.49796
G1 X63.302 Y78.214 E33.53282
G1 X63.96 Y77.453 E33.57966
G1 X64.077 Y77.336 E33.58737
G1 X64.634 Y76.836 E33.62222
G1 X65.24 Y76.399 E33.65701
G1 X65.89 Y76.028 E33.69186
G1 X66.576 Y75.729 E33.72671
G1 X67.29 Y75.505 E33.76155
G1 X68.023 Y75.358 E33.79636
G1 X69.027 Y75.286 E33.84323
G1 X78.793 Y75.286 E34.29798
G1 X79.54 Y75.326 E34.33281
G1 X80.278 Y75.445 E34.36762
G1 X81 Y75.643 E34.40248
G1 X81.696 Y75.916 E34.43729
G1 X82.359 Y76.263 E34.47214
G1 X82.982 Y76.678 E34.50699
G1 X83.743 Y77.336 E34.55384
G1 X83.86 Y77.453 E34.56154
G1 X84.36 Y78.01 E34.5964
G1 X84.797 Y78.616 E34.63119
G1 X85.168 Y79.266 E34.66604
G1 X85.177 Y79.286 E34.66706
G1 X88.406 Y79.286 E34.81741
G1 X89.153 Y79.326 E34.85225
G1 X89.891 Y79.445 E34.88705
G1 X90.613 Y79.643 E34.92191
G1 X91.309 Y79.916 E34.95673
G1 X91.972 Y80.263 E34.99157
G1 X92.595 Y80.678 E35.02643
G1 X93.356 Y81.336 E35.07327
G1 X93.473 Y81.453 E35.08098
G1 X93.973 Y82.01 E35.11583
G1 X94.244 Y82.386 E35.13741
G1 X108.406 Y82.386 E35.79685
G1 X109.153 Y82.426 E35.83169
G1 X109.891 Y82.545 E35.8665
G1 X110.613 Y82.743 E35.90136
G1 X111.309 Y83.016 E35.93617
G1 X111.972 Y83.363 E35.97101
G1 X112.595 Y83.778 E36.00587
G1 X113.356 Y84.436 E36.05272
G1 X113.473 Y84.553 E36.06042
G1 X113.973 Y85.11 E36.09527
G1 X114.41 Y85.716 E36.13006
G1 X114.781 Y86.366 E36.16491
G1 X115.08 Y87.052 E36.19976
G1 X115.304 Y87.766 E36.2346
G1 X115.451 Y88.499 E36.26941
G1 X115.523 Y89.503 E36.31628
G1 X115.523 Y163.069 E39.74183
G1 X115.483 Y163.816 E39.77666
G1 X115.364 Y164.554 E39.81147
G1 X115.166 Y165.276 E39.84633
G1 X114.893 Y165.972 E39.88114
G1 X114.546 Y166.635 E39.91598
G1 X114.131 Y167.258 E39.95084
G1 X113.473 Y168.019 E39.99769
G1 X113.356 Y168.136 E40.00539
G1 X112.799 Y168.636 E40.04024
G1 X112.193 Y169.073 E40.07503
G1 X111.543 Y169.444 E40.10988
G1 X110.857 Y169.743 E40.14473
G1 X110.143 Y169.967 E40.17957
G1 X109.41 Y170.114 E40.21438
G1 X108.406 Y170.186 E40.26125
G1 X94.246 Y170.186 E40.9206
G1 X94.131 Y170.358 E40.93024
G1 X93.473 Y171.119 E40.97708
G1 X93.356 Y171.236 E40.98479
G1 X92.799 Y171.736 E41.01964
G1 X92.193 Y172.173 E41.05443
G1 X91.543 Y172.544 E41.08928
G1 X90.857 Y172.843 E41.12413
G1 X90.143 Y173.067 E41.15897
G1 X89.41 Y173.214 E41.19378
G1 X88.406 Y173.286 E41.24065
G1 X38.64 Y173.286 E43.55796
G1 X37.893 Y173.246 E43.5928
G1 X37.155 Y173.127 E43.62761
G1 X36.433 Y172.929 E43.66247
G1 X35.737 Y172.656 E43.69728
G1 X35.074 Y172.309 E43.73212
G1 X34.451 Y171.894 E43.76698
G1 X33.69 Y171.236 E43.81383
G1 X33.573 Y171.119 E43.82153
G1 X33.073 Y170.562 E43.85638
G1 X32.636 Y169.956 E43.89117
G1 X32.265 Y169.306 E43.92602
G1 X31.966 Y168.62 E43.96087
G1 X31.742 Y167.906 E43.99571
G1 X31.595 Y167.173 E44.03052
G1 X31.523 Y166.169 E44.07739
G1 X31.523 Y86.403 E47.79163
G1 X31.563 Y85.656 E47.82647
G1 X31.682 Y84.918 E47.86127
G1 X31.88 Y84.196 E47.89614
G1 X32.153 Y83.5 E47.93095
G1 X32.5 Y82.837 E47.96579
G1 X32.915 Y82.214 E48.00065
G1 X33.573 Y81.453 E48.04749
G1 X33.69 Y81.336 E48.0552
G1 X34.247 Y80.836 E48.09005
G1 X34.853 Y80.399 E48.12484
G1 X35.503 Y80.028 E48.15969
G1 X36.189 Y79.729 E48.19454
G0 F6000 X36.408 Y80.075
G1 F1200 X37.104 Y79.867 E48.22836
G1 X37.819 Y79.737 E48.2622
G1 X38.64 Y79.686 E48.3005
G1 X62.901 Y79.686 E49.4302
G1 X62.94 Y79.589 E49.43507
G1 X63.285 Y78.95 E49.46888
G1 X63.699 Y78.353 E49.50271
G1 X64.243 Y77.736 E49.54101
G1 X64.36 Y77.619 E49.54872
G1 X64.901 Y77.135 E49.58252
G1 X65.492 Y76.712 E49.61636
G1 X66.126 Y76.358 E49.65017
G1 X66.795 Y76.075 E49.68399
G1 X67.491 Y75.867 E49.71782
G1 X68.206 Y75.737 E49.75166
G1 X69.027 Y75.686 E49.78996
G1 X78.793 Y75.686 E50.24471
G1 X79.518 Y75.726 E50.27852
G1 X80.235 Y75.845 E50.31236
G1 X80.934 Y76.043 E50.34619
G1 X81.607 Y76.316 E50.38001
G1 X82.246 Y76.661 E50.41382
G1 X82.843 Y77.075 E50.44765
G1 X83.46 Y77.619 E50.48595
G1 X83.577 Y77.736 E50.49366
G1 X84.061 Y78.277 E50.52746
G1 X84.484 Y78.868 E50.5613
G1 X84.838 Y79.502 E50.59511
G1 X84.916 Y79.686 E50.60442
G1 X88.406 Y79.686 E50.76693
G1 X89.131 Y79.726 E50.80074
G1 X89.848 Y79.845 E50.83458
G1 X90.547 Y80.043 E50.86841
G1 X91.22 Y80.316 E50.90223
G1 X91.859 Y80.661 E50.93604
G1 X92.456 Y81.075 E50.96987
G1 X93.073 Y81.619 E51.00817
G1 X93.19 Y81.736 E51.01588
G1 X93.674 Y82.277 E51.04968
G1 X94.038 Y82.786 E51.07882
G1 X108.406 Y82.786 E51.74785
G1 X109.131 Y82.826 E51.78166
G1 X109.848 Y82.945 E51.81551
G1 X110.547 Y83.143 E51.84934
G1 X111.22 Y83.416 E51.88315
G1 X111.859 Y83.761 E51.91697
G1 X112.456 Y84.175 E51.9508
G1 X113.073 Y84.719 E51.9891
G1 X113.19 Y84.836 E51.9968
G1 X113.674 Y85.377 E52.0306
G1 X114.097 Y85.968 E52.06445
G1 X114.451 Y86.602 E52.09826
G1 X114.734 Y87.271 E52.13208
G1 X114.942 Y87.967 E52.16591
G1 X115.072 Y88.682 E52.19975
G1 X115.123 Y89.503 E52.23805
G1 X115.123 Y163.069 E55.66359
G1 X115.083 Y163.794 E55.6974
G1 X114.964 Y164.511 E55.73124
G1 X114.766 Y165.21 E55.76507
G1 X114.493 Y165.883 E55.79889
G1 X114.148 Y166.522 E55.83271
G1 X113.734 Y167.119 E55.86653
G1 X113.19 Y167.736 E55.90484
G1 X113.073 Y167.853 E55.91254
G1 X112.532 Y168.337 E55.94634
G1 X111.941 Y168.76 E55.98018
G1 X111.307 Y169.114 E56.014
G1 X110.638 Y169.397 E56.04782
G1 X109.942 Y169.605 E56.08165
G1 X109.227 Y169.735 E56.11548
G1 X108.406 Y169.786 E56.15379
G1 X94.034 Y169.786 E56.82301
G1 X93.734 Y170.219 E56.84754
G1 X93.19 Y170.836 E56.88584
G1 X93.073 Y170.953 E56.89354
G1 X92.532 Y171.437 E56.92734
G1 X91.941 Y171.86 E56.96119
G1 X91.307 Y172.214 E56.995
G1 X90.638 Y172.497 E57.02882
G1 X89.942 Y172.705 E57.06265
G1 X89.227 Y172.835 E57.09649
G1 X88.406 Y172.886 E57.13479
G1 X38.64 Y172.886 E59.4521
G1 X37.915 Y172.846 E59.48591
G1 X37.198 Y172.727 E59.51976
G1 X36.499 Y172.529 E59.55359
G1 X35.826 Y172.256 E59.5874
G1 X35.187 Y171.911 E59.62122
G1 X34.59 Y171.497 E59.65505
G1 X33.973 Y170.953 E59.69335
G1 X33.856 Y170.836 E59.70105
G1 X33.372 Y170.295 E59.73485
G1 X32.949 Y169.704 E59.7687
G1 X32.595 Y169.07 E59.80251
G1 X32.312 Y168.401 E59.83633
G1 X32.104 Y167.705 E59.87016
G1 X31.974 Y166.99 E59.904
G1 X31.923 Y166.169 E59.9423
G1 X31.923 Y86.403 E63.65654
G1 X31.963 Y85.678 E63.69035
G1 X32.082 Y84.961 E63.72419
G1 X32.28 Y84.262 E63.75802
G1 X32.553 Y83.589 E63.79184
G1 X32.898 Y82.95 E63.82565
G1 X33.312 Y82.353 E63.85948
G1 X33.856 Y81.736 E63.89779
G1 X33.973 Y81.619 E63.90549
G1 X34.514 Y81.135 E63.93929
G1 X35.105 Y80.712 E63.97313
G1 X35.739 Y80.358 E64.00694
G1 X36.408 Y80.075 E64.04077
G0 F6000 X36.625 Y80.422
G1 F1200 X37.303 Y80.232 E64.07356
G1 X37.998 Y80.119 E64.10634
G1 X38.64 Y80.086 E64.13628
G1 X63.17 Y80.086 E65.2785
G1 X63.339 Y79.682 E65.29889
G1 X63.684 Y79.068 E65.33168
G1 X64.095 Y78.497 E65.36444
G1 X64.526 Y78.019 E65.39441
G1 X64.643 Y77.902 E65.40212
G1 X65.168 Y77.433 E65.4349
G1 X65.743 Y77.027 E65.46767
G1 X66.361 Y76.689 E65.50047
G1 X67.012 Y76.422 E65.53324
G1 X67.69 Y76.232 E65.56602
G1 X68.385 Y76.119 E65.59881
G1 X69.027 Y76.086 E65.62874
G1 X78.793 Y76.086 E66.08349
G1 X79.496 Y76.126 E66.11628
G1 X80.19 Y76.245 E66.14906
G1 X80.865 Y76.443 E66.18182
G1 X81.514 Y76.715 E66.21459
G1 X82.128 Y77.06 E66.24738
G1 X82.699 Y77.471 E66.28014
G1 X83.177 Y77.902 E66.31011
G1 X83.294 Y78.019 E66.31781
G1 X83.763 Y78.544 E66.35059
G1 X84.169 Y79.119 E66.38337
G1 X84.507 Y79.737 E66.41617
G1 X84.65 Y80.086 E66.43373
G1 X88.406 Y80.086 E66.60863
G1 X89.109 Y80.126 E66.64141
G1 X89.803 Y80.245 E66.6742
G1 X90.478 Y80.443 E66.70696
G1 X91.127 Y80.715 E66.73972
G1 X91.741 Y81.06 E66.77252
G1 X92.312 Y81.471 E66.80528
G1 X92.79 Y81.902 E66.83525
G1 X92.907 Y82.019 E66.84295
G1 X93.376 Y82.544 E66.87573
G1 X93.782 Y83.119 E66.90851
G1 X93.819 Y83.186 E66.91207
G1 X108.406 Y83.186 E67.5913
G1 X109.109 Y83.226 E67.62409
G1 X109.803 Y83.345 E67.65688
G1 X110.478 Y83.543 E67.68963
G1 X111.127 Y83.815 E67.7224
