;FLAVOR:Marlin
;TIME:891
;Filament used: 0.301825m
;Layer height: 0.12
;MINX:90.336
;MINY:91.888
;MINZ:0.144
;MAXX:129.631
;MAXY:128.164
;MAXZ:7.194
;Generated with Cura_SteamEngine 4.8.0
M140 S60
M105
M190 S60
M104 S200
M105
M109 S200
M82 ;absolute extrusion mode
; Ender 3 Custom Start G-code
G92 E0 ; Reset Extruder
G28 ; Home all axes
G1 Z2.0 F3000 ; Move Z Axis up little to prevent scratching of Heat Bed
G1 X0.1 Y20 Z0.3 F5000.0 ; Move to start position
G1 X0.1 Y200.0 Z0.3 F1500.0 E15 ; Draw the first line
G1 X0.4 Y200.0 Z0.3 F5000.0 ; Move to side a little
G1 X0.4 Y20 Z0.3 F1500.0 E30 ; Draw the second line
G92 E0 ; Reset Extruder
G1 Z2.0 F3000 ; Move Z Axis up little to prevent scratching of Heat Bed
G1 X5 Y20 Z0.3 F5000.0 ; Move over to prevent blob squish
G92 E0
G92 E0
G1 F1500 E-6.5
;LAYER_COUNT:54
;LAYER:-6
M107
G0 F9000 X95.812 Y97.158 Z0.144
;TYPE:SUPPORT-INTERFACE
G1 F1500 E0
G1 F1125 X96.508 Y96.512 E0.04548
G1 X96.647 Y96.393 E0.05424
G1 X97.338 Y95.839 E0.09666
G1 X97.477 Y95.735 E0.10498
G1 X98.192 Y95.243 E0.14655
G1 X98.376 Y95.126 E0.15699
G1 X99.132 Y94.683 E0.19896
G1 X99.274 Y94.606 E0.20669
G1 X100.106 Y94.197 E0.2511
G1 X100.219 Y94.147 E0.25701
G1 X101.069 Y93.804 E0.30091
G1 X101.242 Y93.742 E0.30972
G1 X102.08 Y93.473 E0.35187
G1 X102.244 Y93.427 E0.36003
G1 X103.116 Y93.215 E0.40301
G1 X103.278 Y93.182 E0.41093
G1 X104.171 Y93.034 E0.45428
G1 X104.348 Y93.011 E0.46283
G1 X105.242 Y92.928 E0.50583
G1 X105.384 Y92.921 E0.51264
G1 X106.125 Y92.9 E0.54814
G1 X113.886 Y92.901 E0.91985
G1 X114.887 Y92.937 E0.96783
G1 X115.01 Y92.946 E0.97373
G1 X115.927 Y93.048 E1.01792
G1 X116.102 Y93.073 E1.02639
G1 X116.991 Y93.237 E1.06969
G1 X117.114 Y93.265 E1.07573
G1 X118.008 Y93.499 E1.11999
G1 X118.171 Y93.548 E1.12814
G1 X119.013 Y93.834 E1.17073
G1 X119.179 Y93.898 E1.17925
G1 X119.982 Y94.239 E1.22103
G1 X120.171 Y94.327 E1.23102
G1 X120.965 Y94.735 E1.27377
G1 X121.082 Y94.802 E1.28023
G1 X121.861 Y95.276 E1.32391
G1 X122.012 Y95.376 E1.33258
G1 X122.726 Y95.887 E1.37463
G1 X122.874 Y96 E1.38355
G1 X123.566 Y96.577 E1.4267
G1 X123.674 Y96.673 E1.43362
G1 X124.186 Y97.155 E1.4673
G1 X124.306 Y97.275 E1.47543
G1 X124.988 Y98.008 E1.52338
G1 X125.107 Y98.147 E1.53215
G1 X125.661 Y98.838 E1.57457
G1 X125.765 Y98.977 E1.58288
G1 X126.257 Y99.692 E1.62445
G1 X126.374 Y99.876 E1.63489
G1 X126.814 Y100.625 E1.6765
G1 X126.887 Y100.759 E1.68381
G1 X127.292 Y101.582 E1.72774
G1 X127.353 Y101.719 E1.73492
G1 X127.695 Y102.564 E1.77858
G1 X127.754 Y102.73 E1.78702
G1 X128.025 Y103.572 E1.82938
G1 X128.072 Y103.738 E1.83765
G1 X128.283 Y104.607 E1.88048
G1 X128.317 Y104.77 E1.88845
G1 X128.465 Y105.662 E1.93176
G1 X128.489 Y105.848 E1.94074
G1 X128.57 Y106.732 E1.98325
G1 X128.579 Y106.884 E1.99055
G1 X128.6 Y107.617 E2.02567
G1 X128.6 Y112.369 E2.25326
G1 X128.564 Y113.375 E2.30148
G1 X128.554 Y113.51 E2.30796
G1 X128.452 Y114.427 E2.35215
G1 X128.427 Y114.602 E2.36062
G1 X128.265 Y115.48 E2.40338
G1 X128.235 Y115.614 E2.40995
G1 X128.004 Y116.499 E2.45376
G1 X127.952 Y116.671 E2.46237
G1 X127.666 Y117.513 E2.50496
G1 X127.602 Y117.679 E2.51348
G1 X127.261 Y118.482 E2.55526
G1 X127.18 Y118.657 E2.5645
G1 X126.776 Y119.443 E2.60682
G1 X126.698 Y119.582 E2.61446
G1 X126.224 Y120.361 E2.65813
G1 X126.124 Y120.512 E2.66681
G1 X125.613 Y121.226 E2.70886
G1 X125.5 Y121.374 E2.71778
G1 X124.923 Y122.066 E2.76093
G1 X124.827 Y122.174 E2.76785
G1 X124.345 Y122.686 E2.80153
G1 X124.188 Y122.842 E2.81213
G1 X123.503 Y123.478 E2.8569
G1 X123.355 Y123.605 E2.86624
G1 X122.662 Y124.161 E2.90879
G1 X122.523 Y124.265 E2.91711
G1 X121.808 Y124.757 E2.95868
G1 X121.624 Y124.874 E2.96912
G1 X120.868 Y125.317 E3.01109
G1 X120.726 Y125.394 E3.01882
G1 X119.898 Y125.801 E3.06301
G1 X119.781 Y125.853 E3.06914
G1 X118.926 Y126.198 E3.1133
G1 X118.763 Y126.256 E3.12159
G1 X117.92 Y126.527 E3.164
G1 X117.756 Y126.573 E3.17216
G1 X116.884 Y126.785 E3.21514
G1 X116.722 Y126.818 E3.22305
G1 X115.829 Y126.966 E3.26641
G1 X115.652 Y126.989 E3.27496
G1 X114.758 Y127.072 E3.31796
G1 X114.616 Y127.079 E3.32477
G1 X113.875 Y127.1 E3.36027
G1 X106.114 Y127.099 E3.73198
G1 X105.113 Y127.063 E3.77995
G1 X104.99 Y127.054 E3.78586
G1 X104.073 Y126.952 E3.83005
G1 X103.898 Y126.927 E3.83852
G1 X103.009 Y126.763 E3.88182
G1 X102.886 Y126.735 E3.88786
G1 X101.992 Y126.501 E3.93212
G1 X101.829 Y126.452 E3.94027
G1 X100.987 Y126.166 E3.98286
G1 X100.821 Y126.102 E3.99138
G1 X100.018 Y125.761 E4.03316
G1 X99.829 Y125.673 E4.04315
G1 X99.035 Y125.265 E4.0859
G1 X98.918 Y125.198 E4.09236
G1 X98.139 Y124.724 E4.13604
G1 X97.988 Y124.624 E4.14471
G1 X97.274 Y124.113 E4.18676
G1 X97.126 Y124 E4.19568
G1 X96.434 Y123.423 E4.23883
G1 X96.326 Y123.327 E4.24575
G1 X95.814 Y122.845 E4.27943
G1 X95.654 Y122.684 E4.2903
G1 X95.01 Y121.99 E4.33565
G1 X94.893 Y121.853 E4.34428
G1 X94.343 Y121.167 E4.38639
G1 X94.227 Y121.011 E4.3957
G1 X93.743 Y120.308 E4.43658
G1 X93.626 Y120.124 E4.44702
G1 X93.183 Y119.368 E4.48899
G1 X93.106 Y119.226 E4.49672
G1 X92.697 Y118.394 E4.54113
G1 X92.647 Y118.281 E4.54705
G1 X92.298 Y117.417 E4.59168
G1 X92.242 Y117.259 E4.5997
G1 X91.97 Y116.411 E4.64236
G1 X91.928 Y116.261 E4.64982
G1 X91.712 Y115.373 E4.69359
G1 X91.683 Y115.23 E4.70058
G1 X91.533 Y114.324 E4.74456
G1 X91.511 Y114.152 E4.75286
G1 X91.428 Y113.253 E4.7961
G1 X91.421 Y113.116 E4.80267
G1 X91.4 Y112.383 E4.8378
G1 X91.4 Y107.631 E5.06539
G1 X91.436 Y106.625 E5.1136
G1 X91.446 Y106.49 E5.12009
G1 X91.547 Y105.575 E5.16418
G1 X91.573 Y105.4 E5.17265
G1 X91.735 Y104.52 E5.21551
G1 X91.765 Y104.386 E5.22208
G1 X91.996 Y103.5 E5.26594
G1 X92.048 Y103.329 E5.2745
G1 X92.334 Y102.487 E5.31709
G1 X92.398 Y102.321 E5.32561
G1 X92.739 Y101.518 E5.36739
G1 X92.82 Y101.343 E5.37663
G1 X93.235 Y100.535 E5.42013
G1 X93.302 Y100.418 E5.42659
G1 X93.776 Y99.639 E5.47026
G1 X93.876 Y99.488 E5.47894
G1 X94.392 Y98.767 E5.5214
G1 X94.5 Y98.626 E5.52991
G1 X95.077 Y97.934 E5.57306
G1 X95.173 Y97.826 E5.57998
G1 X95.655 Y97.314 E5.61366
G1 X95.812 Y97.158 E5.62426
G0 F9000 X96 Y96.983
G1 F1125 X96 Y123.02 E6.87129
G0 F9000 X97.6 Y124.346
G1 F1125 X97.6 Y95.65 E8.24567
G0 F9000 X99.2 Y94.646
G1 F1125 X99.2 Y125.349 E9.71618
G0 F9000 X100.8 Y126.093
G1 F1125 X100.8 Y93.912 E11.25748
G0 F9000 X102.4 Y93.389
G1 F1125 X102.4 Y126.607 E12.84844
G0 F9000 X104 Y126.941
G1 F1125 X104 Y93.062 E14.47106
G0 F9000 X105.6 Y92.914
G1 F1125 X105.6 Y127.08 E16.10743
G0 F9000 X107.2 Y127.099
G1 F1125 X107.2 Y92.901 E17.74533
G0 F9000 X108.8 Y92.901
G1 F1125 X108.8 Y127.099 E19.38323
G0 F9000 X110.4 Y127.099
G1 F1125 X110.4 Y92.901 E21.02113
G0 F9000 X112 Y92.901
G1 F1125 X112 Y127.099 E22.65903
G0 F9000 X113.6 Y127.099
G1 F1125 X113.6 Y92.901 E24.29693
G0 F9000 X115.2 Y92.968
G1 F1125 X115.2 Y127.031 E25.92836
G0 F9000 X116.8 Y126.803
G1 F1125 X116.8 Y93.202 E27.53767
G0 F9000 X118.4 Y93.626
G1 F1125 X118.4 Y126.373 E29.10607
G0 F9000 X120 Y125.751
G1 F1125 X120 Y94.248 E30.61489
G0 F9000 X121.6 Y95.118
G1 F1125 X121.6 Y124.889 E32.04076
G0 F9000 X123.2 Y123.73
G1 F1125 X123.2 Y96.272 E33.35585
G0 F9000 X124.8 Y97.806
G1 F1125 X124.8 Y122.203 E34.52434
G0 F9000 X126.4 Y120.072
G1 F1125 X126.4 Y99.921 E35.48946
G0 F9000 X128 Y103.495
G1 F1125 X128 Y116.513 E36.11295
G1 F1500 E29.61295
G0 F9000 X128.964 Y117.003
G0 X128.231 Y118.921
G0 X127.613 Y120.126
G0 X126.466 Y121.864
G0 X125.06 Y123.476
G0 X124.037 Y124.422
G0 X122.39 Y125.649
G0 X121.222 Y126.336
G0 X119.306 Y127.193
G0 X118.025 Y127.604
G0 X115.985 Y128.019
G0 X113.895 Y128.164
G0 X105.06 Y128.126
G0 X103.734 Y127.979
G0 X101.707 Y127.527
G0 X100.417 Y127.087
G0 X98.537 Y126.205
G0 X97.378 Y125.496
G0 X95.734 Y124.226
G0 X94.502 Y122.986
G0 X93.57 Y121.905
G0 X94.4 Y121.238
G1 F1500 E36.11295
G1 F1125 X94.4 Y98.756 E37.18972
G0 F9000 X92.8 Y101.386
G1 F1125 X92.8 Y118.603 E38.01432
G0 F300 X92.8 Y118.603 Z0.324
G0 F9000 X94.531 Y121.401
;TIME_ELAPSED:51.118472
;LAYER:-5
;TYPE:SUPPORT
G1 F1125 X97.138 Y124.008 E38.23505
G1 X97.126 Y123.998 E38.23598
G1 X96.433 Y123.422 E38.28993
G1 X96.326 Y123.326 E38.29854
G1 X95.814 Y122.844 E38.34063
G1 X95.653 Y122.683 E38.35427
G1 X95.01 Y121.989 E38.41091
G1 X94.893 Y121.852 E38.42169
G0 F9000 X97.138 Y124.008
G1 F1125 X97.273 Y124.112 E38.4319
G1 X97.988 Y124.623 E38.48451
G1 X98.138 Y124.723 E38.4953
G1 X98.917 Y125.196 E38.54986
G1 X99.035 Y125.264 E38.55802
G1 X99.828 Y125.671 E38.61138
G1 X100.017 Y125.76 E38.62389
G1 X100.515 Y125.971 E38.65627
G1 X92.527 Y117.982 E39.33263
G1 X92.297 Y117.415 E39.36926
G1 X92.242 Y117.258 E39.37922
G1 X91.969 Y116.41 E39.43255
G1 X91.927 Y116.26 E39.44188
G1 X91.834 Y115.875 E39.46559
G1 X102.623 Y126.664 E40.37906
G1 X102.886 Y126.734 E40.39535
G1 X103.009 Y126.762 E40.4029
G1 X103.898 Y126.925 E40.45701
G1 X104.073 Y126.951 E40.4676
G1 X104.354 Y126.982 E40.48453
G1 X91.509 Y114.136 E41.57211
G1 X91.428 Y113.252 E41.62526
G1 X91.421 Y113.115 E41.63347
G1 X91.406 Y112.619 E41.66318
G1 X105.875 Y127.089 E42.88826
G1 X106.114 Y127.098 E42.90258
G1 X107.299 Y127.098 E42.97352
G1 X91.399 Y111.198 E44.31972
G1 X91.399 Y109.784 E44.40437
G1 X108.713 Y127.098 E45.87029
G1 X110.128 Y127.098 E45.955
G1 X91.399 Y108.37 E47.54068
G1 X91.399 Y107.63 E47.58498
G1 X91.423 Y106.979 E47.62398
G1 X111.542 Y127.098 E49.32739
G1 X112.956 Y127.098 E49.41204
G1 X91.534 Y105.677 E51.22572
G1 X91.546 Y105.574 E51.23193
G1 X91.572 Y105.399 E51.24252
G1 X91.735 Y104.519 E51.2961
G1 X91.744 Y104.472 E51.29897
G1 X114.357 Y127.085 E53.21353
G1 X114.616 Y127.078 E53.22904
G1 X114.757 Y127.071 E53.23749
G1 X115.652 Y126.988 E53.29131
G1 X115.672 Y126.985 E53.29252
G1 X92.039 Y103.353 E55.2934
G1 X92.048 Y103.328 E55.29499
G1 X92.334 Y102.486 E55.34823
G1 X92.398 Y102.32 E55.35888
G1 X92.404 Y102.304 E55.3599
G1 X116.884 Y126.784 E57.43254
G1 X117.755 Y126.572 E57.4862
G1 X117.919 Y126.526 E57.4964
G1 X118.011 Y126.497 E57.50218
G1 X92.831 Y101.317 E59.63408
G1 X93.235 Y100.534 E59.68683
G1 X93.302 Y100.416 E59.69495
G1 X93.318 Y100.389 E59.69683
G1 X119.068 Y126.139 E61.87699
G1 X119.781 Y125.852 E61.92301
G1 X119.897 Y125.8 E61.93062
G1 X120.062 Y125.719 E61.94162
G1 X93.857 Y99.513 E64.16035
G1 X93.875 Y99.487 E64.16224
G1 X94.392 Y98.766 E64.21536
G1 X94.448 Y98.691 E64.22096
G1 X120.997 Y125.239 E66.46873
G1 X121.623 Y124.873 E66.51214
G1 X121.807 Y124.756 E66.5252
G1 X121.878 Y124.706 E66.53039
G1 X95.089 Y97.918 E68.79848
G1 X95.173 Y97.824 E68.80603
G1 X95.654 Y97.313 E68.84804
G1 X95.777 Y97.191 E68.85842
G1 X122.708 Y124.122 E71.13857
G1 X123.355 Y123.604 E71.18819
G1 X123.488 Y123.488 E71.19875
G1 X96.51 Y96.51 E73.48289
G1 X96.645 Y96.392 E73.49362
G1 X97.29 Y95.876 E73.54307
G1 X124.221 Y122.807 E75.82322
G1 X124.344 Y122.685 E75.8336
G1 X124.826 Y122.174 E75.87565
G1 X124.909 Y122.081 E75.88311
G1 X98.12 Y95.292 E78.15124
G1 X98.191 Y95.243 E78.15641
G1 X98.375 Y95.125 E78.16949
G1 X99.002 Y94.759 E78.21296
G1 X125.55 Y121.307 E80.46069
G1 X125.612 Y121.225 E80.46684
G1 X126.123 Y120.511 E80.51941
G1 X126.141 Y120.484 E80.52135
G1 X99.936 Y94.279 E82.74003
G1 X100.105 Y94.196 E82.75131
G1 X100.218 Y94.147 E82.75868
G1 X100.931 Y93.859 E82.80472
G1 X126.681 Y119.609 E84.98488
G1 X126.697 Y119.582 E84.98676
G1 X126.775 Y119.443 E84.9963
G1 X127.167 Y118.682 E85.04755
G1 X101.987 Y93.502 E87.17945
G1 X102.079 Y93.472 E87.18524
G1 X102.243 Y93.427 E87.19542
G1 X103.114 Y93.215 E87.24909
G1 X127.594 Y117.695 E89.32173
G1 X127.6 Y117.678 E89.32281
G1 X127.665 Y117.512 E89.33348
G1 X127.95 Y116.671 E89.38664
G1 X127.959 Y116.645 E89.38829
G1 X104.327 Y93.013 E91.38913
G1 X104.347 Y93.01 E91.39034
G1 X105.241 Y92.927 E91.44409
G1 X105.382 Y92.92 E91.45254
G1 X105.641 Y92.913 E91.46805
G1 X128.254 Y115.526 E93.38262
G1 X128.264 Y115.479 E93.38549
G1 X128.426 Y114.602 E93.43889
G1 X128.451 Y114.426 E93.44953
G1 X128.463 Y114.321 E93.45586
G1 X107.042 Y92.9 E95.2695
G1 X108.456 Y92.9 E95.35415
G1 X128.576 Y113.019 E97.0576
G1 X128.599 Y112.368 E97.0966
G1 X128.599 Y111.628 E97.1409
G1 X109.87 Y92.9 E98.72657
G1 X111.285 Y92.901 E98.81129
G1 X128.599 Y110.214 E100.27716
G1 X128.599 Y108.8 E100.36182
G1 X112.7 Y92.901 E101.70793
G1 X113.885 Y92.901 E101.77887
G1 X114.123 Y92.91 E101.79313
G1 X128.593 Y107.379 E103.01821
G1 X128.578 Y106.884 E103.04786
G1 X128.568 Y106.732 E103.05698
G1 X128.489 Y105.862 E103.10928
G1 X115.644 Y93.017 E104.19682
G1 X115.925 Y93.048 E104.21375
G1 X116.101 Y93.073 E104.22439
G1 X116.99 Y93.236 E104.2785
G1 X117.113 Y93.265 E104.28606
G1 X117.376 Y93.334 E104.30234
G1 X128.165 Y104.123 E105.21581
G1 X128.071 Y103.738 E105.23954
G1 X128.023 Y103.572 E105.24988
G1 X127.752 Y102.729 E105.30289
G1 X127.694 Y102.563 E105.31342
G1 X127.472 Y102.017 E105.34871
G1 X119.483 Y94.027 E106.02515
G1 X119.981 Y94.238 E106.05753
G1 X120.169 Y94.326 E106.06996
G1 X120.964 Y94.734 E106.12345
G1 X121.081 Y94.802 E106.13156
G1 X121.86 Y95.276 E106.18615
G1 X122.011 Y95.375 E106.19696
G1 X122.725 Y95.886 E106.24952
G1 X122.861 Y95.991 E106.25981
G1 X125.466 Y98.596 E106.48037
G0 F9000 X125.106 Y98.147
G1 F1125 X124.986 Y98.007 E106.49141
G1 X124.305 Y97.275 E106.55126
G1 X124.184 Y97.155 E106.56146
G1 X123.672 Y96.672 E106.6036
G1 X123.565 Y96.576 E106.61221
G1 X122.873 Y96 E106.66611
G1 X122.861 Y95.991 E106.66701
G0 F300 X122.861 Y95.991 Z0.444
G0 F9000 X124.483 Y97.167
;TIME_ELAPSED:113.636869
;LAYER:-4
;TYPE:SUPPORT-INTERFACE
G1 F1500 X124.372 Y97.056 E106.67014
G1 X124.102 Y96.8 E106.67757
G1 X95.905 Y96.8 E107.24027
G1 X96.336 Y96.4 E107.252
G1 X123.667 Y96.4 E107.79742
G1 X123.187 Y96 E107.80989
G1 X96.818 Y96 E108.33611
G1 X97.208 Y95.687 E108.34609
G1 X97.325 Y95.6 E108.349
G1 X122.67 Y95.6 E108.85479
G1 X122.134 Y95.217 E108.86794
G1 X122.109 Y95.2 E108.86854
G1 X97.902 Y95.2 E109.35162
G1 X98.084 Y95.074 E109.35603
G1 X98.262 Y94.961 E109.36024
G1 X98.537 Y94.8 E109.3666
G1 X121.466 Y94.8 E109.82417
G1 X121.186 Y94.63 E109.83071
G1 X121.056 Y94.557 E109.83369
G1 X120.752 Y94.4 E109.84051
G1 X99.241 Y94.4 E110.26979
G1 X100.018 Y94.018 E110.28707
G1 X100.059 Y94 E110.28796
G1 X119.934 Y94 E110.68459
G1 X119.263 Y93.716 E110.69913
G1 X119.07 Y93.642 E110.70325
G1 X118.947 Y93.6 E110.70585
G1 X101.043 Y93.6 E111.06314
G1 X101.168 Y93.555 E111.06579
G1 X102.028 Y93.279 E111.08382
G1 X102.191 Y93.233 E111.0872
G1 X102.328 Y93.2 E111.09001
G1 X117.656 Y93.2 E111.3959
G1 X117.171 Y93.073 E111.4059
G1 X117.031 Y93.042 E111.40876
G1 X116.123 Y92.874 E111.42719
G1 X115.949 Y92.849 E111.4307
G1 X115.509 Y92.8 E111.43953
G1 X104.457 Y92.8 E111.66009
G1 X105.221 Y92.73 E111.6754
G1 X105.384 Y92.721 E111.67866
G1 X106.12 Y92.7 E111.69335
G1 X113.893 Y92.701 E111.84847
G1 X114.897 Y92.737 E111.86852
G1 X115.032 Y92.747 E111.87122
G1 F1500 E105.37122
G0 F9000 X115.126 Y91.888
G0 X117.199 Y92.194
G0 X118.503 Y92.536
G0 X120.421 Y93.269
G0 X121.626 Y93.887
G0 X123.364 Y95.034
G0 X124.918 Y96.384
G0 X124.483 Y97.167
G1 F1500 E111.87122
G1 X124.514 Y97.2 E111.87212
G1 X95.489 Y97.2 E112.45135
G1 X95.111 Y97.6 E112.46233
G1 X124.884 Y97.6 E113.05648
G1 X125.145 Y97.883 E113.06417
G1 X125.246 Y98 E113.06725
G1 X94.762 Y98 E113.67559
G1 X94.429 Y98.4 E113.68598
G1 X125.567 Y98.4 E114.30737
G1 X125.813 Y98.707 E114.31522
G1 X125.883 Y98.8 E114.31754
G1 X94.123 Y98.8 E114.95135
G1 X93.837 Y99.2 E114.96116
G1 X126.162 Y99.2 E115.60624
G1 X126.426 Y99.583 E115.61553
G1 X126.437 Y99.6 E115.61593
G1 X93.566 Y99.6 E116.27191
G1 X93.323 Y100 E116.28125
G1 X126.68 Y100 E116.94692
G1 X126.914 Y100.4 E116.95617
G1 X93.083 Y100.4 E117.6313
G1 X93.058 Y100.444 E117.63231
G1 X92.875 Y100.8 E117.6403
G1 X127.131 Y100.8 E118.32392
G1 X127.327 Y101.2 E118.33281
G1 X92.669 Y101.2 E119.02444
G1 X92.642 Y101.252 E119.02561
G1 X92.557 Y101.433 E119.0296
G1 X92.487 Y101.6 E119.03322
G1 X127.52 Y101.6 E119.73234
G1 X127.542 Y101.65 E119.73343
G1 X127.684 Y102 E119.74097
G1 X92.318 Y102 E120.44673
G1 X92.217 Y102.237 E120.45187
G1 X92.155 Y102.4 E120.45535
G1 X127.846 Y102.4 E121.16761
G1 X127.884 Y102.496 E121.16967
G1 X127.945 Y102.667 E121.17329
G1 X127.988 Y102.8 E121.17608
