;FLAVOR:Marlin
;TIME:700
;Filament used: 0.132856m
;Layer height: 0.12
;MINX:95
;MINY:96.5
;MINZ:0.12
;MAXX:140.386
;MAXY:124.274
;MAXZ:6.48
;Generated with Cura_SteamEngine 4.8.0
M140 S60
M105
M190 S60
M104 S200
M105
M109 S200
M82 ;absolute extrusion mode
; Ender 3 Custom Start G-code
G92 E0 ; Reset Extruder
G28 ; Home all axes
G1 Z2.0 F3000 ; Move Z Axis up little to prevent scratching of Heat Bed
G1 X0.1 Y20 Z0.3 F5000.0 ; Move to start position
G1 X0.1 Y200.0 Z0.3 F1500.0 E15 ; Draw the first line
G1 X0.4 Y200.0 Z0.3 F5000.0 ; Move to side a little
G1 X0.4 Y20 Z0.3 F1500.0 E30 ; Draw the second line
G92 E0 ; Reset Extruder
G1 Z2.0 F3000 ; Move Z Axis up little to prevent scratching of Heat Bed
G1 X5 Y20 Z0.3 F5000.0 ; Move over to prevent blob squish
G92 E0
G92 E0
G1 F1500 E-6.5
;LAYER_COUNT:54
;LAYER:0
M107
G0 F6000 X98.308 Y99.767 Z0.12
;TYPE:SKIRT
G1 F1500 E0
G1 F1200 X98.996 Y99.129 E0.01872
G1 X99.736 Y98.553 E0.03744
G1 X100.522 Y98.042 E0.05615
G1 X101.349 Y97.599 E0.07487
G1 X102.211 Y97.229 E0.09359
G1 X103.101 Y96.933 E0.11231
G1 X104.013 Y96.714 E0.13102
G1 X104.94 Y96.574 E0.14973
G1 X105.752 Y96.516 E0.16598
G1 X106.136 Y96.506 E0.17364
G1 X106.679 Y96.5 E0.18448
G1 X113.176 Y96.5 E0.31414
G1 X114.032 Y96.511 E0.33122
G1 X114.933 Y96.561 E0.34923
G1 X115.474 Y96.615 E0.36008
G1 X117.441 Y96.838 E0.39958
G1 X119.943 Y97.051 E0.44969
G1 X122.391 Y97.19 E0.49863
G1 X126.367 Y97.274 E0.57799
G1 X128.719 Y97.275 E0.62492
G1 X129.421 Y97.285 E0.63894
G1 X130.357 Y97.338 E0.65764
G1 X131.285 Y97.471 E0.67635
G1 X132.199 Y97.683 E0.69508
G1 X133.092 Y97.971 E0.7138
G1 X133.956 Y98.335 E0.73251
G1 X134.787 Y98.771 E0.75124
G1 X135.577 Y99.276 E0.76995
G1 X136.321 Y99.846 E0.78865
G1 X137.077 Y100.54 E0.80913
G1 X137.189 Y100.653 E0.81231
G1 X137.82 Y101.347 E0.83103
G1 X138.39 Y102.092 E0.84975
G1 X138.894 Y102.883 E0.86846
G1 X139.329 Y103.714 E0.88718
G1 X139.692 Y104.578 E0.90588
G1 X139.98 Y105.471 E0.92461
G1 X140.19 Y106.385 E0.94332
G1 X140.323 Y107.314 E0.96205
G1 X140.37 Y108.026 E0.97629
G1 X140.38 Y108.395 E0.98366
G1 X140.386 Y108.912 E0.99398
G1 X140.385 Y112.584 E1.06725
G1 X140.375 Y113.305 E1.08164
G1 X140.322 Y114.241 E1.10035
G1 X140.189 Y115.169 E1.11906
G1 X139.978 Y116.083 E1.13778
G1 X139.69 Y116.976 E1.15651
G1 X139.327 Y117.84 E1.17521
G1 X138.891 Y118.671 E1.19394
G1 X138.387 Y119.461 E1.21264
G1 X137.816 Y120.206 E1.23137
G1 X137.154 Y120.93 E1.25094
G1 X137.042 Y121.042 E1.25411
G1 X136.351 Y121.676 E1.27282
G1 X135.609 Y122.25 E1.29154
G1 X134.82 Y122.757 E1.31026
G1 X133.992 Y123.196 E1.32896
G1 X133.128 Y123.563 E1.34769
G1 X132.237 Y123.855 E1.3664
G1 X131.324 Y124.069 E1.38512
G1 X130.396 Y124.206 E1.40384
G1 X129.635 Y124.258 E1.41906
G1 X129.25 Y124.268 E1.42675
G1 X128.707 Y124.274 E1.43758
G1 X122.052 Y124.273 E1.57039
G1 X121.354 Y124.263 E1.58432
G1 X120.453 Y124.213 E1.60233
G1 X119.912 Y124.159 E1.61318
G1 X117.945 Y123.936 E1.65268
G1 X115.443 Y123.723 E1.70279
G1 X112.995 Y123.584 E1.75173
G1 X109.019 Y123.5 E1.83109
G1 X106.667 Y123.499 E1.87803
G1 X105.965 Y123.489 E1.89204
G1 X105.029 Y123.436 E1.91074
G1 X104.101 Y123.303 E1.92945
G1 X103.187 Y123.091 E1.94818
G1 X102.294 Y122.803 E1.9669
G1 X101.43 Y122.439 E1.98561
G1 X100.599 Y122.003 E2.00434
G1 X99.809 Y121.498 E2.02305
G1 X99.065 Y120.928 E2.04175
G1 X98.344 Y120.268 E2.06126
G1 X98.232 Y120.156 E2.06442
G1 X97.598 Y119.465 E2.08314
G1 X97.024 Y118.723 E2.10186
G1 X96.517 Y117.934 E2.12057
G1 X96.078 Y117.106 E2.13928
G1 X95.711 Y116.242 E2.15801
G1 X95.419 Y115.351 E2.17672
G1 X95.205 Y114.438 E2.19543
G1 X95.068 Y113.51 E2.21415
G1 X95.016 Y112.749 E2.22938
G1 X95.006 Y112.352 E2.2373
G1 X95 Y111.778 E2.24876
G1 X95.001 Y108.143 E2.3213
G1 X95.011 Y107.461 E2.33491
G1 X95.065 Y106.524 E2.35364
G1 X95.198 Y105.596 E2.37235
G1 X95.41 Y104.682 E2.39107
G1 X95.699 Y103.79 E2.40978
G1 X96.063 Y102.926 E2.42849
G1 X96.499 Y102.096 E2.4472
G1 X97.004 Y101.305 E2.46593
G1 X97.575 Y100.561 E2.48465
G1 X98.197 Y99.879 E2.50307
G1 X98.308 Y99.767 E2.50621
G0 F6000 X98.592 Y100.048
G1 F1200 X99.268 Y99.423 E2.52458
G1 X99.996 Y98.859 E2.54296
G1 X100.769 Y98.36 E2.56132
G1 X101.583 Y97.93 E2.5797
G1 X102.432 Y97.573 E2.59807
G1 X103.308 Y97.29 E2.61645
G1 X104.205 Y97.085 E2.63481
G1 X105.117 Y96.958 E2.65318
G1 X105.765 Y96.916 E2.66614
G1 X106.14 Y96.906 E2.67363
G1 X106.679 Y96.9 E2.68439
G1 X113.176 Y96.9 E2.81404
G1 X114.026 Y96.911 E2.831
G1 X114.894 Y96.959 E2.84835
G1 X115.429 Y97.012 E2.85908
G1 X117.395 Y97.235 E2.89857
G1 X119.924 Y97.45 E2.94922
G1 X122.389 Y97.59 E2.99849
G1 X126.359 Y97.674 E3.07773
G1 X128.713 Y97.675 E3.12471
G1 X129.415 Y97.685 E3.13872
G1 X130.334 Y97.738 E3.15709
G1 X131.245 Y97.871 E3.17546
G1 X132.141 Y98.082 E3.19383
G1 X133.016 Y98.37 E3.21221
G1 X133.862 Y98.733 E3.23059
G1 X134.673 Y99.168 E3.24895
G1 X135.444 Y99.672 E3.26733
G1 X136.168 Y100.24 E3.2857
G1 X136.793 Y100.822 E3.30274
G1 X136.905 Y100.935 E3.30592
G1 X137.524 Y101.616 E3.32428
G1 X138.081 Y102.349 E3.34265
G1 X138.573 Y103.127 E3.36102
G1 X138.996 Y103.945 E3.3794
G1 X139.346 Y104.797 E3.39778
G1 X139.621 Y105.675 E3.41614
G1 X139.818 Y106.575 E3.43453
G1 X139.937 Y107.488 E3.4529
G1 X139.97 Y108.039 E3.46392
G1 X139.98 Y108.401 E3.47114
G1 X139.986 Y108.912 E3.48134
G1 X139.985 Y112.578 E3.5545
G1 X139.975 Y113.299 E3.56889
G1 X139.922 Y114.218 E3.58726
G1 X139.79 Y115.129 E3.60563
G1 X139.579 Y116.025 E3.624
G1 X139.291 Y116.9 E3.64238
G1 X138.929 Y117.746 E3.66075
G1 X138.494 Y118.558 E3.67913
G1 X137.991 Y119.329 E3.6975
G1 X137.422 Y120.053 E3.71588
G1 X136.871 Y120.647 E3.73205
G1 X136.759 Y120.759 E3.73521
G1 X136.081 Y121.381 E3.75357
G1 X135.351 Y121.942 E3.77194
G1 X134.575 Y122.438 E3.79032
G1 X133.759 Y122.864 E3.80869
G1 X132.909 Y123.218 E3.82707
G1 X132.031 Y123.496 E3.84544
G1 X131.133 Y123.698 E3.86381
G1 X130.22 Y123.821 E3.8822
G1 X129.622 Y123.858 E3.89415
G1 X129.246 Y123.868 E3.90166
G1 X128.707 Y123.874 E3.91242
G1 X122.058 Y123.873 E4.0451
G1 X121.36 Y123.863 E4.05904
G1 X120.492 Y123.815 E4.07638
G1 X119.957 Y123.762 E4.08711
G1 X117.991 Y123.539 E4.1266
G1 X115.462 Y123.324 E4.17725
G1 X112.997 Y123.184 E4.22652
G1 X109.027 Y123.1 E4.30576
G1 X106.673 Y123.099 E4.35274
G1 X105.971 Y123.089 E4.36675
G1 X105.052 Y123.036 E4.38512
G1 X104.141 Y122.903 E4.40349
G1 X103.245 Y122.692 E4.42186
G1 X102.37 Y122.404 E4.44025
G1 X101.524 Y122.041 E4.45862
G1 X100.713 Y121.606 E4.47698
G1 X99.942 Y121.102 E4.49536
G1 X99.218 Y120.534 E4.51373
G1 X98.627 Y119.985 E4.52983
G1 X98.515 Y119.873 E4.53299
G1 X97.893 Y119.195 E4.55135
G1 X97.332 Y118.465 E4.56972
G1 X96.836 Y117.689 E4.5881
G1 X96.41 Y116.873 E4.60647
G1 X96.056 Y116.023 E4.62484
G1 X95.778 Y115.145 E4.64322
G1 X95.576 Y114.247 E4.66159
G1 X95.453 Y113.334 E4.67998
G1 X95.416 Y112.736 E4.69193
G1 X95.406 Y112.347 E4.6997
G1 X95.4 Y111.778 E4.71105
G1 X95.401 Y108.149 E4.78347
G1 X95.411 Y107.467 E4.79709
G1 X95.465 Y106.547 E4.81548
G1 X95.598 Y105.637 E4.83383
G1 X95.809 Y104.74 E4.85222
G1 X96.098 Y103.866 E4.87059
G1 X96.461 Y103.02 E4.88896
G1 X96.896 Y102.209 E4.90733
G1 X97.4 Y101.439 E4.92569
G1 X97.969 Y100.715 E4.94407
G1 X98.481 Y100.16 E4.95914
G1 X98.592 Y100.048 E4.96228
G0 F6000 X98.876 Y100.33
G1 F1200 X99.54 Y99.717 E4.98032
G1 X100.255 Y99.166 E4.99833
G1 X101.016 Y98.679 E5.01636
G1 X101.817 Y98.263 E5.03437
G1 X102.652 Y97.918 E5.0524
G1 X103.514 Y97.649 E5.07042
G1 X104.396 Y97.457 E5.08844
G1 X105.292 Y97.344 E5.10646
G1 X105.779 Y97.316 E5.11619
G1 X106.145 Y97.306 E5.1235
G1 X106.679 Y97.3 E5.13416
G1 X113.176 Y97.3 E5.26381
G1 X114.02 Y97.311 E5.28066
G1 X114.856 Y97.357 E5.29737
G1 X115.384 Y97.41 E5.30796
G1 X117.352 Y97.633 E5.34748
G1 X119.868 Y97.847 E5.39787
G1 X122.386 Y97.99 E5.4482
G1 X126.35 Y98.074 E5.52733
G1 X128.707 Y98.075 E5.57436
G1 X129.409 Y98.085 E5.58837
G1 X130.311 Y98.138 E5.6064
G1 X131.204 Y98.27 E5.62442
G1 X132.082 Y98.481 E5.64244
G1 X132.938 Y98.769 E5.66046
G1 X133.766 Y99.131 E5.6785
G1 X134.558 Y99.565 E5.69652
G1 X135.308 Y100.068 E5.71454
G1 X136.011 Y100.634 E5.73255
G1 X136.508 Y101.104 E5.7462
G1 X136.62 Y101.217 E5.74938
G1 X137.227 Y101.886 E5.7674
G1 X137.772 Y102.606 E5.78542
G1 X138.252 Y103.371 E5.80345
G1 X138.662 Y104.176 E5.82148
G1 X138.999 Y105.014 E5.8395
G1 X139.26 Y105.878 E5.85751
G1 X139.444 Y106.762 E5.87553
G1 X139.57 Y108.053 E5.90142
G1 X139.58 Y108.406 E5.90846
G1 X139.586 Y108.912 E5.91856
G1 X139.585 Y112.572 E5.9916
G1 X139.575 Y113.293 E6.00599
G1 X139.523 Y114.195 E6.02402
G1 X139.39 Y115.088 E6.04204
G1 X139.18 Y115.967 E6.06007
G1 X138.893 Y116.823 E6.07809
G1 X138.531 Y117.65 E6.09611
G1 X138.097 Y118.442 E6.11413
G1 X137.595 Y119.193 E6.13216
G1 X137.028 Y119.896 E6.15018
G1 X136.588 Y120.364 E6.163
G1 X136.476 Y120.476 E6.16616
G1 X135.81 Y121.086 E6.18418
G1 X135.093 Y121.635 E6.2022
G1 X134.329 Y122.117 E6.22023
G1 X133.526 Y122.531 E6.23826
G1 X132.69 Y122.871 E6.25627
G1 X131.827 Y123.137 E6.27429
G1 X130.944 Y123.325 E6.29231
G1 X129.608 Y123.458 E6.3191
G1 X129.241 Y123.468 E6.32643
G1 X128.707 Y123.474 E6.33709
G1 X122.064 Y123.473 E6.46965
G1 X121.366 Y123.463 E6.48358
G1 X120.53 Y123.417 E6.50029
G1 X120.002 Y123.364 E6.51088
G1 X118.034 Y123.141 E6.55041
G1 X115.518 Y122.927 E6.6008
G1 X113 Y122.784 E6.65113
G1 X109.036 Y122.7 E6.73025
G1 X106.679 Y122.699 E6.77729
G1 X105.977 Y122.689 E6.7913
G1 X105.075 Y122.636 E6.80933
G1 X104.182 Y122.504 E6.82735
G1 X103.304 Y122.293 E6.84537
G1 X102.448 Y122.005 E6.86339
G1 X101.62 Y121.643 E6.88142
G1 X100.828 Y121.209 E6.89945
G1 X100.078 Y120.706 E6.91747
G1 X99.375 Y120.14 E6.93548
G1 X98.91 Y119.702 E6.94823
G1 X98.798 Y119.59 E6.95139
G1 X98.188 Y118.924 E6.96941
G1 X97.639 Y118.207 E6.98743
G1 X97.157 Y117.443 E7.00546
G1 X96.743 Y116.64 E7.02349
G1 X96.403 Y115.804 E7.0415
G1 X96.137 Y114.941 E7.05952
G1 X95.949 Y114.058 E7.07754
G1 X95.816 Y112.722 E7.10433
G1 X95.806 Y112.343 E7.11189
G1 X95.8 Y111.778 E7.12317
G1 X95.801 Y108.154 E7.19549
G1 X95.811 Y107.472 E7.2091
G1 X95.864 Y106.571 E7.22711
G1 X95.997 Y105.678 E7.24513
G1 X96.208 Y104.8 E7.26315
G1 X96.496 Y103.944 E7.28117
G1 X96.859 Y103.117 E7.2992
G1 X97.293 Y102.325 E7.31722
G1 X97.796 Y101.575 E7.33524
G1 X98.363 Y100.872 E7.35327
G1 X98.765 Y100.442 E7.36501
G1 X98.876 Y100.33 E7.36816
G0 F6000 X106.6 Y108.1
G1 F1200 X113.4 Y108.1 E7.50386
G1 X113.4 Y108.54 E7.51264
G1 X113.251 Y108.431 E7.51633
G1 X112.73 Y108.184 E7.52783
G1 X112.473 Y108.126 E7.53309
G1 X107.762 Y108.127 E7.6271
G1 X107.403 Y108.143 E7.63427
G1 X107.122 Y108.227 E7.64013
G1 X106.665 Y108.5 E7.65075
G1 X106.6 Y108.557 E7.65248
G1 X106.6 Y108.1 E7.6616
G0 F6000 X106.2 Y107.7
G1 F1200 X113.8 Y107.7 E7.81326
G1 X113.8 Y112.3 E7.90506
G1 X106.2 Y112.3 E8.05673
G1 X106.2 Y107.7 E8.14852
G0 F6000 X106.87 Y108.843
G1 F1200 X106.795 Y108.924 E8.15073
G1 X106.522 Y109.461 E8.16275
G1 X106.5 Y109.552 E8.16462
G1 X106.5 Y110.494 E8.18342
G1 X106.516 Y110.573 E8.18502
G1 X106.699 Y111.001 E8.19431
G1 X106.765 Y111.084 E8.19643
G1 X107.319 Y111.488 E8.21011
G1 X107.437 Y111.526 E8.21259
G1 X112.304 Y111.526 E8.30971
G1 X112.355 Y111.519 E8.31074
G1 X112.917 Y111.371 E8.32234
G1 X113.025 Y111.299 E8.32493
G1 X113.435 Y110.758 E8.33847
G1 X113.476 Y110.637 E8.34102
G1 X113.476 Y109.467 E8.36437
G1 X113.45 Y109.368 E8.36642
G1 X113.168 Y108.874 E8.37777
G1 X113.08 Y108.792 E8.38017
G1 X112.559 Y108.545 E8.39167
G1 X112.473 Y108.526 E8.39343
G1 X107.78 Y108.526 E8.48709
G1 X107.421 Y108.542 E8.49426
G1 X107.327 Y108.57 E8.49621
G1 X106.87 Y108.843 E8.50684
G0 F6000 X106.6 Y111.459
G1 F1200 X107.083 Y111.811 E8.51876
G1 X107.27 Y111.9 E8.5229
G1 X106.6 Y111.9 E8.53627
G1 X106.6 Y111.459 E8.54507
G0 F6000 X112.48 Y111.9
G1 F1200 X113.019 Y111.758 E8.55619
G1 X113.216 Y111.665 E8.56054
G1 X113.4 Y111.466 E8.56595
G1 X113.4 Y111.9 E8.57461
G1 X112.48 Y111.9 E8.59297
G1 F1500 E2.09297
G0 F6000 X120.721 Y113.074
G0 X121.586 Y113.074
;TYPE:SUPPORT-INTERFACE
G1 F1500 E8.59297
G1 F1200 X121.586 Y108.474 E8.68477
G1 X125.07 Y108.474 E8.75429
G1 X124.579 Y109.166 E8.77123
G1 X125.523 Y111.852 E8.82804
G1 X127.78 Y111.072 E8.8757
G1 X126.941 Y108.602 E8.92775
G1 X126.762 Y108.474 E8.93215
G1 X129.186 Y108.474 E8.98052
G1 X129.186 Y113.074 E9.07232
G1 X121.586 Y113.074 E9.22398
G0 F6000 X121.785 Y112.408
G1 F1200 X124.537 Y109.655 E9.30166
G0 F6000 X125.246 Y111.67
G1 F1200 X122.25 Y108.673 E9.38623
G0 F6000 X122.125 Y108.673
G1 F1200 X121.785 Y109.014 E9.39584
G0 F6000 X121.785 Y111.602
G1 F1200 X123.056 Y112.874 E9.43173
G0 F6000 X124.713 Y112.874
G1 F1200 X125.525 Y112.062 E9.45464
G0 F6000 X125.61 Y112.033
G1 F1200 X126.45 Y112.874 E9.47836
G0 F6000 X128.107 Y112.874
G1 F1200 X128.984 Y111.997 E9.50311
G0 F6000 X128.984 Y112.014
G1 F1200 X127.962 Y110.992 E9.53196
G0 F6000 X127.616 Y109.971
G1 F1200 X128.914 Y108.673 E9.56859
G1 F1500 E3.06859
;MESH:A0_Prototype.stl
G0 F6000 X128.914 Y107.609
G0 X121.229 Y107.613
G0 X113.141 Y109.84
G0 X112.162 Y109.84
G0 X112.106 Y110.126
G0 X112.276 Y110.301
;TYPE:WALL-OUTER
G1 F1500 E9.56859
G1 F1200 X112.187 Y110.326 E9.57043
G1 X107.737 Y110.326 E9.65924
G1 X107.7 Y110.29 E9.66027
G1 X107.7 Y109.772 E9.67061
G1 X107.726 Y109.73 E9.67159
G1 X107.813 Y109.726 E9.67333
G1 X112.266 Y109.726 E9.7622
G1 X112.276 Y109.732 E9.76243
G1 X112.276 Y110.301 E9.77378
G0 F6000 X111.99 Y110.01
;TYPE:SKIN
G1 F1200 X111.722 Y110.025 E9.77743
G1 X108.045 Y110.025 E9.82742
G1 F1500 E3.32742
;MESH:A0_Prototype.stl(1)
G0 F6000 X107.92 Y109.926
G0 X112.162 Y110.212
G0 X113.141 Y110.212
G0 X121.229 Y107.613
G0 X125.651 Y107.609
G0 X125.651 Y109.164
G0 X126.26 Y110.328
;TYPE:WALL-OUTER
G1 F1500 E9.82742
G1 F1200 X125.917 Y109.353 E9.84805
G1 X125.928 Y109.353 E9.84827
G1 X126.26 Y110.328 E9.86882
G0 F6000 X126.169 Y110.164
G1 F1500 E3.36882
;MESH:NONMESH
G0 F300 X126.169 Y110.164 Z0.24
G0 F6000 X125.651 Y109.164
G0 X125.651 Y107.609
G0 X106.2 Y107.7
;TIME_ELAPSED:35.522460
;LAYER:1
M106 S85
;TYPE:SUPPORT
G1 F1500 E9.86882
G1 F869 X113.8 Y107.7 E10.02049
G1 X113.8 Y112.3 E10.11229
G1 X106.2 Y112.3 E10.26395
G1 X106.2 Y107.7 E10.35575
G0 F7500 X106.764 Y108.954
G1 F869 X106.5 Y109.495 E10.36776
G1 X106.5 Y110.563 E10.38908
G1 X106.868 Y111.223 E10.40416
G1 X107.436 Y111.526 E10.417
G1 X112.587 Y111.526 E10.5198
G1 X113.187 Y111.175 E10.53367
G1 X113.476 Y110.546 E10.54748
G1 X113.476 Y109.634 E10.56568
G1 X113.346 Y109.048 E10.57766
G1 X112.686 Y108.526 E10.59445
G1 X107.431 Y108.526 E10.69932
G1 X106.764 Y108.954 E10.71514
G0 F7500 X108 Y107.98
G1 F869 X106.48 Y107.98 E10.74547
G1 X106.48 Y108.898 E10.76379
G1 X106.547 Y108.761 E10.76684
G1 X107.349 Y108.246 E10.78586
G1 X108 Y108.246 E10.79885
G1 X108 Y107.98 E10.80416
G1 X110 Y107.98 E10.84407
G1 X110 Y108.246 E10.84938
G1 X112 Y108.246 E10.88929
G1 X112 Y107.98 E10.8946
G1 X113.52 Y107.98 E10.92493
G1 X113.52 Y108.828 E10.94185
G1 X112.784 Y108.246 E10.96058
G1 X112 Y108.246 E10.97622
G1 F1500 E4.47622
G0 F7500 X112 Y106.835
G0 X114.157 Y106.839
G0 X114.661 Y107.343
G0 X114.661 Y112.657
G0 X114.157 Y113.161
G0 X112 Y113.165
G0 X112 Y112.02
G1 F1500 E10.97622
G1 F869 X113.52 Y112.02 E11.00656
G1 X113.52 Y111.12 E11.02452
G1 X113.404 Y111.372 E11.03005
G1 X112.663 Y111.806 E11.04719
G1 X112 Y111.806 E11.06042
G1 X112 Y112.02 E11.06469
G1 X110 Y112.02 E11.1046
G1 X110 Y111.806 E11.10887
G1 X108 Y111.806 E11.14879
G1 X107.366 Y111.806 E11.16144
G1 X106.664 Y111.432 E11.17731
G1 X106.48 Y111.102 E11.18485
G1 X106.48 Y112.02 E11.20317
G1 X108 Y112.02 E11.2335
G1 X108 Y111.806 E11.23778
G1 F1500 E4.73778
G0 F7500 X108 Y113.165
G0 X114.157 Y113.161
G0 X120.721 Y111.202
G0 X121.384 Y111.202
;TYPE:SUPPORT-INTERFACE
G1 F1500 E11.23778
G1 F869 X123.455 Y113.273 E11.29622
G0 F7500 X124.313 Y113.274
G1 F869 X126.172 Y111.415 E11.34869
G0 F7500 X127.324 Y110.353
G1 F869 X129.384 Y112.414 E11.40684
G0 F7500 X129.384 Y111.597
G1 F869 X127.707 Y113.274 E11.45417
G0 F7500 X126.85 Y113.273
G1 F869 X121.85 Y108.274 E11.59527
G0 F7500 X122.526 Y108.273
G1 F869 X121.384 Y109.414 E11.62748
G1 F1500 E5.12748
