;FLAVOR:Marlin
;TIME:4553
;Filament used: 4.22113m
;Layer height: 0.28
;MINX:60.18
;MINY:82.7
;MINZ:0.28
;MAXX:159.821
;MAXY:137.2
;MAXZ:8.96
;Generated with Cura_SteamEngine 4.9.1
M140 S60
M105
M190 S60
M104 S195
M105
M109 S195
M82 ;absolute extrusion mode
; Ender 3 Custom Start G-code
G92 E0 ; Reset Extruder
G28 ; Home all axes
G1 Z2.0 F3000 ; Move Z Axis up little to prevent scratching of Heat Bed
G1 X0.1 Y20 Z0.3 F5000.0 ; Move to start position
G1 X0.1 Y200.0 Z0.3 F1500.0 E15 ; Draw the first line
G1 X0.4 Y200.0 Z0.3 F5000.0 ; Move to side a little
G1 X0.4 Y20 Z0.3 F1500.0 E30 ; Draw the second line
G92 E0 ; Reset Extruder
G1 Z2.0 F3000 ; Move Z Axis up little to prevent scratching of Heat Bed
G1 X5 Y20 Z0.3 F5000.0 ; Move over to prevent blob squish
G92 E0
G92 E0
G1 F1500 E-6.5
;LAYER_COUNT:32
;LAYER:0
M107
G0 F6000 X63.308 Y84.455 Z0.28
;TYPE:SKIRT
G1 F1500 E0
G1 F1200 X63.944 Y83.988 E0.03674
G1 X64.624 Y83.587 E0.0735
G1 X65.342 Y83.257 E0.1103
G1 X66.089 Y83.002 E0.14705
G1 X66.858 Y82.823 E0.18381
G1 X67.642 Y82.723 E0.22062
G1 X68.237 Y82.7 E0.24834
G1 X145.892 Y82.7 E3.86429
G1 X146.382 Y82.709 E3.88711
G1 X146.849 Y82.733 E3.90888
G1 X147.129 Y82.756 E3.92196
G1 X147.434 Y82.787 E3.93624
G1 X147.754 Y82.826 E3.95125
G1 X148.149 Y82.885 E3.96984
G1 X148.436 Y82.935 E3.98341
G1 X148.831 Y83.014 E4.00217
G1 X149.116 Y83.079 E4.01578
G1 X149.462 Y83.166 E4.03239
G1 X149.762 Y83.249 E4.04689
G1 X150.116 Y83.357 E4.06412
G1 X150.39 Y83.447 E4.07755
G1 X150.766 Y83.581 E4.09614
G1 X151.056 Y83.693 E4.11061
G1 X151.419 Y83.843 E4.1289
G1 X151.684 Y83.961 E4.14241
G1 X152.009 Y84.116 E4.15917
G1 X152.286 Y84.255 E4.1736
G1 X152.644 Y84.446 E4.1925
G1 X152.906 Y84.595 E4.20653
G1 X153.233 Y84.791 E4.22429
G1 X153.488 Y84.953 E4.23835
G1 X153.811 Y85.17 E4.25647
G1 X154.047 Y85.337 E4.26993
G1 X154.345 Y85.559 E4.28724
G1 X154.597 Y85.756 E4.30213
G1 X154.88 Y85.989 E4.3192
G1 X155.095 Y86.174 E4.33241
G1 X155.391 Y86.441 E4.35097
G1 X155.607 Y86.647 E4.36487
G1 X155.888 Y86.929 E4.38341
G1 X156.102 Y87.155 E4.3979
G1 X156.343 Y87.422 E4.41465
G1 X156.532 Y87.641 E4.42812
G1 X156.779 Y87.941 E4.44621
G1 X156.97 Y88.186 E4.46068
G1 X157.198 Y88.495 E4.47856
G1 X157.371 Y88.741 E4.49256
G1 X157.566 Y89.032 E4.50887
G1 X157.723 Y89.278 E4.52246
G1 X157.944 Y89.645 E4.54241
G1 X158.095 Y89.913 E4.55673
G1 X158.265 Y90.233 E4.57361
G1 X158.403 Y90.507 E4.58789
G1 X158.573 Y90.868 E4.60647
G1 X158.693 Y91.14 E4.62032
G1 X158.827 Y91.461 E4.63651
G1 X158.932 Y91.731 E4.65
G1 X159.079 Y92.144 E4.67042
G1 X159.175 Y92.439 E4.68486
G1 X159.274 Y92.767 E4.70082
G1 X159.352 Y93.048 E4.71439
G1 X159.44 Y93.395 E4.73106
G1 X159.507 Y93.688 E4.74506
G1 X159.593 Y94.124 E4.76575
G1 X159.645 Y94.431 E4.78025
G1 X159.696 Y94.776 E4.79649
G1 X159.732 Y95.067 E4.81014
G1 X159.77 Y95.451 E4.82811
G1 X159.792 Y95.749 E4.84203
G1 X159.81 Y96.114 E4.85904
G1 X159.818 Y96.413 E4.87297
G1 X159.821 Y96.622 E4.8827
G1 X159.821 Y129.283 E6.40354
G1 X159.781 Y130.072 E6.44032
G1 X159.662 Y130.852 E6.47706
G1 X159.464 Y131.617 E6.51386
G1 X159.19 Y132.357 E6.5506
G1 X158.842 Y133.066 E6.58738
G1 X158.424 Y133.737 E6.62419
G1 X157.941 Y134.361 E6.66093
G1 X157.536 Y134.798 E6.68868
G1 X157.419 Y134.915 E6.69638
G1 X156.833 Y135.445 E6.73317
G1 X156.197 Y135.912 E6.76991
G1 X155.517 Y136.313 E6.80667
G1 X154.799 Y136.643 E6.84347
G1 X154.052 Y136.898 E6.88022
G1 X153.283 Y137.077 E6.91699
G1 X152.499 Y137.177 E6.95379
G1 X151.904 Y137.2 E6.98152
G1 X140.096 Y137.2 E7.53135
G1 X139.307 Y137.16 E7.56813
G1 X138.527 Y137.041 E7.60487
G1 X137.762 Y136.843 E7.64167
G1 X137.022 Y136.569 E7.67841
G1 X136.313 Y136.221 E7.71519
G1 X135.642 Y135.803 E7.752
G1 X135.018 Y135.32 E7.78874
G1 X134.581 Y134.915 E7.81649
G1 X134.464 Y134.798 E7.82419
G1 X133.934 Y134.212 E7.86098
G1 X133.467 Y133.576 E7.89772
G1 X133.066 Y132.896 E7.93448
G1 X132.736 Y132.178 E7.97128
G1 X132.481 Y131.431 E8.00803
G1 X132.302 Y130.662 E8.0448
G1 X132.202 Y129.878 E8.0816
G1 X132.179 Y129.283 E8.10933
G1 X132.179 Y127.2 E8.20632
G1 X120.779 Y127.2 E8.73715
G1 X120.779 Y129.283 E8.83414
G1 X120.739 Y130.072 E8.87093
G1 X120.62 Y130.852 E8.90767
G1 X120.422 Y131.617 E8.94447
G1 X120.148 Y132.357 E8.98121
G1 X119.8 Y133.066 E9.01799
G1 X119.382 Y133.737 E9.0548
G1 X118.899 Y134.361 E9.09154
G1 X118.494 Y134.798 E9.11928
G1 X118.377 Y134.915 E9.12699
G1 X117.791 Y135.445 E9.16378
G1 X117.155 Y135.912 E9.20052
G1 X116.475 Y136.313 E9.23728
G1 X115.757 Y136.643 E9.27408
G1 X115.01 Y136.898 E9.31083
G1 X114.241 Y137.077 E9.3476
G1 X113.457 Y137.177 E9.3844
G1 X112.862 Y137.2 E9.41212
G1 X99.096 Y137.2 E10.05313
G1 X98.307 Y137.16 E10.08991
G1 X97.527 Y137.041 E10.12665
G1 X96.762 Y136.843 E10.16345
G1 X96.022 Y136.569 E10.20019
G1 X95.313 Y136.221 E10.23697
G1 X94.642 Y135.803 E10.27378
G1 X94.018 Y135.32 E10.31052
G1 X93.581 Y134.915 E10.33827
G1 X93.464 Y134.798 E10.34597
G1 X92.934 Y134.212 E10.38276
G1 X92.467 Y133.576 E10.4195
G1 X92.066 Y132.896 E10.45626
G1 X91.736 Y132.178 E10.49306
G1 X91.481 Y131.431 E10.52981
G1 X91.302 Y130.662 E10.56658
G1 X91.202 Y129.878 E10.60338
G1 X91.179 Y129.283 E10.63111
G1 X91.179 Y127.2 E10.7281
G1 X79.779 Y127.2 E11.25893
G1 X79.779 Y129.283 E11.35592
G1 X79.739 Y130.072 E11.39271
G1 X79.62 Y130.852 E11.42945
G1 X79.422 Y131.617 E11.46625
G1 X79.148 Y132.357 E11.50299
G1 X78.8 Y133.066 E11.53977
G1 X78.382 Y133.737 E11.57658
G1 X77.899 Y134.361 E11.61332
G1 X77.494 Y134.798 E11.64106
G1 X77.377 Y134.915 E11.64877
G1 X76.791 Y135.445 E11.68556
G1 X76.155 Y135.912 E11.7223
G1 X75.475 Y136.313 E11.75906
G1 X74.757 Y136.643 E11.79586
G1 X74.01 Y136.898 E11.83261
G1 X73.241 Y137.077 E11.86938
G1 X72.457 Y137.177 E11.90618
G1 X71.862 Y137.2 E11.9339
G1 X68.097 Y137.2 E12.10922
G1 X67.308 Y137.16 E12.146
G1 X66.528 Y137.041 E12.18275
G1 X65.763 Y136.843 E12.21954
G1 X65.023 Y136.569 E12.25628
G1 X64.314 Y136.221 E12.29306
G1 X63.643 Y135.803 E12.32987
G1 X63.019 Y135.32 E12.36662
G1 X62.558 Y134.892 E12.39591
G1 X62.441 Y134.774 E12.40364
G1 X61.914 Y134.186 E12.44041
G1 X61.449 Y133.547 E12.47721
G1 X61.052 Y132.865 E12.51396
G1 X60.725 Y132.146 E12.55074
G1 X60.472 Y131.398 E12.5875
G1 X60.297 Y130.628 E12.62427
G1 X60.2 Y129.844 E12.66106
G1 X60.18 Y129.254 E12.68855
G1 X60.32 Y90.589 E14.48896
G1 X60.363 Y89.8 E14.52576
G1 X60.485 Y89.02 E14.56252
G1 X60.686 Y88.256 E14.5993
G1 X60.963 Y87.517 E14.63605
G1 X61.313 Y86.809 E14.67283
G1 X61.733 Y86.14 E14.70961
G1 X62.218 Y85.517 E14.74637
G1 X62.605 Y85.102 E14.7728
G1 X62.722 Y84.985 E14.7805
G1 X63.308 Y84.455 E14.81729
G0 F6000 X63.576 Y84.753
G1 F1200 X64.198 Y84.3 E14.85312
G1 X64.863 Y83.914 E14.88893
G1 X65.565 Y83.599 E14.92475
G1 X66.296 Y83.359 E14.96058
G1 X67.047 Y83.196 E14.99636
G1 X67.812 Y83.112 E15.0322
G1 X68.237 Y83.1 E15.052
G1 X145.892 Y83.1 E18.66794
G1 X146.373 Y83.109 E18.69034
G1 X146.816 Y83.132 E18.711
G1 X147.096 Y83.155 E18.72408
G1 X147.385 Y83.184 E18.7376
G1 X147.705 Y83.223 E18.75261
G1 X148.08 Y83.279 E18.77027
G1 X148.367 Y83.329 E18.78383
G1 X148.742 Y83.404 E18.80164
G1 X149.027 Y83.469 E18.81525
G1 X149.355 Y83.552 E18.83101
G1 X149.655 Y83.635 E18.8455
G1 X149.991 Y83.737 E18.86185
G1 X150.265 Y83.827 E18.87528
G1 X150.622 Y83.954 E18.89292
G1 X150.912 Y84.066 E18.9074
G1 X151.256 Y84.209 E18.92475
G1 X151.521 Y84.327 E18.93825
G1 X151.83 Y84.473 E18.95417
G1 X152.107 Y84.612 E18.9686
G1 X152.446 Y84.793 E18.98649
G1 X152.708 Y84.942 E19.00053
G1 X153.018 Y85.129 E19.01739
G1 X153.273 Y85.291 E19.03145
G1 X153.579 Y85.496 E19.0486
G1 X153.815 Y85.663 E19.06207
G1 X154.099 Y85.874 E19.07854
G1 X154.351 Y86.071 E19.09344
G1 X154.62 Y86.292 E19.10965
G1 X154.835 Y86.477 E19.12285
G1 X155.115 Y86.731 E19.14046
G1 X155.331 Y86.937 E19.15436
G1 X155.597 Y87.204 E19.1719
G1 X155.811 Y87.43 E19.1864
G1 X156.04 Y87.683 E19.20229
G1 X156.229 Y87.902 E19.21576
G1 X156.463 Y88.187 E19.23293
G1 X156.654 Y88.432 E19.24739
G1 X156.871 Y88.725 E19.26437
G1 X157.044 Y88.971 E19.27838
G1 X157.229 Y89.247 E19.29385
G1 X157.386 Y89.493 E19.30744
G1 X157.595 Y89.841 E19.32634
G1 X157.746 Y90.109 E19.34066
G1 X157.908 Y90.413 E19.3567
G1 X158.046 Y90.687 E19.37099
G1 X158.207 Y91.029 E19.38859
G1 X158.327 Y91.301 E19.40243
G1 X158.454 Y91.606 E19.41782
G1 X158.559 Y91.876 E19.43131
G1 X158.699 Y92.268 E19.45069
G1 X158.795 Y92.563 E19.46513
G1 X158.888 Y92.874 E19.48025
G1 X158.966 Y93.155 E19.49383
G1 X159.05 Y93.484 E19.50964
G1 X159.117 Y93.777 E19.52363
G1 X159.199 Y94.191 E19.54329
G1 X159.251 Y94.498 E19.55778
G1 X159.299 Y94.825 E19.57317
G1 X159.335 Y95.116 E19.58683
G1 X159.371 Y95.48 E19.60386
G1 X159.393 Y95.778 E19.61777
G1 X159.41 Y96.125 E19.63395
G1 X159.421 Y96.622 E19.6571
G1 X159.421 Y129.283 E21.17793
G1 X159.381 Y130.051 E21.21374
G1 X159.262 Y130.811 E21.24956
G1 X159.064 Y131.554 E21.28537
G1 X158.79 Y132.273 E21.32119
G1 X158.443 Y132.959 E21.35699
G1 X158.027 Y133.606 E21.39281
G1 X157.546 Y134.206 E21.42862
G1 X157.254 Y134.516 E21.44845
G1 X157.137 Y134.633 E21.45615
G1 X156.565 Y135.147 E21.49196
G1 X155.943 Y135.6 E21.52779
G1 X155.278 Y135.986 E21.56359
G1 X154.576 Y136.301 E21.59942
G1 X153.845 Y136.541 E21.63525
G1 X153.094 Y136.704 E21.67103
G1 X152.329 Y136.788 E21.70687
G1 X151.904 Y136.8 E21.72667
G1 X140.096 Y136.8 E22.2765
G1 X139.328 Y136.76 E22.3123
G1 X138.568 Y136.641 E22.34812
G1 X137.825 Y136.443 E22.38393
G1 X137.106 Y136.169 E22.41976
G1 X136.42 Y135.822 E22.45555
G1 X135.773 Y135.406 E22.49137
G1 X135.173 Y134.925 E22.52718
G1 X134.863 Y134.633 E22.54701
G1 X134.746 Y134.516 E22.55471
G1 X134.232 Y133.944 E22.59052
G1 X133.779 Y133.322 E22.62635
G1 X133.393 Y132.657 E22.66216
G1 X133.078 Y131.955 E22.69798
G1 X132.838 Y131.224 E22.73381
G1 X132.675 Y130.473 E22.76959
G1 X132.591 Y129.708 E22.80543
G1 X132.579 Y129.283 E22.82523
G1 X132.579 Y126.8 E22.94085
G1 X120.379 Y126.8 E23.50893
G1 X120.379 Y129.283 E23.62455
G1 X120.339 Y130.051 E23.66036
G1 X120.22 Y130.811 E23.69618
G1 X120.022 Y131.554 E23.73198
G1 X119.748 Y132.273 E23.76781
G1 X119.401 Y132.959 E23.80361
G1 X118.985 Y133.606 E23.83943
G1 X118.504 Y134.206 E23.87523
G1 X118.212 Y134.516 E23.89506
G1 X118.095 Y134.633 E23.90277
G1 X117.523 Y135.147 E23.93858
G1 X116.901 Y135.6 E23.97441
G1 X116.236 Y135.986 E24.01021
G1 X115.534 Y136.301 E24.04604
G1 X114.803 Y136.541 E24.08186
G1 X114.052 Y136.704 E24.11765
G1 X113.287 Y136.788 E24.15348
G1 X112.862 Y136.8 E24.17328
G1 X99.096 Y136.8 E24.81428
G1 X98.328 Y136.76 E24.85009
G1 X97.568 Y136.641 E24.88591
G1 X96.825 Y136.443 E24.92172
G1 X96.106 Y136.169 E24.95755
G1 X95.42 Y135.822 E24.99334
G1 X94.773 Y135.406 E25.02916
G1 X94.173 Y134.925 E25.06497
G1 X93.863 Y134.633 E25.0848
G1 X93.746 Y134.516 E25.0925
G1 X93.232 Y133.944 E25.12831
G1 X92.779 Y133.322 E25.16414
G1 X92.393 Y132.657 E25.19995
G1 X92.078 Y131.955 E25.23577
G1 X91.838 Y131.224 E25.2716
G1 X91.675 Y130.473 E25.30738
G1 X91.591 Y129.708 E25.34322
G1 X91.579 Y129.283 E25.36302
G1 X91.579 Y126.8 E25.47864
G1 X79.379 Y126.8 E26.04672
G1 X79.379 Y129.283 E26.16234
G1 X79.339 Y130.051 E26.19815
G1 X79.22 Y130.811 E26.23397
G1 X79.022 Y131.554 E26.26977
G1 X78.748 Y132.273 E26.3056
G1 X78.401 Y132.959 E26.3414
G1 X77.985 Y133.606 E26.37722
G1 X77.504 Y134.206 E26.41302
G1 X77.212 Y134.516 E26.43285
G1 X77.095 Y134.633 E26.44056
G1 X76.523 Y135.147 E26.47637
G1 X75.901 Y135.6 E26.5122
G1 X75.236 Y135.986 E26.548
G1 X74.534 Y136.301 E26.58383
G1 X73.803 Y136.541 E26.61965
G1 X73.052 Y136.704 E26.65544
G1 X72.287 Y136.788 E26.69127
G1 X71.862 Y136.8 E26.71107
G1 X68.097 Y136.8 E26.88639
G1 X67.329 Y136.76 E26.9222
G1 X66.569 Y136.641 E26.95802
G1 X65.826 Y136.443 E26.99382
G1 X65.107 Y136.169 E27.02965
G1 X64.421 Y135.822 E27.06545
G1 X63.774 Y135.406 E27.10126
G1 X63.174 Y134.925 E27.13707
G1 X62.842 Y134.61 E27.15838
G1 X62.725 Y134.492 E27.16612
G1 X62.213 Y133.919 E27.2019
G1 X61.763 Y133.295 E27.23772
G1 X61.38 Y132.628 E27.27354
G1 X61.068 Y131.925 E27.30935
G1 X60.831 Y131.193 E27.34518
G1 X60.671 Y130.441 E27.38098
G1 X60.59 Y129.676 E27.4168
G1 X60.58 Y129.255 E27.43641
G1 X60.72 Y90.59 E29.23682
G1 X60.763 Y89.822 E29.27264
G1 X60.885 Y89.063 E29.30844
G1 X61.085 Y88.32 E29.34427
G1 X61.362 Y87.602 E29.3801
G1 X61.711 Y86.917 E29.4159
G1 X62.13 Y86.272 E29.45171
G1 X62.613 Y85.674 E29.48751
G1 X62.887 Y85.384 E29.50608
G1 X63.004 Y85.267 E29.51379
G1 X63.576 Y84.753 E29.5496
G0 F6000 X63.844 Y85.05
G1 F1200 X64.45 Y84.613 E29.58439
G1 X65.1 Y84.242 E29.61924
G1 X65.786 Y83.943 E29.65408
G1 X66.5 Y83.719 E29.68893
G1 X67.233 Y83.572 E29.72374
G1 X68.237 Y83.5 E29.77061
G1 X145.892 Y83.5 E33.38655
G1 X146.364 Y83.509 E33.40853
G1 X146.783 Y83.53 E33.42807
G1 X147.063 Y83.553 E33.44115
G1 X147.337 Y83.581 E33.45397
G1 X147.657 Y83.62 E33.46899
G1 X148.011 Y83.673 E33.48565
G1 X148.298 Y83.723 E33.49922
G1 X148.654 Y83.794 E33.51612
G1 X148.939 Y83.859 E33.52973
G1 X149.249 Y83.937 E33.54462
G1 X149.549 Y84.02 E33.55911
G1 X149.866 Y84.117 E33.57455
G1 X150.14 Y84.207 E33.58798
G1 X150.478 Y84.327 E33.60468
G1 X150.768 Y84.439 E33.61915
G1 X151.093 Y84.574 E33.63554
G1 X151.358 Y84.692 E33.64905
G1 X151.651 Y84.831 E33.66415
G1 X151.928 Y84.97 E33.67858
G1 X152.248 Y85.141 E33.69548
G1 X152.51 Y85.29 E33.70951
G1 X152.804 Y85.467 E33.72549
G1 X153.059 Y85.629 E33.73956
G1 X153.348 Y85.823 E33.75576
G1 X153.584 Y85.99 E33.76923
G1 X153.852 Y86.189 E33.78477
G1 X154.104 Y86.386 E33.79966
G1 X154.359 Y86.595 E33.81502
G1 X154.574 Y86.78 E33.82822
G1 X154.839 Y87.02 E33.84487
G1 X155.055 Y87.226 E33.85877
G1 X155.307 Y87.479 E33.8754
G1 X155.521 Y87.705 E33.88989
G1 X155.737 Y87.945 E33.90493
G1 X155.926 Y88.164 E33.9184
G1 X156.148 Y88.433 E33.93464
G1 X156.339 Y88.678 E33.9491
G1 X156.544 Y88.955 E33.96515
G1 X156.717 Y89.201 E33.97915
G1 X156.892 Y89.462 E33.99378
G1 X157.049 Y89.708 E34.00737
G1 X157.247 Y90.038 E34.02529
G1 X157.398 Y90.306 E34.03962
G1 X157.551 Y90.593 E34.05476
G1 X157.689 Y90.867 E34.06905
G1 X157.841 Y91.191 E34.08571
G1 X157.961 Y91.463 E34.09955
G1 X158.081 Y91.751 E34.11408
G1 X158.186 Y92.021 E34.12757
G1 X158.318 Y92.392 E34.14591
G1 X158.414 Y92.687 E34.16035
G1 X158.503 Y92.981 E34.17466
G1 X158.581 Y93.262 E34.18824
G1 X158.66 Y93.574 E34.20322
G1 X158.727 Y93.867 E34.21722
G1 X158.805 Y94.258 E34.23578
G1 X158.857 Y94.565 E34.25028
G1 X158.902 Y94.875 E34.26487
G1 X158.938 Y95.166 E34.27852
G1 X158.972 Y95.51 E34.29462
G1 X158.994 Y95.808 E34.30853
G1 X159.01 Y96.136 E34.32382
G1 X159.021 Y96.622 E34.34646
G1 X159.021 Y129.283 E35.86729
G1 X158.981 Y130.03 E35.90213
G1 X158.862 Y130.768 E35.93693
G1 X158.664 Y131.49 E35.97179
G1 X158.391 Y132.186 E36.00661
G1 X158.044 Y132.849 E36.04145
G1 X157.629 Y133.472 E36.07631
G1 X156.971 Y134.233 E36.12315
G1 X156.854 Y134.35 E36.13086
G1 X156.297 Y134.85 E36.16571
G1 X155.691 Y135.287 E36.2005
G1 X155.041 Y135.658 E36.23535
G1 X154.355 Y135.957 E36.2702
G1 X153.641 Y136.181 E36.30504
G1 X152.908 Y136.328 E36.33985
G1 X151.904 Y136.4 E36.38672
G1 X140.096 Y136.4 E36.93655
G1 X139.349 Y136.36 E36.97138
G1 X138.611 Y136.241 E37.00619
G1 X137.889 Y136.043 E37.04105
G1 X137.193 Y135.77 E37.07587
G1 X136.53 Y135.423 E37.11071
G1 X135.907 Y135.008 E37.14557
G1 X135.146 Y134.35 E37.19241
G1 X135.029 Y134.233 E37.20012
G1 X134.529 Y133.676 E37.23497
G1 X134.092 Y133.07 E37.26976
G1 X133.721 Y132.42 E37.30461
G1 X133.422 Y131.734 E37.33945
G1 X133.198 Y131.02 E37.3743
G1 X133.051 Y130.287 E37.40911
G1 X132.979 Y129.283 E37.45598
G1 X132.979 Y126.4 E37.59023
G1 X119.979 Y126.4 E38.19556
G1 X119.979 Y129.283 E38.3298
G1 X119.939 Y130.03 E38.36464
G1 X119.82 Y130.768 E38.39945
G1 X119.622 Y131.49 E38.43431
G1 X119.349 Y132.186 E38.46912
G1 X119.002 Y132.849 E38.50396
G1 X118.587 Y133.472 E38.53882
G1 X117.929 Y134.233 E38.58567
G1 X117.812 Y134.35 E38.59337
G1 X117.255 Y134.85 E38.62822
G1 X116.649 Y135.287 E38.66301
G1 X115.999 Y135.658 E38.69786
G1 X115.313 Y135.957 E38.73271
G1 X114.599 Y136.181 E38.76755
G1 X113.866 Y136.328 E38.80236
G1 X112.862 Y136.4 E38.84923
