;FLAVOR:Marlin
;TIME:5938
;Filament used: 5.11314m
;Layer height: 0.28
;MINX:60.18
;MINY:82.7
;MINZ:0.28
;MAXX:159.821
;MAXY:137.2
;MAXZ:8.96
;Generated with Cura_SteamEngine 4.9.1
M140 S60
M105
M190 S60
M104 S195
M105
M109 S195
M82 ;absolute extrusion mode
; Ender 3 Custom Start G-code
G92 E0 ; Reset Extruder
G28 ; Home all axes
G1 Z2.0 F3000 ; Move Z Axis up little to prevent scratching of Heat Bed
G1 X0.1 Y20 Z0.3 F5000.0 ; Move to start position
G1 X0.1 Y200.0 Z0.3 F1500.0 E15 ; Draw the first line
G1 X0.4 Y200.0 Z0.3 F5000.0 ; Move to side a little
G1 X0.4 Y20 Z0.3 F1500.0 E30 ; Draw the second line
G92 E0 ; Reset Extruder
G1 Z2.0 F3000 ; Move Z Axis up little to prevent scratching of Heat Bed
G1 X5 Y20 Z0.3 F5000.0 ; Move over to prevent blob squish
G92 E0
G92 E0
G1 F1500 E-6.5
;LAYER_COUNT:32
;LAYER:0
M107
G0 F6000 X63.308 Y84.455 Z0.28
;TYPE:SKIRT
G1 F1500 E0
G1 F1200 X63.944 Y83.988 E0.03674
G1 X64.624 Y83.587 E0.0735
G1 X65.342 Y83.257 E0.1103
G1 X66.089 Y83.002 E0.14705
G1 X66.858 Y82.823 E0.18381
G1 X67.642 Y82.723 E0.22062
G1 X68.237 Y82.7 E0.24834
G1 X145.892 Y82.7 E3.86429
G1 X146.382 Y82.709 E3.88711
G1 X146.849 Y82.733 E3.90888
G1 X147.129 Y82.756 E3.92196
G1 X147.434 Y82.787 E3.93624
G1 X147.754 Y82.826 E3.95125
G1 X148.149 Y82.885 E3.96984
G1 X148.436 Y82.935 E3.98341
G1 X148.831 Y83.014 E4.00217
G1 X149.116 Y83.079 E4.01578
G1 X149.462 Y83.166 E4.03239
G1 X149.762 Y83.249 E4.04689
G1 X150.116 Y83.357 E4.06412
G1 X150.39 Y83.447 E4.07755
G1 X150.766 Y83.581 E4.09614
G1 X151.056 Y83.693 E4.11061
G1 X151.419 Y83.843 E4.1289
G1 X151.684 Y83.961 E4.14241
G1 X152.009 Y84.116 E4.15917
G1 X152.286 Y84.255 E4.1736
G1 X152.644 Y84.446 E4.1925
G1 X152.906 Y84.595 E4.20653
G1 X153.233 Y84.791 E4.22429
G1 X153.488 Y84.953 E4.23835
G1 X153.811 Y85.17 E4.25647
G1 X154.047 Y85.337 E4.26993
G1 X154.345 Y85.559 E4.28724
G1 X154.597 Y85.756 E4.30213
G1 X154.88 Y85.989 E4.3192
G1 X155.095 Y86.174 E4.33241
G1 X155.391 Y86.441 E4.35097
G1 X155.607 Y86.647 E4.36487
G1 X155.888 Y86.929 E4.38341
G1 X156.102 Y87.155 E4.3979
G1 X156.343 Y87.422 E4.41465
G1 X156.532 Y87.641 E4.42812
G1 X156.779 Y87.941 E4.44621
G1 X156.97 Y88.186 E4.46068
G1 X157.198 Y88.495 E4.47856
G1 X157.371 Y88.741 E4.49256
G1 X157.566 Y89.032 E4.50887
G1 X157.723 Y89.278 E4.52246
G1 X157.944 Y89.645 E4.54241
G1 X158.095 Y89.913 E4.55673
G1 X158.265 Y90.233 E4.57361
G1 X158.403 Y90.507 E4.58789
G1 X158.573 Y90.868 E4.60647
G1 X158.693 Y91.14 E4.62032
G1 X158.827 Y91.461 E4.63651
G1 X158.932 Y91.731 E4.65
G1 X159.079 Y92.144 E4.67042
G1 X159.175 Y92.439 E4.68486
G1 X159.274 Y92.767 E4.70082
G1 X159.352 Y93.048 E4.71439
G1 X159.44 Y93.395 E4.73106
G1 X159.507 Y93.688 E4.74506
G1 X159.593 Y94.124 E4.76575
G1 X159.645 Y94.431 E4.78025
G1 X159.696 Y94.776 E4.79649
G1 X159.732 Y95.067 E4.81014
G1 X159.77 Y95.451 E4.82811
G1 X159.792 Y95.749 E4.84203
G1 X159.81 Y96.114 E4.85904
G1 X159.818 Y96.413 E4.87297
G1 X159.821 Y96.622 E4.8827
G1 X159.821 Y129.283 E6.40354
G1 X159.781 Y130.072 E6.44032
G1 X159.662 Y130.852 E6.47706
G1 X159.464 Y131.617 E6.51386
G1 X159.19 Y132.357 E6.5506
G1 X158.842 Y133.066 E6.58738
G1 X158.424 Y133.737 E6.62419
G1 X157.941 Y134.361 E6.66093
G1 X157.536 Y134.798 E6.68868
G1 X157.419 Y134.915 E6.69638
G1 X156.833 Y135.445 E6.73317
G1 X156.197 Y135.912 E6.76991
G1 X155.517 Y136.313 E6.80667
G1 X154.799 Y136.643 E6.84347
G1 X154.052 Y136.898 E6.88022
G1 X153.283 Y137.077 E6.91699
G1 X152.499 Y137.177 E6.95379
G1 X151.904 Y137.2 E6.98152
G1 X140.096 Y137.2 E7.53135
G1 X139.686 Y137.179 E7.55046
G1 X139.581 Y137.19 E7.55538
G1 X139.179 Y137.2 E7.5741
G1 X134.268 Y137.2 E7.80278
G1 X133.479 Y137.16 E7.83957
G1 X132.699 Y137.041 E7.87631
G1 X132.133 Y136.894 E7.90354
G1 X131.353 Y137.077 E7.94084
G1 X130.569 Y137.177 E7.97764
G1 X129.974 Y137.2 E8.00537
G1 X113.779 Y137.199 E8.75948
G1 X113.393 Y137.179 E8.77748
G1 X112.862 Y137.2 E8.80222
G1 X99.096 Y137.2 E9.44322
G1 X98.686 Y137.179 E9.46234
G1 X98.581 Y137.19 E9.46726
G1 X98.179 Y137.2 E9.48598
G1 X91.318 Y137.2 E9.80546
G1 X90.529 Y137.16 E9.84224
G1 X89.749 Y137.041 E9.87898
G1 X89.154 Y136.887 E9.9076
G1 X89.122 Y136.898 E9.90918
G1 X88.353 Y137.077 E9.94594
G1 X87.569 Y137.177 E9.98274
G1 X86.973 Y137.2 E10.01052
G1 X72.778 Y137.199 E10.6715
G1 X72.393 Y137.179 E10.68945
G1 X71.862 Y137.2 E10.71419
G1 X68.097 Y137.2 E10.88951
G1 X67.308 Y137.16 E10.92629
G1 X66.528 Y137.041 E10.96303
G1 X65.763 Y136.843 E10.99983
G1 X65.023 Y136.569 E11.03657
G1 X64.314 Y136.221 E11.07335
G1 X63.643 Y135.803 E11.11016
G1 X63.019 Y135.32 E11.1469
G1 X62.558 Y134.892 E11.1762
G1 X62.441 Y134.774 E11.18393
G1 X61.914 Y134.186 E11.2207
G1 X61.449 Y133.547 E11.2575
G1 X61.052 Y132.865 E11.29424
G1 X60.725 Y132.146 E11.33102
G1 X60.472 Y131.398 E11.36779
G1 X60.297 Y130.628 E11.40456
G1 X60.2 Y129.844 E11.44135
G1 X60.18 Y129.254 E11.46883
G1 X60.32 Y90.589 E13.26925
G1 X60.363 Y89.8 E13.30604
G1 X60.485 Y89.02 E13.34281
G1 X60.686 Y88.256 E13.37959
G1 X60.963 Y87.517 E13.41634
G1 X61.313 Y86.809 E13.45312
G1 X61.733 Y86.14 E13.4899
G1 X62.218 Y85.517 E13.52666
G1 X62.605 Y85.102 E13.55308
G1 X62.722 Y84.985 E13.56079
G1 X63.308 Y84.455 E13.59758
G0 F6000 X63.576 Y84.753
G1 F1200 X64.198 Y84.3 E13.63341
G1 X64.863 Y83.914 E13.66921
G1 X65.565 Y83.599 E13.70504
G1 X66.296 Y83.359 E13.74087
G1 X67.047 Y83.196 E13.77665
G1 X67.812 Y83.112 E13.81249
G1 X68.237 Y83.1 E13.83229
G1 X145.892 Y83.1 E17.44823
G1 X146.373 Y83.109 E17.47063
G1 X146.816 Y83.132 E17.49128
G1 X147.096 Y83.155 E17.50437
G1 X147.385 Y83.184 E17.51789
G1 X147.705 Y83.223 E17.5329
G1 X148.08 Y83.279 E17.55056
G1 X148.367 Y83.329 E17.56412
G1 X148.742 Y83.404 E17.58193
G1 X149.027 Y83.469 E17.59554
G1 X149.355 Y83.552 E17.6113
G1 X149.655 Y83.635 E17.62579
G1 X149.991 Y83.737 E17.64214
G1 X150.265 Y83.827 E17.65557
G1 X150.622 Y83.954 E17.67321
G1 X150.912 Y84.066 E17.68769
G1 X151.256 Y84.209 E17.70504
G1 X151.521 Y84.327 E17.71854
G1 X151.83 Y84.473 E17.73446
G1 X152.107 Y84.612 E17.74889
G1 X152.446 Y84.793 E17.76678
G1 X152.708 Y84.942 E17.78082
G1 X153.018 Y85.129 E17.79767
G1 X153.273 Y85.291 E17.81174
G1 X153.579 Y85.496 E17.82889
G1 X153.815 Y85.663 E17.84236
G1 X154.099 Y85.874 E17.85883
G1 X154.351 Y86.071 E17.87372
G1 X154.62 Y86.292 E17.88993
G1 X154.835 Y86.477 E17.90314
G1 X155.115 Y86.731 E17.92075
G1 X155.331 Y86.937 E17.93464
G1 X155.597 Y87.204 E17.95219
G1 X155.811 Y87.43 E17.96669
G1 X156.04 Y87.683 E17.98258
G1 X156.229 Y87.902 E17.99605
G1 X156.463 Y88.187 E18.01322
G1 X156.654 Y88.432 E18.02768
G1 X156.871 Y88.725 E18.04466
G1 X157.044 Y88.971 E18.05866
G1 X157.229 Y89.247 E18.07414
G1 X157.386 Y89.493 E18.08772
G1 X157.595 Y89.841 E18.10663
G1 X157.746 Y90.109 E18.12095
G1 X157.908 Y90.413 E18.13699
G1 X158.046 Y90.687 E18.15128
G1 X158.207 Y91.029 E18.16888
G1 X158.327 Y91.301 E18.18272
G1 X158.454 Y91.606 E18.1981
G1 X158.559 Y91.876 E18.21159
G1 X158.699 Y92.268 E18.23098
G1 X158.795 Y92.563 E18.24542
G1 X158.888 Y92.874 E18.26054
G1 X158.966 Y93.155 E18.27412
G1 X159.05 Y93.484 E18.28993
G1 X159.117 Y93.777 E18.30392
G1 X159.199 Y94.191 E18.32357
G1 X159.251 Y94.498 E18.33807
G1 X159.299 Y94.825 E18.35346
G1 X159.335 Y95.116 E18.36712
G1 X159.371 Y95.48 E18.38415
G1 X159.393 Y95.778 E18.39806
G1 X159.41 Y96.125 E18.41424
G1 X159.421 Y96.622 E18.43739
G1 X159.421 Y129.283 E19.95822
G1 X159.381 Y130.051 E19.99403
G1 X159.262 Y130.811 E20.02985
G1 X159.064 Y131.554 E20.06566
G1 X158.79 Y132.273 E20.10148
G1 X158.443 Y132.959 E20.13728
G1 X158.027 Y133.606 E20.1731
G1 X157.546 Y134.206 E20.20891
G1 X157.254 Y134.516 E20.22874
G1 X157.137 Y134.633 E20.23644
G1 X156.565 Y135.147 E20.27225
G1 X155.943 Y135.6 E20.30808
G1 X155.278 Y135.986 E20.34388
G1 X154.576 Y136.301 E20.37971
G1 X153.845 Y136.541 E20.41554
G1 X153.094 Y136.704 E20.45132
G1 X152.329 Y136.788 E20.48716
G1 X151.904 Y136.8 E20.50695
G1 X140.096 Y136.8 E21.05678
G1 X139.614 Y136.775 E21.07926
G1 X139.179 Y136.8 E21.09955
G1 X134.268 Y136.8 E21.32822
G1 X133.5 Y136.76 E21.36403
G1 X132.74 Y136.641 E21.39985
G1 X132.116 Y136.475 E21.42992
G1 X131.915 Y136.541 E21.43977
G1 X131.164 Y136.704 E21.47555
G1 X130.399 Y136.788 E21.51139
G1 X129.974 Y136.8 E21.53119
G1 X113.779 Y136.799 E22.2853
G1 X113.377 Y136.778 E22.30404
G1 X113.287 Y136.788 E22.30826
G1 X112.862 Y136.8 E22.32805
G1 X99.096 Y136.8 E22.96906
G1 X98.614 Y136.775 E22.99153
G1 X98.179 Y136.8 E23.01182
G1 X91.318 Y136.8 E23.3313
G1 X90.55 Y136.76 E23.36711
G1 X89.79 Y136.641 E23.40293
G1 X89.139 Y136.467 E23.4343
G1 X88.915 Y136.541 E23.44529
G1 X88.164 Y136.704 E23.48107
G1 X87.399 Y136.788 E23.51691
G1 X86.973 Y136.8 E23.53675
G1 X72.778 Y136.799 E24.19773
G1 X72.377 Y136.778 E24.21643
G1 X72.287 Y136.788 E24.22064
G1 X71.862 Y136.8 E24.24044
G1 X68.097 Y136.8 E24.41576
G1 X67.329 Y136.76 E24.45157
G1 X66.569 Y136.641 E24.48739
G1 X65.826 Y136.443 E24.52319
G1 X65.107 Y136.169 E24.55902
G1 X64.421 Y135.822 E24.59482
G1 X63.774 Y135.406 E24.63063
G1 X63.174 Y134.925 E24.66644
G1 X62.842 Y134.61 E24.68775
G1 X62.725 Y134.492 E24.69549
G1 X62.213 Y133.919 E24.73127
G1 X61.763 Y133.295 E24.76709
G1 X61.38 Y132.628 E24.80291
G1 X61.068 Y131.925 E24.83872
G1 X60.831 Y131.193 E24.87455
G1 X60.671 Y130.441 E24.91035
G1 X60.59 Y129.676 E24.94617
G1 X60.58 Y129.255 E24.96578
G1 X60.72 Y90.59 E26.76619
G1 X60.763 Y89.822 E26.80201
G1 X60.885 Y89.063 E26.83781
G1 X61.085 Y88.32 E26.87364
G1 X61.362 Y87.602 E26.90947
G1 X61.711 Y86.917 E26.94527
G1 X62.13 Y86.272 E26.98108
G1 X62.613 Y85.674 E27.01688
G1 X62.887 Y85.384 E27.03546
G1 X63.004 Y85.267 E27.04316
G1 X63.576 Y84.753 E27.07897
G0 F6000 X63.844 Y85.05
G1 F1200 X64.45 Y84.613 E27.11376
G1 X65.1 Y84.242 E27.14861
G1 X65.786 Y83.943 E27.18345
G1 X66.5 Y83.719 E27.2183
G1 X67.233 Y83.572 E27.25311
G1 X68.237 Y83.5 E27.29998
G1 X145.892 Y83.5 E30.91592
G1 X146.364 Y83.509 E30.9379
G1 X146.783 Y83.53 E30.95744
G1 X147.063 Y83.553 E30.97052
G1 X147.337 Y83.581 E30.98335
G1 X147.657 Y83.62 E30.99836
G1 X148.011 Y83.673 E31.01502
G1 X148.298 Y83.723 E31.02859
G1 X148.654 Y83.794 E31.04549
G1 X148.939 Y83.859 E31.0591
G1 X149.249 Y83.937 E31.07399
G1 X149.549 Y84.02 E31.08848
G1 X149.866 Y84.117 E31.10392
G1 X150.14 Y84.207 E31.11735
G1 X150.478 Y84.327 E31.13405
G1 X150.768 Y84.439 E31.14853
G1 X151.093 Y84.574 E31.16491
G1 X151.358 Y84.692 E31.17842
G1 X151.651 Y84.831 E31.19352
G1 X151.928 Y84.97 E31.20795
G1 X152.248 Y85.141 E31.22485
G1 X152.51 Y85.29 E31.23888
G1 X152.804 Y85.467 E31.25486
G1 X153.059 Y85.629 E31.26893
G1 X153.348 Y85.823 E31.28514
G1 X153.584 Y85.99 E31.2986
G1 X153.852 Y86.189 E31.31414
G1 X154.104 Y86.386 E31.32904
G1 X154.359 Y86.595 E31.34439
G1 X154.574 Y86.78 E31.3576
G1 X154.839 Y87.02 E31.37424
G1 X155.055 Y87.226 E31.38814
G1 X155.307 Y87.479 E31.40477
G1 X155.521 Y87.705 E31.41926
G1 X155.737 Y87.945 E31.4343
G1 X155.926 Y88.164 E31.44777
G1 X156.148 Y88.433 E31.46401
G1 X156.339 Y88.678 E31.47847
G1 X156.544 Y88.955 E31.49452
G1 X156.717 Y89.201 E31.50852
G1 X156.892 Y89.462 E31.52316
G1 X157.049 Y89.708 E31.53674
G1 X157.247 Y90.038 E31.55466
G1 X157.398 Y90.306 E31.56899
G1 X157.551 Y90.593 E31.58413
G1 X157.689 Y90.867 E31.59842
G1 X157.841 Y91.191 E31.61508
G1 X157.961 Y91.463 E31.62893
G1 X158.081 Y91.751 E31.64345
G1 X158.186 Y92.021 E31.65694
G1 X158.318 Y92.392 E31.67528
G1 X158.414 Y92.687 E31.68972
G1 X158.503 Y92.981 E31.70403
G1 X158.581 Y93.262 E31.71761
G1 X158.66 Y93.574 E31.73259
G1 X158.727 Y93.867 E31.74659
G1 X158.805 Y94.258 E31.76515
G1 X158.857 Y94.565 E31.77965
G1 X158.902 Y94.875 E31.79424
G1 X158.938 Y95.166 E31.80789
G1 X158.972 Y95.51 E31.82399
G1 X158.994 Y95.808 E31.8379
G1 X159.01 Y96.136 E31.85319
G1 X159.021 Y96.622 E31.87583
G1 X159.021 Y129.283 E33.39666
G1 X158.981 Y130.03 E33.4315
G1 X158.862 Y130.768 E33.4663
G1 X158.664 Y131.49 E33.50117
G1 X158.391 Y132.186 E33.53598
G1 X158.044 Y132.849 E33.57082
G1 X157.629 Y133.472 E33.60568
G1 X156.971 Y134.233 E33.65252
G1 X156.854 Y134.35 E33.66023
G1 X156.297 Y134.85 E33.69508
G1 X155.691 Y135.287 E33.72987
G1 X155.041 Y135.658 E33.76472
G1 X154.355 Y135.957 E33.79957
G1 X153.641 Y136.181 E33.83441
G1 X152.908 Y136.328 E33.86922
G1 X151.904 Y136.4 E33.91609
G1 X140.096 Y136.4 E34.46592
G1 X139.709 Y136.379 E34.48397
G1 X139.696 Y136.381 E34.48458
G1 X139.179 Y136.4 E34.50867
G1 X134.268 Y136.4 E34.73735
G1 X133.521 Y136.36 E34.77218
G1 X132.783 Y136.241 E34.80699
G1 X132.109 Y136.056 E34.83954
G1 X131.711 Y136.181 E34.85896
G1 X130.978 Y136.328 E34.89377
G1 X129.974 Y136.4 E34.94064
G1 X113.779 Y136.399 E35.69475
G1 X113.262 Y136.371 E35.71886
G1 X112.862 Y136.4 E35.73753
G1 X99.096 Y136.4 E36.37854
G1 X98.709 Y136.379 E36.39658
G1 X98.696 Y136.381 E36.39719
G1 X98.179 Y136.4 E36.42128
G1 X91.318 Y136.4 E36.74076
G1 X90.571 Y136.36 E36.77559
G1 X89.833 Y136.241 E36.8104
G1 X89.132 Y136.049 E36.84425
G1 X88.711 Y136.181 E36.86479
G1 X87.978 Y136.328 E36.8996
G1 X86.974 Y136.4 E36.94647
G1 X72.779 Y136.399 E37.60745
G1 X72.262 Y136.371 E37.63156
G1 X71.862 Y136.4 E37.65023
G1 X68.097 Y136.4 E37.82555
G1 X67.35 Y136.36 E37.86038
G1 X66.612 Y136.241 E37.89519
G1 X65.89 Y136.043 E37.93005
G1 X65.194 Y135.77 E37.96486
G1 X64.531 Y135.423 E37.99971
G1 X63.908 Y135.008 E38.03457
G1 X63.126 Y134.329 E38.08279
G1 X63.009 Y134.211 E38.09053
G1 X62.512 Y133.652 E38.12536
G1 X62.077 Y133.044 E38.16017
G1 X61.709 Y132.392 E38.19503
G1 X61.413 Y131.705 E38.22986
G1 X61.192 Y130.99 E38.26471
G1 X61.048 Y130.256 E38.29954
G1 X60.98 Y129.257 E38.34616
G1 X61.12 Y90.592 E40.14658
G1 X61.163 Y89.845 E40.18142
G1 X61.285 Y89.107 E40.21625
G1 X61.485 Y88.386 E40.25109
G1 X61.761 Y87.691 E40.28591
G1 X62.11 Y87.029 E40.32076
G1 X62.527 Y86.408 E40.35559
G1 X63.17 Y85.667 E40.40127
G1 X63.287 Y85.55 E40.40898
G1 X63.844 Y85.05 E40.44383
G0 F6000 X64.111 Y85.349
G1 F1200 X64.702 Y84.926 E40.47767
G1 X65.336 Y84.572 E40.51149
G1 X66.005 Y84.289 E40.54531
G1 X66.701 Y84.081 E40.57913
G1 X67.416 Y83.951 E40.61297
G1 X68.237 Y83.9 E40.65128
G1 X145.892 Y83.9 E44.26722
G1 X146.355 Y83.909 E44.28878
G1 X146.75 Y83.929 E44.3072
G1 X147.03 Y83.952 E44.32028
G1 X147.288 Y83.978 E44.33236
G1 X147.608 Y84.017 E44.34737
G1 X147.943 Y84.067 E44.36314
G1 X148.23 Y84.117 E44.3767
G1 X148.565 Y84.184 E44.39261
G1 X148.85 Y84.249 E44.40622
G1 X149.142 Y84.323 E44.42025
G1 X149.442 Y84.406 E44.43474
G1 X149.742 Y84.497 E44.44934
G1 X150.016 Y84.587 E44.46277
G1 X150.334 Y84.7 E44.47848
G1 X150.624 Y84.812 E44.49296
G1 X150.931 Y84.94 E44.50845
G1 X151.196 Y85.058 E44.52196
G1 X151.471 Y85.188 E44.53612
G1 X151.748 Y85.327 E44.55055
G1 X152.051 Y85.489 E44.56655
G1 X152.313 Y85.638 E44.58058
G1 X152.589 Y85.804 E44.59558
G1 X152.844 Y85.966 E44.60965
G1 X153.117 Y86.149 E44.62495
G1 X153.353 Y86.316 E44.63841
G1 X153.606 Y86.504 E44.65309
G1 X153.858 Y86.701 E44.66799
G1 X154.098 Y86.898 E44.68244
G1 X154.313 Y87.083 E44.69565
G1 X154.563 Y87.31 E44.71138
G1 X154.779 Y87.516 E44.72527
G1 X155.016 Y87.754 E44.74091
G1 X155.23 Y87.98 E44.75541
G1 X155.435 Y88.206 E44.76961
G1 X155.624 Y88.425 E44.78308
G1 X155.832 Y88.679 E44.79837
G1 X156.023 Y88.924 E44.81284
G1 X156.217 Y89.185 E44.82798
G1 X156.39 Y89.431 E44.84198
G1 X156.555 Y89.677 E44.85578
G1 X156.712 Y89.923 E44.86937
G1 X156.898 Y90.234 E44.88624
G1 X157.049 Y90.502 E44.90056
G1 X157.194 Y90.773 E44.91487
G1 X157.332 Y91.047 E44.92916
G1 X157.475 Y91.352 E44.94485
G1 X157.595 Y91.624 E44.95869
G1 X157.708 Y91.896 E44.9724
G1 X157.813 Y92.166 E44.98589
G1 X157.938 Y92.516 E45.0032
G1 X158.034 Y92.811 E45.01764
G1 X158.118 Y93.088 E45.03112
G1 X158.196 Y93.369 E45.0447
G1 X158.27 Y93.663 E45.05882
G1 X158.337 Y93.956 E45.07281
G1 X158.41 Y94.325 E45.09033
G1 X158.462 Y94.632 E45.10483
G1 X158.505 Y94.924 E45.11857
G1 X158.541 Y95.215 E45.13223
G1 X158.573 Y95.539 E45.14739
G1 X158.595 Y95.837 E45.1613
G1 X158.611 Y96.146 E45.17571
G1 X158.619 Y96.445 E45.18963
G1 X158.621 Y96.622 E45.19788
G1 X158.621 Y129.283 E46.71871
G1 X158.581 Y130.008 E46.75252
G1 X158.462 Y130.725 E46.78636
